assets/luts/sepia.cube
# A Sample Sepia LUT
TITLE "Custom Sepia Tone"
LUT_3D_SIZE 2
# R G B values for the 8 corners of the color cube
0.0 0.0 0.0
0.393 0.349 0.272
0.769 0.686 0.534
0.189 0.168 0.131
1.0 1.0 0.806
0.582 0.517 0.403
0.958 0.854 0.665
1.0 1.0 0.937
