assets/luts/PHLEARN/PHLEARN-Cool Tones-Crisp Slate.CUBE
#Created by: Adobe Photoshop Export Color Lookup Plugin
#Copyright: (C) Copyright 2019 PHLEARN
TITLE "PHLEARN Cooling 01"
#LUT size
LUT_3D_SIZE 5
#data domain
#LUT data points
DOMAIN_MIN 0.000000 0.000000 0.000000
DOMAIN_MAX 0.903226 0.903226 0.903226
0.000000 0.000000 0.000000
0.198090 0.000000 0.012604
0.412292 0.000000 0.017883
0.660919 0.000000 0.007507
0.901733 0.000000 0.000671
0.000000 0.225800 0.013275
0.198090 0.225800 0.012604
0.412292 0.225800 0.017883
0.660919 0.225800 0.007507
0.901733 0.225800 0.000671
0.000000 0.451599 0.026581
0.170319 0.451599 0.025238
0.412292 0.451599 0.017883
0.660919 0.451599 0.007507
0.901733 0.451599 0.000671
0.000000 0.677429 0.018982
0.186188 0.677429 0.018005
0.423523 0.677429 0.012756
0.660919 0.677429 0.007507
0.901733 0.677429 0.000671
0.000000 0.903229 0.005707
0.213928 0.903229 0.005402
0.443176 0.903229 0.003845
0.672485 0.903229 0.002258
0.901733 0.903229 0.000671
0.000000 0.000000 0.239075
0.198090 0.000000 0.238403
0.412292 0.000000 0.243683
0.660919 0.000000 0.233307
0.901733 0.000000 0.226471
0.000000 0.225800 0.239075
0.170319 0.225800 0.251038
0.392670 0.225800 0.252594
0.649353 0.225800 0.238556
0.898285 0.225800 0.228058
0.000000 0.451599 0.252380
0.142609 0.451599 0.263641
0.392670 0.451599 0.252594
0.649353 0.451599 0.238556
0.898285 0.451599 0.228058
0.000000 0.677429 0.244781
0.158447 0.677429 0.256409
0.403900 0.677429 0.247498
0.649353 0.677429 0.238556
0.898285 0.677429 0.228058
0.000000 0.903229 0.231506
0.186188 0.903229 0.243805
0.423523 0.903229 0.238556
0.660919 0.903229 0.233307
0.898285 0.903229 0.228058
0.000000 0.000000 0.478180
0.170319 0.000000 0.476837
0.412292 0.000000 0.469482
0.660919 0.000000 0.459106
0.901733 0.000000 0.452271
0.000000 0.225800 0.478180
0.142609 0.225800 0.489441
0.392670 0.225800 0.478394
0.649353 0.225800 0.464355
0.898285 0.225800 0.453857
0.000000 0.451599 0.478180
0.142609 0.451599 0.489441
0.373016 0.451599 0.487335
0.637817 0.451599 0.469604
0.894806 0.451599 0.455414
0.000000 0.677429 0.470581
0.158447 0.677429 0.482208
0.384247 0.677429 0.482239
0.637817 0.677429 0.469604
0.894806 0.677429 0.455414
0.000000 0.903229 0.457306
0.186188 0.903229 0.469604
0.403900 0.903229 0.473297
0.649353 0.903229 0.464355
0.894806 0.903229 0.455414
0.000000 0.000000 0.696411
0.186188 0.000000 0.695435
0.423523 0.000000 0.690186
0.660919 0.000000 0.684937
0.901733 0.000000 0.678101
0.000000 0.225800 0.696411
0.158447 0.225800 0.708038
0.403900 0.225800 0.699127
0.649353 0.225800 0.690186
0.898285 0.225800 0.679688
0.000000 0.451599 0.696411
0.158447 0.451599 0.708038
0.384247 0.451599 0.708069
0.637817 0.451599 0.695435
0.894806 0.451599 0.681244
0.000000 0.677429 0.696411
0.158447 0.677429 0.708038
0.384247 0.677429 0.708069
0.644409 0.677429 0.692444
0.896790 0.677429 0.680359
0.000000 0.903229 0.683136
0.186188 0.903229 0.695435
0.403900 0.903229 0.699127
0.655975 0.903229 0.687195
0.896790 0.903229 0.680359
0.000000 0.000000 0.908936
0.213928 0.000000 0.908630
0.443176 0.000000 0.907074
0.672485 0.000000 0.905487
0.901733 0.000000 0.903900
0.000000 0.225800 0.908936
0.186188 0.225800 0.921234
0.423523 0.225800 0.915985
0.660919 0.225800 0.910736
0.898285 0.225800 0.905487
0.000000 0.451599 0.908936
0.186188 0.451599 0.921234
0.403900 0.451599 0.924927
0.649353 0.451599 0.915985
0.894806 0.451599 0.907043
0.000000 0.677429 0.908936
0.186188 0.677429 0.921234
0.403900 0.677429 0.924927
0.655975 0.677429 0.912994
0.896790 0.677429 0.906158
0.000000 0.903229 0.908936
0.186188 0.903229 0.921234
0.403900 0.903229 0.924927
0.655975 0.903229 0.912994
0.900269 0.903229 0.904572
