assets/luts/PHLEARN/PHLEARN-Bright _ Airy-Peachy Cream.CUBE
#Created by: Adobe Photoshop Export Color Lookup Plugin
TITLE "PHLEARN-Bright & Airy LUTs-Peachy Cream.jpeg"
#LUT size
LUT_3D_SIZE 5
#data domain
#LUT data points
DOMAIN_MIN 0.000000 0.000000 0.000000
DOMAIN_MAX 0.903226 0.903226 0.903226
0.315796 0.276764 0.276764
0.473999 0.239075 0.239075
0.625824 0.229156 0.229156
0.777588 0.225891 0.225891
0.915100 0.222870 0.222870
0.287292 0.453735 0.244629
0.483826 0.448975 0.238007
0.633850 0.437225 0.228363
0.780365 0.430389 0.223633
0.914001 0.424622 0.218353
0.274658 0.613556 0.231323
0.479248 0.613556 0.231323
0.643250 0.613342 0.230835
0.794189 0.607208 0.227203
0.927521 0.599548 0.221313
0.272400 0.771423 0.228851
0.477692 0.771423 0.228851
0.642334 0.771423 0.228851
0.800568 0.771271 0.228424
0.940796 0.768463 0.226257
0.270142 0.918610 0.226593
0.476074 0.918610 0.226593
0.641235 0.918610 0.226593
0.800079 0.918610 0.226593
0.943604 0.918518 0.226196
0.370300 0.333527 0.463531
0.485779 0.242981 0.451355
0.637939 0.237610 0.443909
0.785706 0.235565 0.440063
0.919403 0.231445 0.435577
0.287903 0.454224 0.454224
0.484650 0.451355 0.451355
0.635864 0.445343 0.445343
0.786133 0.442841 0.442841
0.922607 0.440460 0.440460
0.275330 0.613892 0.444611
0.481506 0.615204 0.446472
0.644775 0.614929 0.446136
0.791504 0.607666 0.442139
0.924316 0.602203 0.437286
0.273010 0.771606 0.442871
0.479828 0.772400 0.444702
0.643829 0.772400 0.444702
0.801392 0.772278 0.444366
0.937592 0.767090 0.441681
0.270874 0.918671 0.441132
0.478302 0.918976 0.443054
0.642731 0.918976 0.443054
0.800964 0.918976 0.443054
0.943848 0.918945 0.442780
0.461243 0.418091 0.619568
0.498627 0.259949 0.627930
0.645996 0.239746 0.616547
0.799774 0.240997 0.615387
0.934143 0.239349 0.611084
0.420807 0.500000 0.616425
0.543365 0.513367 0.618317
0.646515 0.450562 0.617065
0.795013 0.450409 0.613556
0.927490 0.449188 0.610718
0.275330 0.613892 0.613892
0.481873 0.615479 0.615479
0.643036 0.614532 0.614532
0.792664 0.612640 0.612640
0.928864 0.610901 0.610901
0.273010 0.771606 0.612701
0.480225 0.772552 0.614288
0.643524 0.772186 0.613617
0.801208 0.772095 0.613403
0.934601 0.765930 0.610260
0.270874 0.918671 0.611572
0.478668 0.919006 0.613159
0.642456 0.918884 0.612488
0.800751 0.918884 0.612488
0.943787 0.918823 0.612274
0.552612 0.502716 0.769745
0.567535 0.364746 0.777435
0.656189 0.258545 0.780396
0.804138 0.240784 0.775238
0.947662 0.244598 0.777496
0.521271 0.576202 0.769226
0.634857 0.599731 0.769562
0.659302 0.470856 0.779205
0.804382 0.451843 0.775574
0.942657 0.454071 0.774170
0.419739 0.636963 0.769470
0.609711 0.665070 0.768799
0.700287 0.674194 0.771027
0.802856 0.617523 0.774078
0.938141 0.617706 0.771210
0.273010 0.771606 0.771606
0.480225 0.772552 0.772552
0.643311 0.772064 0.772064
0.799164 0.771210 0.771210
0.935455 0.769989 0.769989
0.270874 0.918671 0.770966
0.478668 0.919006 0.771881
0.642273 0.918823 0.771423
0.800110 0.918640 0.770782
0.943604 0.918579 0.770691
0.634094 0.578644 0.904083
0.647278 0.465149 0.910034
0.684387 0.318817 0.920410
0.808990 0.256470 0.923340
0.948059 0.241516 0.923218
0.598297 0.639862 0.904938
0.711365 0.669922 0.907135
0.724426 0.567657 0.913849
0.808441 0.463135 0.922363
0.947144 0.453674 0.922516
0.560730 0.702271 0.904266
0.685577 0.726013 0.907684
0.780762 0.749176 0.910248
0.807922 0.627045 0.920959
0.946106 0.619446 0.921417
0.408112 0.777191 0.911499
0.603729 0.788605 0.911163
0.754944 0.811584 0.910980
0.848022 0.822479 0.914703
0.945190 0.774353 0.920410
0.270874 0.918671 0.918671
0.478668 0.919006 0.919006
0.642273 0.918823 0.918823
0.800018 0.918579 0.918579
0.942230 0.918213 0.918213
