assets/luts/PHLEARN/PHLEARN-Bright _ Airy-Peachy Cream.CUBE
#Created by: Adobe Photoshop Export Color Lookup Plugin
TITLE "PHLEARN-Bright & Airy LUTs-Peachy Cream.jpeg"
#LUT size
LUT_3D_SIZE 8
#data domain
#LUT data points
DOMAIN_MIN 0.000000 0.000000 0.000000
DOMAIN_MAX 0.903226 0.903226 0.903226
0.315796 0.276764 0.276764
0.407990 0.254272 0.254272
0.495148 0.234314 0.234314
0.582581 0.230072 0.230072
0.669525 0.228241 0.228241
0.756348 0.226349 0.226349
0.839355 0.224579 0.224579
0.915100 0.222870 0.222870
0.302551 0.382843 0.260834
0.414429 0.376740 0.253510
0.499207 0.356323 0.233002
0.584259 0.351227 0.228760
0.668854 0.347778 0.225647
0.755524 0.345428 0.223083
0.838379 0.343201 0.220673
0.914001 0.341156 0.218353
0.282471 0.476624 0.239594
0.403503 0.476624 0.239594
0.506012 0.472168 0.233185
0.594208 0.467896 0.230804
0.678436 0.462891 0.227325
0.762390 0.458496 0.224152
0.842316 0.455048 0.221954
0.916382 0.451691 0.218292
0.275391 0.569183 0.231995
0.397522 0.569183 0.231995
0.505219 0.569183 0.231995
0.598419 0.568939 0.231537
0.687073 0.566711 0.229126
0.770264 0.560944 0.226379
0.850525 0.556458 0.223206
0.923126 0.552795 0.221405
0.274109 0.658661 0.230621
0.396484 0.658661 0.230621
0.504333 0.658661 0.230621
0.597931 0.658661 0.230621
0.688538 0.658508 0.230133
0.778076 0.657440 0.228760
0.857605 0.651825 0.226013
0.931000 0.647552 0.222961
0.272705 0.749084 0.229218
0.395416 0.749084 0.229218
0.503418 0.749084 0.229218
0.597198 0.749084 0.229218
0.688110 0.749084 0.229218
0.778534 0.748993 0.228760
0.864685 0.748474 0.227417
0.939423 0.744629 0.224518
0.271423 0.836914 0.227844
0.394287 0.836914 0.227844
0.502594 0.836914 0.227844
0.596466 0.836914 0.227844
0.687592 0.836914 0.227844
0.778290 0.836914 0.227844
0.864685 0.836884 0.227417
0.943604 0.836639 0.226196
0.270142 0.918610 0.226593
0.393311 0.918610 0.226593
0.501678 0.918610 0.226593
0.595764 0.918610 0.226593
0.687103 0.918610 0.226593
0.777985 0.918610 0.226593
0.864471 0.918610 0.226593
0.943604 0.918518 0.226196
0.335541 0.299713 0.390961
0.415710 0.256653 0.378418
0.501770 0.238312 0.360413
0.587921 0.235657 0.357147
0.672455 0.233246 0.354401
0.758057 0.231873 0.352844
0.841278 0.229736 0.351105
0.917267 0.227570 0.349426
0.303162 0.383392 0.383392
0.414459 0.378510 0.378510
0.501312 0.361847 0.361847
0.588776 0.359070 0.359070
0.675201 0.357513 0.357513
0.761475 0.355865 0.355865
0.844055 0.354248 0.354248
0.919495 0.352814 0.352814
0.283142 0.477081 0.365662
0.405029 0.477966 0.366730
0.507294 0.473572 0.361420
0.592804 0.468445 0.358643
0.676361 0.464966 0.356232
0.760834 0.461884 0.353363
0.843262 0.459869 0.351166
0.918549 0.458038 0.349121
0.276001 0.569550 0.359344
0.399109 0.570282 0.360413
0.506470 0.570282 0.360413
0.599426 0.570068 0.360016
0.684814 0.565948 0.358185
0.768555 0.561554 0.355011
0.848572 0.557770 0.352203
0.921265 0.554993 0.350403
0.274658 0.658966 0.358185
0.397980 0.659515 0.359253
0.505615 0.659515 0.359253
0.598969 0.659515 0.359253
0.689331 0.659302 0.358856
0.776642 0.656677 0.356720
0.856079 0.651733 0.354370
0.929260 0.648010 0.351593
0.273346 0.749329 0.356995
0.396881 0.749725 0.358063
0.504700 0.749725 0.358063
0.598206 0.749725 0.358063
0.688934 0.749725 0.358063
0.779114 0.749634 0.357697
0.864227 0.748474 0.356598
0.936951 0.743774 0.354248
0.272064 0.837067 0.355896
0.395874 0.837341 0.356934
0.503876 0.837341 0.356934
0.597504 0.837341 0.356934
0.688354 0.837341 0.356934
0.778839 0.837341 0.356934
0.865021 0.837250 0.356567
0.943756 0.836945 0.355560
0.270874 0.918671 0.354767
0.394867 0.918823 0.355896
0.503021 0.918823 0.355896
0.596863 0.918823 0.355896
0.687897 0.918823 0.355896
0.778473 0.918823 0.355896
0.864899 0.918823 0.355896
0.943756 0.918762 0.355560
0.382019 0.344452 0.486298
0.416168 0.255493 0.487823
0.508301 0.238922 0.474915
0.597992 0.239014 0.473236
0.682861 0.237793 0.470306
0.766632 0.238220 0.468384
0.848114 0.235504 0.465851
0.920776 0.234833 0.464142
0.375580 0.410065 0.482544
0.432922 0.400055 0.483337
0.508484 0.364380 0.475159
0.595306 0.363800 0.472351
0.679108 0.363098 0.470367
0.763611 0.360168 0.467590
0.845642 0.359100 0.466553
0.921326 0.357239 0.465088
0.283142 0.477081 0.477081
0.405518 0.478363 0.478363
0.507019 0.474823 0.474823
0.594482 0.473083 0.473083
0.680389 0.471741 0.471741
0.766174 0.470367 0.470367
0.848419 0.468994 0.468994
0.923553 0.467773 0.467773
0.276001 0.569550 0.471832
0.399567 0.570618 0.473145
0.507629 0.571259 0.473938
0.600342 0.571014 0.473633
0.683472 0.566437 0.471344
0.767029 0.563110 0.468567
0.847778 0.560944 0.466644
0.922791 0.559418 0.464874
0.274658 0.658966 0.470856
0.398468 0.659790 0.472168
0.506714 0.660309 0.472992
0.599854 0.660309 0.472992
0.690033 0.660095 0.472656
0.775024 0.656158 0.470367
0.854340 0.652161 0.468262
0.927368 0.649139 0.465790
0.273346 0.749329 0.469940
0.397369 0.749939 0.471252
0.505798 0.750305 0.472015
0.599091 0.750305 0.472015
0.689697 0.750305 0.472015
0.779602 0.750153 0.471710
0.862793 0.747650 0.469910
0.935333 0.743439 0.467865
0.272064 0.837067 0.468933
0.396301 0.837463 0.470306
0.504944 0.837708 0.471069
0.598419 0.837708 0.471069
0.689117 0.837708 0.471069
0.779358 0.837708 0.471069
0.865326 0.837646 0.470795
0.943604 0.837067 0.469940
0.270874 0.918671 0.468140
0.395325 0.918884 0.469452
0.504120 0.919006 0.470215
0.597748 0.919006 0.470215
0.688568 0.919006 0.470215
0.778992 0.919006 0.470215
0.865112 0.919006 0.470215
0.943878 0.919006 0.469940
0.433990 0.392517 0.576538
0.445129 0.299194 0.582550
0.515350 0.247772 0.577972
0.601532 0.238770 0.572357
0.690948 0.240845 0.572601
0.775543 0.239471 0.569214
0.856445 0.238800 0.566772
0.929749 0.239349 0.565125
0.420746 0.447998 0.575897
0.482941 0.449249 0.575043
0.515625 0.372040 0.578278
0.601532 0.365356 0.572510
0.688263 0.365723 0.570831
0.772644 0.364899 0.568420
0.853363 0.364410 0.566711
0.925903 0.363708 0.564850
0.357758 0.489746 0.573395
0.478241 0.508911 0.572632
0.530304 0.501343 0.574280
0.601501 0.476410 0.572510
0.685699 0.476105 0.570038
0.769104 0.475220 0.568176
0.849701 0.473450 0.566345
0.925110 0.471832 0.565216
0.276001 0.569550 0.569550
0.399567 0.570618 0.570618
0.507965 0.571564 0.571564
0.598755 0.570648 0.570648
0.684357 0.569489 0.569489
0.770020 0.568329 0.568329
0.852051 0.567200 0.567200
0.927155 0.566101 0.566101
0.274658 0.658966 0.568817
0.398468 0.659790 0.569824
0.507080 0.660522 0.570770
0.599640 0.660126 0.570251
0.689758 0.659790 0.569977
0.772614 0.655548 0.567963
0.852570 0.652618 0.565491
0.926544 0.651031 0.563965
0.273346 0.749329 0.567993
0.397369 0.749939 0.569092
0.506165 0.750488 0.569977
0.598907 0.750153 0.569458
0.689484 0.750153 0.569458
0.779480 0.750061 0.569183
0.860870 0.746399 0.567200
0.933502 0.743011 0.565430
0.272064 0.837067 0.567200
0.396301 0.837463 0.568237
0.505310 0.837799 0.569214
0.598206 0.837616 0.568695
0.688934 0.837616 0.568695
0.779205 0.837616 0.568695
0.865234 0.837524 0.568451
0.942078 0.835754 0.566925
0.270874 0.918671 0.566589
0.395325 0.918884 0.567657
0.504486 0.919067 0.568512
0.597534 0.918945 0.567993
0.688416 0.918945 0.567993
0.778870 0.918945 0.567993
0.865112 0.918945 0.567993
0.943848 0.918945 0.567780
0.488953 0.443909 0.662720
0.491821 0.357391 0.667786
0.525482 0.263458 0.673248
0.606415 0.247589 0.665771
0.691559 0.240021 0.661896
0.782837 0.242035 0.663940
0.863708 0.241730 0.660767
0.937653 0.241089 0.658234
0.467804 0.488586 0.664490
0.536316 0.499664 0.662445
0.545746 0.417755 0.667664
0.606537 0.372223 0.665710
0.692169 0.365753 0.662415
0.780853 0.366791 0.662415
0.861023 0.366760 0.659424
0.934875 0.366241 0.657501
0.438812 0.530731 0.660461
0.524689 0.548157 0.662262
0.579620 0.550232 0.661835
0.606689 0.482239 0.666016
0.691956 0.477539 0.662384
0.778198 0.477509 0.660706
0.858246 0.477570 0.658569
0.932007 0.476837 0.657135
0.348846 0.577179 0.661346
0.473053 0.585205 0.661102
0.576233 0.601837 0.659821
0.620544 0.595367 0.661530
0.690948 0.572540 0.661316
0.774780 0.572479 0.658997
0.855042 0.570923 0.657043
0.928375 0.570129 0.655975
0.274658 0.658966 0.658966
0.398468 0.659790 0.659790
0.507080 0.660522 0.660522
0.599396 0.659912 0.659912
0.687897 0.659180 0.659180
0.773438 0.658142 0.658142
0.855499 0.657227 0.657227
0.930664 0.656311 0.656311
0.273346 0.749329 0.658264
0.397369 0.749939 0.659149
0.506165 0.750488 0.659882
0.598663 0.750031 0.659271
0.688934 0.749725 0.658875
0.778992 0.749481 0.658661
0.858459 0.745514 0.656860
0.931274 0.743225 0.655273
0.272064 0.837067 0.657745
0.396301 0.837463 0.658508
0.505310 0.837799 0.659332
0.597961 0.837524 0.658691
0.688385 0.837311 0.658264
0.778809 0.837311 0.658264
0.864990 0.837219 0.658081
0.939636 0.834198 0.656921
0.270874 0.918671 0.657074
0.395325 0.918884 0.657959
0.504486 0.919067 0.658783
0.597290 0.918915 0.658112
0.687836 0.918823 0.657715
0.778412 0.918823 0.657715
0.864868 0.918823 0.657715
0.943726 0.918762 0.657532
0.540009 0.491028 0.748810
0.543274 0.415039 0.753021
0.562927 0.326172 0.758698
0.614349 0.262726 0.759583
0.695465 0.248047 0.754944
0.781982 0.240662 0.752808
0.869568 0.243317 0.755096
0.946228 0.242859 0.753998
0.515747 0.529968 0.751251
0.589386 0.549286 0.748596
0.592255 0.475586 0.753204
0.618256 0.392365 0.758698
0.695770 0.372284 0.755219
0.781830 0.367279 0.752777
0.869080 0.369171 0.754822
0.942719 0.369049 0.751984
0.507202 0.577881 0.746857
0.569885 0.586823 0.749908
0.631683 0.599243 0.748535
0.639191 0.530518 0.754150
0.695679 0.482697 0.754944
0.782196 0.478394 0.753113
0.866852 0.479401 0.753052
0.940155 0.479431 0.750549
0.439667 0.607056 0.747589
0.552368 0.626434 0.747192
0.619629 0.638763 0.748871
0.669617 0.643250 0.749023
0.694824 0.576935 0.754364
0.781281 0.573853 0.752167
0.863434 0.574524 0.750641
0.937347 0.574036 0.748962
0.346680 0.662628 0.750305
0.472534 0.666809 0.749542
0.578552 0.674316 0.748749
0.665405 0.689545 0.747955
0.708679 0.682953 0.750061
0.780151 0.661224 0.751007
0.860626 0.661285 0.748901
0.933746 0.660767 0.747559
0.273346 0.749329 0.749329
0.397369 0.749939 0.749939
0.506165 0.750488 0.750488
0.598663 0.750031 0.750031
0.688751 0.749573 0.749573
0.777252 0.748993 0.748993
0.859283 0.748169 0.748169
0.934418 0.747437 0.747437
0.272064 0.837067 0.748871
0.396301 0.837463 0.749512
0.505310 0.837799 0.750000
0.597961 0.837524 0.749573
0.688202 0.837219 0.749115
0.778412 0.837006 0.748810
0.864746 0.836914 0.748657
0.937714 0.833344 0.747131
0.270874 0.918671 0.748505
0.395325 0.918884 0.749115
0.504486 0.919067 0.749603
0.597290 0.918915 0.749176
0.687683 0.918762 0.748749
0.778046 0.918671 0.748413
0.864594 0.918671 0.748413
0.943634 0.918610 0.748291
0.589478 0.536957 0.830292
0.595398 0.471893 0.832977
0.606812 0.388733 0.838409
0.633881 0.301422 0.844421
0.701599 0.261627 0.844513
0.784943 0.246979 0.842346
0.868622 0.241089 0.841156
0.949127 0.244629 0.843567
0.561768 0.569794 0.832733
0.636383 0.592590 0.830902
0.640839 0.530029 0.835022
0.656036 0.453796 0.840271
0.701355 0.384064 0.844025
0.784332 0.372803 0.841461
0.868286 0.367889 0.840881
0.948456 0.370514 0.843018
0.554199 0.616089 0.829834
0.613586 0.624329 0.832703
0.679749 0.643616 0.831604
0.682983 0.582794 0.836151
0.707520 0.504822 0.842285
0.784363 0.482788 0.841522
0.867950 0.479736 0.840637
0.947815 0.481720 0.842621
0.522491 0.649475 0.829041
0.607788 0.666992 0.830200
0.661621 0.674713 0.832947
0.718933 0.689178 0.832794
0.725494 0.622925 0.837830
0.783447 0.577454 0.840668
0.867767 0.574615 0.840363
0.945404 0.576538 0.840576
0.441803 0.683655 0.831848
0.555695 0.696411 0.831848
0.651123 0.714386 0.831207
0.705933 0.723969 0.833252
0.755157 0.728333 0.834229
0.782471 0.664124 0.839935
0.866791 0.662598 0.839355
0.942688 0.663300 0.838348
0.339325 0.749603 0.836243
0.466125 0.751617 0.835693
0.573883 0.754883 0.834961
0.665009 0.761261 0.834259
0.752167 0.776794 0.833740
0.796143 0.770691 0.836365
0.865814 0.751099 0.838287
0.939819 0.751251 0.836517
0.272064 0.837067 0.837067
0.396301 0.837463 0.837463
0.505310 0.837799 0.837799
0.597961 0.837524 0.837524
0.688202 0.837219 0.837219
0.778290 0.836914 0.836914
0.863190 0.836517 0.836517
0.938385 0.835907 0.835907
0.270874 0.918671 0.836823
0.395325 0.918884 0.837158
0.504486 0.919067 0.837555
0.597290 0.918915 0.837250
0.687683 0.918762 0.836975
0.777924 0.918610 0.836609
0.864380 0.918518 0.836456
0.943542 0.918488 0.836365
0.634094 0.578644 0.904083
0.643677 0.523346 0.906464
0.650208 0.445618 0.911133
0.669281 0.363586 0.917297
0.706940 0.275635 0.923767
0.788147 0.260864 0.922760
0.869995 0.246948 0.923004
0.948059 0.241516 0.923218
0.603424 0.605774 0.906158
0.679474 0.632477 0.905792
0.686554 0.579712 0.908356
0.695770 0.508942 0.914001
0.721100 0.424774 0.920258
0.788086 0.382751 0.922791
0.869843 0.371948 0.922699
0.947540 0.368347 0.922821
0.596680 0.650787 0.904572
0.653534 0.658844 0.907562
0.721558 0.681946 0.907562
0.726349 0.630554 0.910553
0.740967 0.558777 0.916626
0.787720 0.491455 0.922150
0.868958 0.483398 0.921661
0.947052 0.480377 0.922424
0.590668 0.692352 0.903137
0.648438 0.700317 0.906189
0.700104 0.707794 0.908997
0.760742 0.727386 0.909393
0.764801 0.669220 0.913666
0.790894 0.592255 0.920807
0.868530 0.577576 0.921326
0.946442 0.575775 0.921814
0.523010 0.715851 0.906128
0.626953 0.734589 0.905945
0.695953 0.748810 0.907745
0.743134 0.755768 0.910492
0.799591 0.769745 0.911438
0.807495 0.702454 0.917145
0.867859 0.664185 0.920898
0.946289 0.663208 0.921509
0.432831 0.761658 0.910583
0.549316 0.769714 0.910156
0.646790 0.780334 0.909821
0.730560 0.796143 0.909973
0.788177 0.807312 0.912109
0.837952 0.811493 0.914124
0.866760 0.752563 0.919861
0.945435 0.752472 0.920654
0.325348 0.835266 0.916687
0.453644 0.835602 0.915985
0.562927 0.836884 0.915649
0.656250 0.839081 0.914642
0.746490 0.844940 0.914154
0.836273 0.860596 0.914062
0.879486 0.855316 0.917145
0.944550 0.838623 0.919739
0.270874 0.918671 0.918671
0.395325 0.918884 0.918884
0.504486 0.919067 0.919067
0.597290 0.918915 0.918915
0.687683 0.918762 0.918762
0.777924 0.918610 0.918610
0.864288 0.918488 0.918488
0.942230 0.918213 0.918213
