assets/luts/PHLEARN/PHLEARN-Warm Tones-Rich Cork.CUBE
#Created by: Adobe Photoshop Export Color Lookup Plugin
#Copyright: (C) Copyright 2019 PHLEARN
TITLE "PHLEARN Warming 02"
#LUT size
LUT_3D_SIZE 5
#data domain
#LUT data points
DOMAIN_MIN 0.000000 0.000000 0.000000
DOMAIN_MAX 0.903226 0.903226 0.903226
0.000000 0.000000 0.000000
0.254883 0.000000 0.000000
0.498260 0.000000 0.000000
0.718994 0.000000 0.000000
0.917816 0.000000 0.000000
0.000000 0.225800 0.000000
0.254883 0.225800 0.000000
0.498260 0.225800 0.000000
0.718994 0.225800 0.000000
0.917816 0.225800 0.000000
0.000000 0.451599 0.000000
0.254883 0.451599 0.000000
0.498260 0.451599 0.000000
0.718994 0.451599 0.000000
0.917816 0.451599 0.000000
0.000000 0.677429 0.000000
0.254883 0.677429 0.000000
0.498260 0.677429 0.000000
0.718994 0.677429 0.000000
0.917816 0.677429 0.000000
0.000000 0.903229 0.000000
0.254883 0.903229 0.000000
0.498260 0.903229 0.000000
0.718994 0.903229 0.000000
0.917816 0.903229 0.000000
0.000000 0.000000 0.208618
0.254883 0.000000 0.208618
0.498260 0.000000 0.208618
0.718994 0.000000 0.208618
0.917816 0.000000 0.208618
0.000000 0.225800 0.208618
0.254883 0.225800 0.208618
0.498260 0.225800 0.208618
0.718994 0.225800 0.208618
0.917816 0.225800 0.208618
0.000000 0.451599 0.208618
0.254883 0.451599 0.208618
0.498260 0.451599 0.208618
0.718994 0.451599 0.208618
0.917816 0.451599 0.208618
0.000000 0.677429 0.208618
0.254883 0.677429 0.208618
0.498260 0.677429 0.208618
0.718994 0.677429 0.208618
0.917816 0.677429 0.208618
0.000000 0.903229 0.208618
0.254883 0.903229 0.208618
0.498260 0.903229 0.208618
0.718994 0.903229 0.208618
0.917816 0.903229 0.208618
0.000000 0.000000 0.423645
0.254883 0.000000 0.423645
0.498260 0.000000 0.423645
0.718994 0.000000 0.423645
0.917816 0.000000 0.423645
0.000000 0.225800 0.423645
0.254883 0.225800 0.423645
0.498260 0.225800 0.423645
0.718994 0.225800 0.423645
0.917816 0.225800 0.423645
0.000000 0.451599 0.423645
0.254883 0.451599 0.423645
0.498260 0.451599 0.423645
0.718994 0.451599 0.423645
0.917816 0.451599 0.423645
0.000000 0.677429 0.423645
0.254883 0.677429 0.423645
0.498260 0.677429 0.423645
0.718994 0.677429 0.423645
0.917816 0.677429 0.423645
0.000000 0.903229 0.423645
0.254883 0.903229 0.423645
0.498260 0.903229 0.423645
0.718994 0.903229 0.423645
0.917816 0.903229 0.423645
0.000000 0.000000 0.651550
0.254883 0.000000 0.651550
0.498260 0.000000 0.651550
0.718994 0.000000 0.651550
0.917816 0.000000 0.651550
0.000000 0.225800 0.651550
0.254883 0.225800 0.651550
0.498260 0.225800 0.651550
0.718994 0.225800 0.651550
0.917816 0.225800 0.651550
0.000000 0.451599 0.651550
0.254883 0.451599 0.651550
0.498260 0.451599 0.651550
0.718994 0.451599 0.651550
0.917816 0.451599 0.651550
0.000000 0.677429 0.651550
0.254883 0.677429 0.651550
0.498260 0.677429 0.651550
0.718994 0.677429 0.651550
0.917816 0.677429 0.651550
0.000000 0.903229 0.651550
0.254883 0.903229 0.651550
0.498260 0.903229 0.651550
0.718994 0.903229 0.651550
0.917816 0.903229 0.651550
0.000000 0.000000 0.893951
0.254883 0.000000 0.893951
0.498260 0.000000 0.893951
0.718994 0.000000 0.893951
0.917816 0.000000 0.893951
0.000000 0.225800 0.893951
0.254883 0.225800 0.893951
0.498260 0.225800 0.893951
0.718994 0.225800 0.893951
0.917816 0.225800 0.893951
0.000000 0.451599 0.893951
0.254883 0.451599 0.893951
0.498260 0.451599 0.893951
0.718994 0.451599 0.893951
0.917816 0.451599 0.893951
0.000000 0.677429 0.893951
0.254883 0.677429 0.893951
0.498260 0.677429 0.893951
0.718994 0.677429 0.893951
0.917816 0.677429 0.893951
0.000000 0.903229 0.893951
0.254883 0.903229 0.893951
0.498260 0.903229 0.893951
0.718994 0.903229 0.893951
0.917816 0.903229 0.893951
