assets/luts/PHLEARN/PHLEARN-Film Tones-Matte Anchor.CUBE
#Created by: Adobe Photoshop Export Color Lookup Plugin
#Copyright: (C) Copyright 2019 PHLEARN
TITLE "PHLEARN Cinematic 10"
#LUT size
LUT_3D_SIZE 8
#data domain
#LUT data points
DOMAIN_MIN 0.000000 0.000000 0.000000
DOMAIN_MAX 0.903226 0.903226 0.903226
0.058624 0.022461 0.092377
0.150726 0.030640 0.099182
0.242676 0.041962 0.108948
0.334991 0.055511 0.120697
0.428040 0.070190 0.133148
0.522308 0.085236 0.145416
0.618134 0.099426 0.156128
0.716064 0.111969 0.164368
0.062500 0.131622 0.108582
0.154755 0.145050 0.120209
0.247772 0.159790 0.132751
0.341949 0.174744 0.144958
0.437805 0.189056 0.155823
0.535675 0.201660 0.164185
0.638062 0.212952 0.168121
0.756042 0.224792 0.167725
0.067535 0.249390 0.132355
0.161682 0.264343 0.144592
0.257416 0.278687 0.155518
0.355164 0.291321 0.163910
0.457245 0.302582 0.168121
0.574707 0.314484 0.167938
0.699371 0.323029 0.160400
0.824524 0.330566 0.151611
0.077057 0.368225 0.155151
0.174774 0.381012 0.163696
0.276398 0.392181 0.168121
0.393524 0.404236 0.168091
0.518097 0.412842 0.160675
0.643127 0.420349 0.151886
0.762268 0.429169 0.146973
0.869690 0.440247 0.148712
0.095459 0.481720 0.168121
0.212402 0.493988 0.168121
0.336578 0.502655 0.161011
0.461914 0.510193 0.152130
0.581390 0.518921 0.146973
0.689148 0.529968 0.148590
0.789520 0.541992 0.153168
0.885681 0.554688 0.160278
0.155334 0.592468 0.161285
0.280731 0.600006 0.152405
0.400299 0.608612 0.147034
0.508575 0.619659 0.148499
0.609100 0.631592 0.152954
0.705414 0.644348 0.160004
0.800171 0.657654 0.169800
0.896057 0.671173 0.182281
0.219391 0.698364 0.147095
0.328033 0.709381 0.148407
0.428680 0.721252 0.152771
0.525085 0.734009 0.159760
0.619873 0.747223 0.169403
0.715698 0.760834 0.181854
0.810486 0.769348 0.191284
0.905090 0.777771 0.202026
0.248291 0.810944 0.152588
0.344757 0.823578 0.159454
0.439545 0.836884 0.169037
0.535309 0.850464 0.181427
0.630219 0.859161 0.190979
0.724792 0.867584 0.201630
0.819489 0.876434 0.213776
0.914215 0.885498 0.226868
0.059418 0.025024 0.184479
0.151398 0.034485 0.192535
0.243439 0.046692 0.203125
0.335968 0.060822 0.215302
0.429413 0.075714 0.227783
0.524200 0.090576 0.239624
0.620758 0.104248 0.249573
0.719543 0.115906 0.256592
0.063232 0.136353 0.202759
0.155731 0.150421 0.214905
0.249115 0.165283 0.227386
0.343872 0.180176 0.239288
0.440369 0.193909 0.249298
0.539093 0.205658 0.256409
0.647034 0.217804 0.258209
0.768280 0.228119 0.255432
0.068878 0.254883 0.227020
0.163544 0.269714 0.238861
0.259979 0.283569 0.249023
0.358582 0.295319 0.256226
0.466064 0.307495 0.258209
0.587067 0.317932 0.255676
0.712463 0.325775 0.247101
0.836090 0.333527 0.239197
0.079620 0.373230 0.248749
0.178131 0.385071 0.256042
0.285095 0.397156 0.258209
0.405609 0.407654 0.255951
0.531219 0.415619 0.247406
0.654816 0.423279 0.239410
0.769958 0.433136 0.237152
0.874023 0.444519 0.240173
0.104156 0.486847 0.258209
0.224396 0.497467 0.256165
0.349945 0.505463 0.247681
0.473694 0.513092 0.239624
0.589264 0.522888 0.237091
0.693573 0.534241 0.240051
0.792084 0.546570 0.245544
0.887421 0.559509 0.253632
0.168457 0.595245 0.248016
0.292572 0.602905 0.239807
0.408417 0.612518 0.237030
0.513062 0.623932 0.239899
0.611755 0.636230 0.245331
0.707153 0.649170 0.253357
0.802032 0.662598 0.264130
0.897949 0.674591 0.275940
0.227661 0.702240 0.237030
0.332581 0.713623 0.239777
0.431366 0.725830 0.245087
0.526855 0.738800 0.253052
0.621704 0.752167 0.263672
0.717712 0.764435 0.275696
0.812103 0.772339 0.285034
0.906769 0.781006 0.296387
0.251007 0.815491 0.244873
0.346588 0.828461 0.252747
0.441376 0.841797 0.263275
0.537415 0.854248 0.275421
0.631836 0.862152 0.284729
0.726501 0.870789 0.296021
0.821198 0.879730 0.308563
0.915894 0.888794 0.321808
0.060120 0.028076 0.277100
0.152100 0.038696 0.286224
0.244263 0.051666 0.297516
0.337067 0.066223 0.309967
0.430939 0.081207 0.322327
0.526337 0.095764 0.333618
0.623718 0.108887 0.342651
0.723389 0.119446 0.348236
0.064056 0.141327 0.297119
0.156830 0.155823 0.309570
0.250671 0.170807 0.321930
0.346008 0.185394 0.333282
0.443268 0.198486 0.342346
0.542908 0.209229 0.348114
0.657471 0.222015 0.348267
0.781097 0.231140 0.342560
0.070374 0.260376 0.321564
0.165649 0.274933 0.332886
0.262848 0.288177 0.342133
0.362396 0.299011 0.348022
0.476379 0.311737 0.348267
0.599854 0.320984 0.342834
0.725281 0.328491 0.333923
0.846466 0.336792 0.327576
0.082458 0.377838 0.341858
0.181885 0.388702 0.347870
0.295288 0.401459 0.348267
0.418335 0.410736 0.343170
0.544067 0.418304 0.334198
0.665314 0.426514 0.327728
0.775940 0.437195 0.328033
0.877655 0.449036 0.332001
0.114227 0.491211 0.348267
0.237091 0.500549 0.343414
0.362823 0.508179 0.334473
0.484314 0.516296 0.327820
0.595337 0.526947 0.327942
0.697205 0.538666 0.331818
0.794250 0.551270 0.338257
0.889099 0.564392 0.347351
0.181396 0.597961 0.334808
0.303314 0.606079 0.327942
0.414703 0.616638 0.327850
0.516754 0.628326 0.331665
0.613953 0.640900 0.338013
0.708832 0.654022 0.347015
0.804169 0.667572 0.358826
0.899536 0.677429 0.369202
0.233978 0.706299 0.327759
0.336334 0.718018 0.331482
0.433594 0.730499 0.337738
0.528534 0.743683 0.346710
0.623840 0.757202 0.358398
0.719269 0.767242 0.368927
0.813812 0.775482 0.379120
0.908478 0.784241 0.390961
0.253265 0.820160 0.337494
0.348267 0.833313 0.346375
0.443451 0.846771 0.357910
0.538971 0.857056 0.368622
0.633514 0.865234 0.378693
0.728210 0.874054 0.390564
0.822906 0.883057 0.403412
0.917511 0.892029 0.416718
0.060822 0.031586 0.370178
0.152832 0.043243 0.380249
0.245178 0.056854 0.392059
0.338318 0.071716 0.404602
0.432739 0.086731 0.416779
0.528748 0.100769 0.427307
0.626923 0.113098 0.435211
0.731171 0.124725 0.438324
0.064941 0.146484 0.391663
0.158081 0.161316 0.404236
0.252380 0.176239 0.416321
0.348389 0.190430 0.427002
0.446442 0.202728 0.434967
0.550293 0.214386 0.438324
0.669281 0.225739 0.437347
0.794189 0.233978 0.429382
0.072113 0.265839 0.415955
0.168060 0.280060 0.426697
0.266022 0.292450 0.434784
0.369415 0.304016 0.438324
0.487885 0.315460 0.437592
0.612915 0.323792 0.429657
0.737518 0.331299 0.421112
0.855347 0.340485 0.417175
0.085602 0.382141 0.434570
0.188416 0.393555 0.438324
0.306702 0.405212 0.437775
0.431641 0.413605 0.429962
0.556366 0.421112 0.421326
0.674530 0.430237 0.417175
0.780914 0.441406 0.419250
0.880585 0.453552 0.424164
0.125549 0.494995 0.437927
0.250153 0.503418 0.430298
0.375183 0.510956 0.421570
0.493530 0.519928 0.417175
0.600403 0.531128 0.419128
0.700226 0.543243 0.423950
0.796112 0.556030 0.431366
0.890869 0.569397 0.441498
0.194031 0.600769 0.421814
0.312653 0.609650 0.417175
0.419830 0.620819 0.419037
0.519775 0.632843 0.423737
0.615845 0.645660 0.431091
0.710571 0.658936 0.441071
0.806732 0.672546 0.453918
0.901123 0.680359 0.462769
0.239227 0.710449 0.418884
0.339417 0.722504 0.423553
0.435516 0.735321 0.430817
0.530243 0.748596 0.440704
0.626373 0.762207 0.453461
0.720856 0.770142 0.462463
0.815491 0.778656 0.473389
0.910187 0.787567 0.485657
0.255219 0.824890 0.430481
0.349976 0.838226 0.440369
0.445953 0.851746 0.452911
0.540588 0.859955 0.462158
0.635193 0.868408 0.472931
0.729919 0.877319 0.485291
0.824615 0.886414 0.498413
0.919128 0.895233 0.511597
0.061523 0.035614 0.463715
0.153595 0.048035 0.474518
0.246185 0.062286 0.486786
0.339722 0.077240 0.499237
0.434692 0.092010 0.510956
0.531464 0.105530 0.520630
0.630493 0.116943 0.527283
0.740723 0.129333 0.528412
0.065948 0.151794 0.486298
0.159454 0.166809 0.498871
0.254333 0.181549 0.510559
0.351044 0.195190 0.520386
0.450043 0.206665 0.527161
0.559723 0.219025 0.528412
0.681702 0.229004 0.524902
0.807220 0.236694 0.516113
0.074036 0.271149 0.510193
0.170685 0.284851 0.520111
0.269501 0.296356 0.526978
0.378693 0.308716 0.528412
0.500244 0.318726 0.525177
0.625977 0.326508 0.516418
0.748810 0.334351 0.508881
0.862335 0.344543 0.507629
0.089081 0.386108 0.526794
0.197693 0.398407 0.528412
0.319000 0.408539 0.525421
0.444702 0.416351 0.516693
0.567749 0.424133 0.509064
0.681671 0.434235 0.507568
0.785034 0.445740 0.510834
0.882996 0.458160 0.516693
0.137787 0.498352 0.525665
0.263245 0.506165 0.517029
0.386688 0.513947 0.509247
0.500977 0.523987 0.507477
0.604584 0.535461 0.510681
0.702667 0.547852 0.516449
0.797821 0.560852 0.524811
0.892822 0.574341 0.535980
0.205597 0.603760 0.509430
0.320190 0.613647 0.507416
0.424103 0.625153 0.510559
0.522278 0.637451 0.516205
0.617554 0.650513 0.524506
0.712494 0.663910 0.535492
0.808319 0.675354 0.547028
0.902802 0.683441 0.556732
0.243622 0.714813 0.510406
0.341949 0.727112 0.515961
0.437256 0.740143 0.524231
0.532166 0.753540 0.535126
0.628052 0.765198 0.546753
0.722504 0.773193 0.556335
0.817169 0.781891 0.567841
0.911896 0.790863 0.580505
0.256958 0.829712 0.523865
0.351868 0.843170 0.534729
0.447754 0.854980 0.546417
0.542206 0.862976 0.555969
0.636902 0.871674 0.567474
0.731598 0.880646 0.580078
0.826263 0.889679 0.593353
0.920715 0.898346 0.606415
0.062225 0.039917 0.557526
0.154449 0.053101 0.568939
0.247345 0.067749 0.581451
0.341339 0.082703 0.593750
0.436920 0.097168 0.604858
0.534454 0.110016 0.613556
0.635254 0.120972 0.618469
0.751617 0.133331 0.618469
0.067078 0.157227 0.580963
0.161041 0.172302 0.593384
0.256561 0.186798 0.604553
0.354034 0.199707 0.613342
0.454468 0.210541 0.618469
0.570496 0.223083 0.618469
0.694611 0.231934 0.611908
0.819885 0.239441 0.603058
0.076202 0.276337 0.604156
0.173615 0.289368 0.613098
0.273590 0.300018 0.618469
0.389374 0.312805 0.618469
0.513367 0.321777 0.612183
0.638672 0.329254 0.603302
0.759033 0.337769 0.597504
0.867920 0.348633 0.598633
0.092896 0.389648 0.618469
0.208282 0.402557 0.618469
0.331848 0.411530 0.612518
0.457458 0.419067 0.603577
0.577911 0.427490 0.597626
0.687347 0.438354 0.598541
0.788391 0.450195 0.602722
0.885010 0.462891 0.609528
0.150604 0.501373 0.612793
0.276245 0.508942 0.603821
0.396942 0.517273 0.597717
0.506744 0.528076 0.598450
0.608002 0.539886 0.602570
0.704712 0.552551 0.609283
0.799530 0.565735 0.618652
0.895111 0.579315 0.630829
0.216003 0.607025 0.597809
0.326050 0.617706 0.598328
0.427582 0.629547 0.602386
0.524414 0.642212 0.609039
0.619232 0.655396 0.618286
0.714783 0.668945 0.630402
0.809906 0.678223 0.640350
0.904480 0.686554 0.650818
0.247162 0.719238 0.602234
0.344086 0.731781 0.608734
0.438934 0.745026 0.617981
0.534363 0.758514 0.629883
0.629639 0.768036 0.640076
0.724182 0.776306 0.650421
0.818878 0.785156 0.662445
0.913605 0.794220 0.675476
0.258667 0.834656 0.617645
0.354034 0.848145 0.629456
0.449341 0.857849 0.639771
0.543884 0.866089 0.650055
0.638611 0.874939 0.662048
0.733307 0.883972 0.674957
0.827911 0.892914 0.688263
0.922211 0.901367 0.701141
0.062958 0.044525 0.651611
0.155365 0.058319 0.663513
0.248627 0.073242 0.676117
0.343140 0.088104 0.688080
0.439392 0.102112 0.698456
0.537811 0.114197 0.706024
0.643585 0.126068 0.708557
0.763763 0.136902 0.706726
0.068359 0.162842 0.675720
0.162842 0.177704 0.687714
0.259033 0.191772 0.698151
0.357300 0.203857 0.705811
0.462677 0.215729 0.708557
0.582336 0.226624 0.706970
0.707733 0.234711 0.698669
0.831818 0.242310 0.690399
0.078644 0.281311 0.697815
0.176880 0.293579 0.705627
0.281738 0.305389 0.708557
0.401154 0.316406 0.707184
0.526489 0.324554 0.698944
0.650696 0.332123 0.690613
0.767426 0.341614 0.687378
0.872559 0.352905 0.689972
0.100708 0.394928 0.708557
0.219971 0.406158 0.707367
0.344971 0.414337 0.699310
0.469543 0.421936 0.690826
0.586517 0.431244 0.687378
0.692078 0.442596 0.689850
0.791229 0.454803 0.695007
0.886810 0.467682 0.702759
0.163696 0.504181 0.699585
0.288391 0.511780 0.691040
0.405701 0.520996 0.687378
0.511536 0.532318 0.689728
0.610809 0.544434 0.694763
0.706543 0.557343 0.702454
0.801300 0.570679 0.712830
0.897400 0.583557 0.725220
0.224884 0.610718 0.687378
0.331024 0.622009 0.689606
0.430450 0.634094 0.694580
0.526245 0.647003 0.702179
0.621002 0.660309 0.712433
0.717133 0.673370 0.724976
0.811523 0.681183 0.734009
0.906158 0.689758 0.745148
0.250092 0.723785 0.694366
0.345917 0.736572 0.701843
0.440704 0.749939 0.712067
0.536835 0.763184 0.724701
0.631256 0.770996 0.733704
0.725891 0.779541 0.744781
0.820587 0.788452 0.757202
0.915283 0.797516 0.770386
0.260406 0.839600 0.711731
0.356567 0.852997 0.724457
0.450958 0.860779 0.733368
0.545563 0.869293 0.744354
0.640320 0.878235 0.756775
0.734985 0.887238 0.769897
0.829498 0.896088 0.783142
0.923676 0.904297 0.795685
0.063751 0.049408 0.745911
0.156403 0.063690 0.758148
0.250092 0.078735 0.770691
0.345215 0.093475 0.782257
0.442169 0.106812 0.791656
0.541504 0.117920 0.797943
0.653534 0.130493 0.798615
0.776398 0.140015 0.794037
0.069824 0.168335 0.770294
0.164856 0.182983 0.781830
0.261780 0.196472 0.791412
0.360931 0.207611 0.797791
0.472504 0.220215 0.798615
0.594940 0.229767 0.794342
0.720703 0.237427 0.785431
0.842865 0.245514 0.778442
0.081390 0.286133 0.791168
0.180481 0.297394 0.797638
0.291443 0.309906 0.798615
0.413666 0.319580 0.794586
0.539459 0.327271 0.785706
0.661682 0.335236 0.778595
0.773895 0.345673 0.778046
0.876404 0.357269 0.781647
0.110229 0.399536 0.798615
0.232452 0.409393 0.794861
0.358002 0.417053 0.786041
0.480621 0.425018 0.778748
0.593262 0.435364 0.777985
0.695953 0.446960 0.781494
0.793518 0.459473 0.787598
0.888489 0.472534 0.796326
0.176758 0.506897 0.786316
0.299591 0.514832 0.778900
0.412506 0.525024 0.777893
0.515503 0.536652 0.781342
0.613190 0.549164 0.787384
0.708221 0.562195 0.796021
0.803345 0.575714 0.807465
0.898956 0.586304 0.818359
0.231842 0.614746 0.777802
0.335052 0.626343 0.781189
0.432831 0.638733 0.787109
0.527924 0.651855 0.795715
0.623016 0.665283 0.806976
0.718689 0.676147 0.818085
0.813171 0.684235 0.827942
0.907867 0.693024 0.839661
0.252502 0.728394 0.786865
0.347626 0.741394 0.795319
0.442657 0.754913 0.806580
0.538391 0.765961 0.817810
0.632904 0.774048 0.827606
0.727600 0.782776 0.839294
0.822296 0.791779 0.852020
0.916931 0.800781 0.865295
0.262360 0.844543 0.806183
0.358124 0.855743 0.817474
0.452606 0.863831 0.827271
0.547272 0.872528 0.838806
0.641998 0.881561 0.851624
0.736664 0.890564 0.864899
0.831055 0.899170 0.877899
0.925110 0.907166 0.890137
