assets/luts/PHLEARN/PHLEARN-Cool Tones-Crisp Slate.CUBE
#Created by: Adobe Photoshop Export Color Lookup Plugin
#Copyright: (C) Copyright 2019 PHLEARN
TITLE "PHLEARN Cooling 01"
#LUT size
LUT_3D_SIZE 8
#data domain
#LUT data points
DOMAIN_MIN 0.000000 0.000000 0.000000
DOMAIN_MAX 0.903226 0.903226 0.903226
0.000000 0.000000 0.000000
0.112366 0.000000 0.007599
0.227692 0.000000 0.013824
0.349457 0.000000 0.017120
0.479004 0.000000 0.016876
0.625183 0.000000 0.009094
0.766113 0.000000 0.003662
0.901733 0.000000 0.000671
0.000000 0.129028 0.007599
0.112366 0.129028 0.007599
0.227692 0.129028 0.013824
0.349457 0.129028 0.017120
0.479004 0.129028 0.016876
0.625183 0.129028 0.009094
0.766113 0.129028 0.003662
0.901733 0.129028 0.000671
0.000000 0.258057 0.015198
0.095734 0.258057 0.015198
0.227692 0.258057 0.013824
0.349457 0.258057 0.017120
0.479004 0.258057 0.016876
0.625183 0.258057 0.009094
0.766113 0.258057 0.003662
0.901733 0.258057 0.000671
0.000000 0.387085 0.022766
0.079071 0.387085 0.022766
0.212494 0.387085 0.020721
0.349457 0.387085 0.017120
0.479004 0.387085 0.016876
0.625183 0.387085 0.009094
0.766113 0.387085 0.003662
0.901733 0.387085 0.000671
0.000000 0.516144 0.028473
0.066589 0.516144 0.028473
0.201080 0.516144 0.025909
0.340027 0.516144 0.021393
0.479004 0.516144 0.016876
0.625183 0.516144 0.009094
0.766113 0.516144 0.003662
0.901733 0.516144 0.000671
0.000000 0.645172 0.020874
0.083252 0.645172 0.020874
0.216309 0.645172 0.018982
0.352600 0.645172 0.015686
0.488922 0.645172 0.012390
0.625183 0.645172 0.009094
0.766113 0.645172 0.003662
0.901733 0.645172 0.000671
0.000000 0.774200 0.013275
0.099884 0.774200 0.013275
0.231506 0.774200 0.012085
0.365143 0.774200 0.009979
0.498810 0.774200 0.007874
0.632446 0.774200 0.005768
0.766113 0.774200 0.003662
0.901733 0.774200 0.000671
0.000000 0.903229 0.005707
0.116547 0.903229 0.005707
0.246674 0.903229 0.005188
0.377686 0.903229 0.004303
0.508728 0.903229 0.003387
0.639740 0.903229 0.002472
0.770752 0.903229 0.001587
0.901733 0.903229 0.000671
0.000000 0.000000 0.136627
0.112366 0.000000 0.136627
0.227692 0.000000 0.142853
0.349457 0.000000 0.146149
0.479004 0.000000 0.145905
0.625183 0.000000 0.138123
0.766113 0.000000 0.132690
0.901733 0.000000 0.129700
0.000000 0.129028 0.136627
0.095734 0.129028 0.144226
0.212494 0.129028 0.149750
0.336914 0.129028 0.151855
0.469086 0.129028 0.150421
0.617920 0.129028 0.141418
0.761475 0.129028 0.134796
0.899750 0.129028 0.130615
0.000000 0.258057 0.144226
0.079071 0.258057 0.151794
0.212494 0.258057 0.149750
0.336914 0.258057 0.151855
0.469086 0.258057 0.150421
0.617920 0.258057 0.141418
0.761475 0.258057 0.134796
0.899750 0.258057 0.130615
0.000000 0.387085 0.151794
0.062439 0.387085 0.159393
0.197327 0.387085 0.156647
0.336914 0.387085 0.151855
0.469086 0.387085 0.150421
0.617920 0.387085 0.141418
0.761475 0.387085 0.134796
0.899750 0.387085 0.130615
0.000000 0.516144 0.157501
0.049957 0.516144 0.165100
0.185913 0.516144 0.161835
0.327484 0.516144 0.156128
0.469086 0.516144 0.150421
0.617920 0.516144 0.141418
0.761475 0.516144 0.134796
0.899750 0.516144 0.130615
0.000000 0.645172 0.149902
0.066589 0.645172 0.157501
0.201080 0.645172 0.154938
0.340027 0.645172 0.150421
0.479004 0.645172 0.145905
0.617920 0.645172 0.141418
0.761475 0.645172 0.134796
0.899750 0.645172 0.130615
0.000000 0.774200 0.142303
0.083252 0.774200 0.149902
0.216309 0.774200 0.148010
0.352600 0.774200 0.144714
0.488922 0.774200 0.141418
0.625183 0.774200 0.138123
0.761475 0.774200 0.134796
0.899750 0.774200 0.130615
0.000000 0.903229 0.134735
0.099884 0.903229 0.142303
0.231506 0.903229 0.141113
0.365143 0.903229 0.139008
0.498810 0.903229 0.136902
0.632446 0.903229 0.134796
0.766113 0.903229 0.132690
0.899750 0.903229 0.130615
0.000000 0.000000 0.273254
0.095734 0.000000 0.273254
0.227692 0.000000 0.271881
0.349457 0.000000 0.275177
0.479004 0.000000 0.274933
0.625183 0.000000 0.267151
0.766113 0.000000 0.261719
0.901733 0.000000 0.258728
0.000000 0.129028 0.273254
0.079071 0.129028 0.280823
0.212494 0.129028 0.278778
0.336914 0.129028 0.280884
0.469086 0.129028 0.279449
0.617920 0.129028 0.270447
0.761475 0.129028 0.263824
0.899750 0.129028 0.259644
0.000000 0.258057 0.273254
0.079071 0.258057 0.280823
0.197327 0.258057 0.285675
0.324371 0.258057 0.286591
0.459198 0.258057 0.283936
0.610657 0.258057 0.273743
0.756866 0.258057 0.265930
0.897766 0.258057 0.260529
0.000000 0.387085 0.280823
0.062439 0.387085 0.288422
0.182129 0.387085 0.292603
0.324371 0.387085 0.286591
0.459198 0.387085 0.283936
0.610657 0.387085 0.273743
0.756866 0.387085 0.265930
0.897766 0.387085 0.260529
0.000000 0.516144 0.286530
0.049957 0.516144 0.294128
0.170715 0.516144 0.297760
0.314941 0.516144 0.290863
0.459198 0.516144 0.283936
0.610657 0.516144 0.273743
0.756866 0.516144 0.265930
0.897766 0.516144 0.260529
0.000000 0.645172 0.278931
0.066589 0.645172 0.286530
0.185913 0.645172 0.290863
0.327484 0.645172 0.285156
0.469086 0.645172 0.279449
0.610657 0.645172 0.273743
0.756866 0.645172 0.265930
0.897766 0.645172 0.260529
0.000000 0.774200 0.271332
0.083252 0.774200 0.278931
0.201080 0.774200 0.283966
0.340027 0.774200 0.279449
0.479004 0.774200 0.274933
0.617920 0.774200 0.270447
0.756866 0.774200 0.265930
0.897766 0.774200 0.260529
0.000000 0.903229 0.263763
0.099884 0.903229 0.271332
0.216309 0.903229 0.277039
0.352600 0.903229 0.273743
0.488922 0.903229 0.270447
0.625183 0.903229 0.267151
0.761475 0.903229 0.263824
0.897766 0.903229 0.260529
0.000000 0.000000 0.409851
0.079071 0.000000 0.409851
0.212494 0.000000 0.407806
0.349457 0.000000 0.404205
0.479004 0.000000 0.403961
0.625183 0.000000 0.396179
0.766113 0.000000 0.390747
0.901733 0.000000 0.387756
0.000000 0.129028 0.409851
0.062439 0.129028 0.417450
0.197327 0.129028 0.414703
0.336914 0.129028 0.409912
0.469086 0.129028 0.408478
0.617920 0.129028 0.399475
0.761475 0.129028 0.392853
0.899750 0.129028 0.388672
0.000000 0.258057 0.409851
0.062439 0.258057 0.417450
0.182129 0.258057 0.421631
0.324371 0.258057 0.415619
0.459198 0.258057 0.412964
0.610657 0.258057 0.402771
0.756866 0.258057 0.394958
0.897766 0.258057 0.389557
0.000000 0.387085 0.409851
0.062439 0.387085 0.417450
0.182129 0.387085 0.421631
0.311829 0.387085 0.421326
0.449280 0.387085 0.417480
0.603394 0.387085 0.406067
0.752258 0.387085 0.397064
0.895813 0.387085 0.390472
0.000000 0.516144 0.415558
0.049957 0.516144 0.423157
0.170715 0.516144 0.426788
0.302399 0.516144 0.425598
0.449280 0.516144 0.417480
0.603394 0.516144 0.406067
0.752258 0.516144 0.397064
0.895813 0.516144 0.390472
0.000000 0.645172 0.407959
0.066589 0.645172 0.415558
0.185913 0.645172 0.419891
0.314941 0.645172 0.419891
0.459198 0.645172 0.412964
0.603394 0.645172 0.406067
0.752258 0.645172 0.397064
0.895813 0.645172 0.390472
0.000000 0.774200 0.400360
0.083252 0.774200 0.407959
0.201080 0.774200 0.412994
0.327484 0.774200 0.414185
0.469086 0.774200 0.408478
0.610657 0.774200 0.402771
0.752258 0.774200 0.397064
0.895813 0.774200 0.390472
0.000000 0.903229 0.392792
0.099884 0.903229 0.400360
0.216309 0.903229 0.406067
0.340027 0.903229 0.408478
0.479004 0.903229 0.403961
0.617920 0.903229 0.399475
0.756866 0.903229 0.394958
0.895813 0.903229 0.390472
0.000000 0.000000 0.544617
0.066589 0.000000 0.544617
0.201080 0.000000 0.542053
0.340027 0.000000 0.537537
0.479004 0.000000 0.533020
0.625183 0.000000 0.525238
0.766113 0.000000 0.519806
0.901733 0.000000 0.516815
0.000000 0.129028 0.544617
0.049957 0.129028 0.552216
0.185913 0.129028 0.548950
0.327484 0.129028 0.543243
0.469086 0.129028 0.537537
0.617920 0.129028 0.528534
0.761475 0.129028 0.521912
0.899750 0.129028 0.517731
0.000000 0.258057 0.544617
0.049957 0.258057 0.552216
0.170715 0.258057 0.555847
0.314941 0.258057 0.548950
0.459198 0.258057 0.542023
0.610657 0.258057 0.531830
0.756866 0.258057 0.524017
0.897766 0.258057 0.518616
0.000000 0.387085 0.544617
0.049957 0.387085 0.552216
0.170715 0.387085 0.555847
0.302399 0.387085 0.554657
0.449280 0.387085 0.546539
0.603394 0.387085 0.535126
0.752258 0.387085 0.526123
0.895813 0.387085 0.519531
0.000000 0.516144 0.544617
0.049957 0.516144 0.552216
0.170715 0.516144 0.555847
0.302399 0.516144 0.554657
0.441864 0.516144 0.549927
0.597961 0.516144 0.537598
0.748779 0.516144 0.527710
0.894318 0.516144 0.520203
0.000000 0.645172 0.537018
0.066589 0.645172 0.544617
0.185913 0.645172 0.548950
0.314941 0.645172 0.548950
0.451782 0.645172 0.545410
0.597961 0.645172 0.537598
0.748779 0.645172 0.527710
0.894318 0.645172 0.520203
0.000000 0.774200 0.529419
0.083252 0.774200 0.537018
0.201080 0.774200 0.542053
0.327484 0.774200 0.543243
0.461670 0.774200 0.540894
0.605225 0.774200 0.534302
0.748779 0.774200 0.527710
0.894318 0.774200 0.520203
0.000000 0.903229 0.521851
0.099884 0.903229 0.529419
0.216309 0.903229 0.535126
0.340027 0.903229 0.537537
0.471588 0.903229 0.536407
0.612488 0.903229 0.531006
0.753387 0.903229 0.525604
0.894318 0.903229 0.520203
0.000000 0.000000 0.666046
0.083252 0.000000 0.666046
0.216309 0.000000 0.664154
0.352600 0.000000 0.660858
0.488922 0.000000 0.657562
0.625183 0.000000 0.654266
0.766113 0.000000 0.648834
0.901733 0.000000 0.645844
0.000000 0.129028 0.666046
0.066589 0.129028 0.673645
0.201080 0.129028 0.671082
0.340027 0.129028 0.666565
0.479004 0.129028 0.662048
0.617920 0.129028 0.657562
0.761475 0.129028 0.650940
0.899750 0.129028 0.646759
0.000000 0.258057 0.666046
0.066589 0.258057 0.673645
0.185913 0.258057 0.677979
0.327484 0.258057 0.672272
0.469086 0.258057 0.666565
0.610657 0.258057 0.660858
0.756866 0.258057 0.653046
0.897766 0.258057 0.647644
0.000000 0.387085 0.666046
0.066589 0.387085 0.673645
0.185913 0.387085 0.677979
0.314941 0.387085 0.677979
0.459198 0.387085 0.671051
0.603394 0.387085 0.664154
0.752258 0.387085 0.655151
0.895813 0.387085 0.648560
0.000000 0.516144 0.666046
0.066589 0.516144 0.673645
0.185913 0.516144 0.677979
0.314941 0.516144 0.677979
0.451782 0.516144 0.674438
0.597961 0.516144 0.666626
0.748779 0.516144 0.656738
0.894318 0.516144 0.649231
0.000000 0.645172 0.666046
0.066589 0.645172 0.673645
0.185913 0.645172 0.677979
0.314941 0.645172 0.677979
0.451782 0.645172 0.674438
0.605225 0.645172 0.663330
0.753387 0.645172 0.654633
0.896301 0.645172 0.648315
0.000000 0.774200 0.658447
0.083252 0.774200 0.666046
0.201080 0.774200 0.671082
0.327484 0.774200 0.672272
0.461670 0.774200 0.669922
0.612488 0.774200 0.660034
0.753387 0.774200 0.654633
0.896301 0.774200 0.648315
0.000000 0.903229 0.650879
0.099884 0.903229 0.658447
0.216309 0.903229 0.664154
0.340027 0.903229 0.666565
0.471588 0.903229 0.665436
0.619751 0.903229 0.656738
0.758026 0.903229 0.652527
0.896301 0.903229 0.648315
0.000000 0.000000 0.787476
0.099884 0.000000 0.787476
0.231506 0.000000 0.786285
0.365143 0.000000 0.784180
0.498810 0.000000 0.782074
0.632446 0.000000 0.779968
0.766113 0.000000 0.777863
0.901733 0.000000 0.774872
0.000000 0.129028 0.787476
0.083252 0.129028 0.795074
0.216309 0.129028 0.793182
0.352600 0.129028 0.789886
0.488922 0.129028 0.786591
0.625183 0.129028 0.783295
0.761475 0.129028 0.779968
0.899750 0.129028 0.775787
0.000000 0.258057 0.787476
0.083252 0.258057 0.795074
0.201080 0.258057 0.800110
0.340027 0.258057 0.795593
0.479004 0.258057 0.791077
0.617920 0.258057 0.786591
0.756866 0.258057 0.782074
0.897766 0.258057 0.776672
0.000000 0.387085 0.787476
0.083252 0.387085 0.795074
0.201080 0.387085 0.800110
0.327484 0.387085 0.801300
0.469086 0.387085 0.795593
0.610657 0.387085 0.789886
0.752258 0.387085 0.784180
0.895813 0.387085 0.777588
0.000000 0.516144 0.787476
0.083252 0.516144 0.795074
0.201080 0.516144 0.800110
0.327484 0.516144 0.801300
0.461670 0.516144 0.798950
0.605225 0.516144 0.792358
0.748779 0.516144 0.785767
0.894318 0.516144 0.778259
0.000000 0.645172 0.787476
0.083252 0.645172 0.795074
0.201080 0.645172 0.800110
0.327484 0.645172 0.801300
0.461670 0.645172 0.798950
0.612488 0.645172 0.789062
0.753387 0.645172 0.783661
0.896301 0.645172 0.777344
0.000000 0.774200 0.787476
0.083252 0.774200 0.795074
0.201080 0.774200 0.800110
0.327484 0.774200 0.801300
0.461670 0.774200 0.798950
0.612488 0.774200 0.789062
0.758026 0.774200 0.781555
0.898285 0.774200 0.776459
0.000000 0.903229 0.779907
0.099884 0.903229 0.787476
0.216309 0.903229 0.793182
0.340027 0.903229 0.795593
0.471588 0.903229 0.794464
0.619751 0.903229 0.785767
0.762634 0.903229 0.779449
0.898285 0.903229 0.776459
0.000000 0.000000 0.908936
0.116547 0.000000 0.908936
0.246674 0.000000 0.908417
0.377686 0.000000 0.907532
0.508728 0.000000 0.906616
0.639740 0.000000 0.905701
0.770752 0.000000 0.904816
0.901733 0.000000 0.903900
0.000000 0.129028 0.908936
0.099884 0.129028 0.916504
0.231506 0.129028 0.915314
0.365143 0.129028 0.913208
0.498810 0.129028 0.911102
0.632446 0.129028 0.908997
0.766113 0.129028 0.906891
0.899750 0.129028 0.904816
0.000000 0.258057 0.908936
0.099884 0.258057 0.916504
0.216309 0.258057 0.922211
0.352600 0.258057 0.918915
0.488922 0.258057 0.915619
0.625183 0.258057 0.912323
0.761475 0.258057 0.908997
0.897766 0.258057 0.905701
0.000000 0.387085 0.908936
0.099884 0.387085 0.916504
0.216309 0.387085 0.922211
0.340027 0.387085 0.924622
0.479004 0.387085 0.920105
0.617920 0.387085 0.915619
0.756866 0.387085 0.911102
0.895813 0.387085 0.906616
0.000000 0.516144 0.908936
0.099884 0.516144 0.916504
0.216309 0.516144 0.922211
0.340027 0.516144 0.924622
0.471588 0.516144 0.923492
0.612488 0.516144 0.918091
0.753387 0.516144 0.912689
0.894318 0.516144 0.907288
0.000000 0.645172 0.908936
0.099884 0.645172 0.916504
0.216309 0.645172 0.922211
0.340027 0.645172 0.924622
0.471588 0.645172 0.923492
0.619751 0.645172 0.914795
0.758026 0.645172 0.910583
0.896301 0.645172 0.906372
0.000000 0.774200 0.908936
0.099884 0.774200 0.916504
0.216309 0.774200 0.922211
0.340027 0.774200 0.924622
0.471588 0.774200 0.923492
0.619751 0.774200 0.914795
0.762634 0.774200 0.908478
0.898285 0.774200 0.905487
0.000000 0.903229 0.908936
0.099884 0.903229 0.916504
0.216309 0.903229 0.922211
0.340027 0.903229 0.924622
0.471588 0.903229 0.923492
0.619751 0.903229 0.914795
0.762634 0.903229 0.908478
0.900269 0.903229 0.904572
