assets/luts/PHLEARN/PHLEARN-Moody Vibes-Tate Olive.jpeg.CUBE
#Created by: Adobe Photoshop Export Color Lookup Plugin
TITLE "PHLEARN-Moody Vibes-Tate Olive.jpeg"
#LUT size
LUT_3D_SIZE 32
#data domain
DOMAIN_MIN 0.0 0.0 0.0
DOMAIN_MAX 1.0 1.0 1.0
#LUT data points
0.000000 0.000000 0.000000
0.029510 0.000000 0.000000
0.058563 0.000000 0.000000
0.087402 0.000000 0.000000
0.115997 0.000000 0.000000
0.144470 0.000000 0.000000
0.172882 0.000000 0.000000
0.201385 0.000000 0.000000
0.230042 0.000000 0.000000
0.259003 0.000000 0.000000
0.288300 0.000000 0.000000
0.317963 0.000000 0.000000
0.347992 0.000000 0.000000
0.378479 0.000000 0.000000
0.409393 0.000000 0.000000
0.440796 0.000000 0.000000
0.472687 0.000000 0.000000
0.505066 0.000000 0.000000
0.537506 0.000000 0.000000
0.569641 0.000000 0.000000
0.601471 0.000000 0.000000
0.633179 0.000000 0.000000
0.664795 0.000000 0.000000
0.696442 0.000000 0.000000
0.728180 0.000000 0.000000
0.760132 0.000000 0.000000
0.792328 0.000000 0.000000
0.825043 0.000000 0.000000
0.858307 0.000000 0.000000
0.892365 0.000000 0.000000
0.927490 0.000000 0.000000
0.964020 0.000000 0.000000
0.000000 0.025269 0.000000
0.022186 0.018982 0.000000
0.045929 0.019714 0.000000
0.075653 0.021820 0.000000
0.105072 0.022827 0.000000
0.134277 0.023438 0.000000
0.163452 0.023834 0.000000
0.192688 0.024109 0.000000
0.222046 0.024384 0.000000
0.251678 0.024536 0.000000
0.281708 0.024658 0.000000
0.312073 0.024750 0.000000
0.342834 0.024933 0.000000
0.374023 0.025024 0.000000
0.405701 0.025024 0.000000
0.437866 0.025116 0.000000
0.470551 0.025177 0.000000
0.503754 0.025238 0.000000
0.537048 0.025208 0.000000
0.569641 0.025238 0.000000
0.601471 0.025208 0.000000
0.633179 0.025299 0.000000
0.664795 0.025299 0.000000
0.696442 0.025299 0.000000
0.728180 0.025238 0.000000
0.760132 0.025177 0.000000
0.792328 0.025238 0.000000
0.825043 0.025177 0.000000
0.858307 0.025269 0.000000
0.892365 0.025269 0.000000
0.927490 0.025177 0.000000
0.964020 0.025238 0.000000
0.000000 0.050812 0.000000
0.028564 0.049133 0.000000
0.044098 0.038055 0.000000
0.065857 0.038055 0.000000
0.091125 0.039673 0.000000
0.120483 0.042145 0.000000
0.149658 0.043823 0.000000
0.178925 0.044983 0.000000
0.208252 0.045898 0.000000
0.237854 0.046570 0.000000
0.267700 0.047180 0.000000
0.298035 0.047607 0.000000
0.328644 0.048004 0.000000
0.359772 0.048340 0.000000
0.391357 0.048615 0.000000
0.423431 0.048828 0.000000
0.455963 0.049042 0.000000
0.489075 0.049255 0.000000
0.522583 0.049408 0.000000
0.555725 0.049591 0.000000
0.588623 0.049652 0.000000
0.621216 0.049866 0.000000
0.653778 0.049957 0.000000
0.686218 0.050110 0.000000
0.718781 0.050171 0.000000
0.751526 0.050201 0.000000
0.784454 0.050354 0.000000
0.817963 0.050385 0.000000
0.851990 0.050385 0.000000
0.886719 0.050446 0.000000
0.922516 0.050537 0.000000
0.959686 0.050690 0.000000
0.000000 0.076599 0.000000
0.029510 0.076599 0.000000
0.051758 0.067474 0.000000
0.065857 0.057312 0.000000
0.087524 0.057281 0.000000
0.109039 0.057312 0.000000
0.135895 0.059753 0.000000
0.165192 0.062469 0.000000
0.194550 0.064484 0.000000
0.224060 0.066071 0.000000
0.253815 0.067352 0.000000
0.284027 0.068359 0.000000
0.314545 0.069244 0.000000
0.345551 0.069977 0.000000
0.377014 0.070648 0.000000
0.408936 0.071198 0.000000
0.441467 0.071625 0.000000
0.474426 0.072083 0.000000
0.507935 0.072510 0.000000
0.541382 0.072845 0.000000
0.574493 0.073090 0.000000
0.607269 0.073425 0.000000
0.639954 0.073669 0.000000
0.672485 0.073944 0.000000
0.705109 0.074066 0.000000
0.737732 0.074310 0.000000
0.770660 0.074463 0.000000
0.803894 0.074677 0.000000
0.837646 0.074829 0.000000
0.872101 0.074982 0.000000
0.907501 0.075073 0.000000
0.944122 0.075195 0.000000
0.000000 0.102783 0.000000
0.029510 0.102783 0.000000
0.056702 0.099365 0.000000
0.073578 0.086029 0.000000
0.087524 0.076721 0.000000
0.109039 0.076721 0.000000
0.130463 0.076721 0.000000
0.151947 0.076691 0.000000
0.180695 0.080109 0.000000
0.210236 0.082916 0.000000
0.239929 0.085236 0.000000
0.270050 0.087097 0.000000
0.300507 0.088623 0.000000
0.331390 0.089966 0.000000
0.362701 0.091125 0.000000
0.394501 0.092133 0.000000
0.426941 0.092896 0.000000
0.459778 0.093750 0.000000
0.493225 0.094391 0.000000
0.526917 0.095062 0.000000
0.560242 0.095642 0.000000
0.593323 0.096069 0.000000
0.626038 0.096588 0.000000
0.658722 0.096924 0.000000
0.691345 0.097260 0.000000
0.723999 0.097656 0.000000
0.756836 0.097992 0.000000
0.789978 0.098297 0.000000
0.823578 0.098511 0.000000
0.857697 0.098724 0.000000
0.892609 0.099091 0.000000
0.928680 0.099335 0.000000
0.000000 0.129272 0.000000
0.029510 0.129272 0.000000
0.058563 0.129272 0.000000
0.080200 0.118195 0.000000
0.094788 0.104706 0.000000
0.109039 0.096405 0.000000
0.130463 0.096344 0.000000
0.151947 0.096344 0.000000
0.173401 0.096344 0.000000
0.196381 0.097107 0.000000
0.226013 0.100708 0.000000
0.256042 0.103638 0.000000
0.286407 0.106079 0.000000
0.317200 0.108185 0.000000
0.348450 0.109985 0.000000
0.380219 0.111511 0.000000
0.412415 0.112915 0.000000
0.445190 0.114075 0.000000
0.478485 0.115173 0.000000
0.512238 0.116211 0.000000
0.545837 0.117126 0.000000
0.579163 0.117798 0.000000
0.612030 0.118591 0.000000
0.644836 0.119202 0.000000
0.677490 0.119843 0.000000
0.710144 0.120392 0.000000
0.743011 0.120819 0.000000
0.776062 0.121277 0.000000
0.809479 0.121704 0.000000
0.843292 0.122253 0.000000
0.877960 0.122467 0.000000
0.913483 0.122955 0.000000
0.000000 0.156128 0.000000
0.029510 0.156128 0.000000
0.058563 0.156128 0.000000
0.084656 0.150970 0.000000
0.102631 0.137299 0.000000
0.115692 0.123688 0.000000
0.130463 0.116302 0.000000
0.151947 0.116302 0.000000
0.173401 0.116302 0.000000
0.194977 0.116302 0.000000
0.216644 0.116302 0.000000
0.242004 0.118011 0.000000
0.272278 0.121582 0.000000
0.303009 0.124634 0.000000
0.334167 0.127258 0.000000
0.365753 0.129547 0.000000
0.397888 0.131531 0.000000
0.430573 0.133270 0.000000
0.463776 0.134827 0.000000
0.497406 0.136292 0.000000
0.531311 0.137451 0.000000
0.564819 0.138611 0.000000
0.597900 0.139740 0.000000
0.630798 0.140686 0.000000
0.663605 0.141541 0.000000
0.696320 0.142303 0.000000
0.729126 0.143036 0.000000
0.762115 0.143707 0.000000
0.795349 0.144348 0.000000
0.829041 0.144928 0.000000
0.863373 0.145447 0.000000
0.898529 0.145966 0.000000
0.000000 0.183319 0.000000
0.029510 0.183319 0.000000
0.058594 0.183319 0.000000
0.087433 0.183319 0.000000
0.108185 0.170380 0.000000
0.124420 0.156616 0.000000
0.136414 0.142883 0.000000
0.151947 0.136383 0.000000
0.173401 0.136414 0.000000
0.194977 0.136383 0.000000
0.216644 0.136353 0.000000
0.238525 0.136383 0.000000
0.260620 0.136383 0.000000
0.288727 0.139221 0.000000
0.319855 0.142761 0.000000
0.351379 0.145905 0.000000
0.383423 0.148590 0.000000
0.415924 0.151031 0.000000
0.449005 0.153229 0.000000
0.482605 0.155182 0.000000
0.516632 0.156952 0.000000
0.550415 0.158508 0.000000
0.583679 0.159912 0.000000
0.616760 0.161224 0.000000
0.649628 0.162476 0.000000
0.682373 0.163544 0.000000
0.715179 0.164581 0.000000
0.748138 0.165497 0.000000
0.781311 0.166321 0.000000
0.814789 0.167114 0.000000
0.848785 0.167969 0.000000
0.883636 0.168518 0.000000
0.000000 0.210999 0.000000
0.029510 0.210999 0.000000
0.058533 0.210999 0.000000
0.087402 0.210999 0.000000
0.112427 0.204102 0.000000
0.130951 0.190155 0.000000
0.145844 0.176300 0.000000
0.157074 0.162384 0.000000
0.173401 0.156738 0.000000
0.194977 0.156738 0.000000
0.216644 0.156708 0.000000
0.238525 0.156738 0.000000
0.260620 0.156738 0.000000
0.283051 0.156738 0.000000
0.305695 0.156738 0.000000
0.336884 0.160706 0.000000
0.368774 0.164368 0.000000
0.401245 0.167542 0.000000
0.434174 0.170410 0.000000
0.467712 0.172974 0.000000
0.501648 0.175293 0.000000
0.535706 0.177399 0.000000
0.569336 0.179260 0.000000
0.602631 0.180939 0.000000
0.635559 0.182617 0.000000
0.668335 0.184021 0.000000
0.701202 0.185333 0.000000
0.734161 0.186523 0.000000
0.767212 0.187683 0.000000
0.800568 0.188751 0.000000
0.834320 0.189758 0.000000
0.868774 0.190643 0.000000
0.000000 0.239136 0.000000
0.029480 0.239136 0.000000
0.058563 0.239136 0.000000
0.087402 0.239136 0.000000
0.115662 0.238403 0.000000
0.136017 0.224304 0.000000
0.153168 0.210236 0.000000
0.167084 0.196228 0.000000
0.177795 0.182159 0.000000
0.194977 0.177399 0.000000
0.216644 0.177429 0.000000
0.238525 0.177429 0.000000
0.260620 0.177429 0.000000
0.283051 0.177399 0.000000
0.305695 0.177399 0.000000
0.328644 0.177368 0.000000
0.354187 0.178497 0.000000
0.386536 0.182617 0.000000
0.419373 0.186249 0.000000
0.452759 0.189575 0.000000
0.486603 0.192566 0.000000
0.520813 0.195221 0.000000
0.554657 0.197632 0.000000
0.588165 0.199829 0.000000
0.621399 0.201813 0.000000
0.654266 0.203796 0.000000
0.687164 0.205505 0.000000
0.720093 0.207062 0.000000
0.753052 0.208435 0.000000
0.786255 0.209839 0.000000
0.819855 0.211090 0.000000
0.853973 0.212311 0.000000
0.000000 0.267670 0.000000
0.029480 0.267670 0.000000
0.058594 0.267670 0.000000
0.087433 0.267670 0.000000
0.115967 0.267670 0.000000
0.140137 0.259094 0.000000
0.159058 0.244812 0.000000
0.175079 0.230621 0.000000
0.188263 0.216400 0.000000
0.198547 0.202209 0.000000
0.216644 0.198303 0.000000
0.238525 0.198303 0.000000
0.260620 0.198364 0.000000
0.283051 0.198334 0.000000
0.305695 0.198334 0.000000
0.328644 0.198303 0.000000
0.351959 0.198364 0.000000
0.375549 0.198334 0.000000
0.404480 0.200836 0.000000
0.437775 0.204895 0.000000
0.471497 0.208649 0.000000
0.505798 0.211884 0.000000
0.539948 0.214935 0.000000
0.573639 0.217712 0.000000
0.606964 0.220245 0.000000
0.640076 0.222565 0.000000
0.672974 0.224792 0.000000
0.705963 0.226715 0.000000
0.738922 0.228577 0.000000
0.772003 0.230347 0.000000
0.805481 0.231873 0.000000
0.839325 0.233246 0.000000
0.000000 0.296722 0.000000
0.029541 0.296722 0.000000
0.058533 0.296722 0.000000
0.087433 0.296722 0.000000
0.115967 0.296722 0.000000
0.143463 0.294525 0.000000
0.163849 0.280121 0.000000
0.181641 0.265717 0.000000
0.196899 0.251373 0.000000
0.209503 0.236938 0.000000
0.219452 0.222565 0.000000
0.238525 0.219604 0.000000
0.260620 0.219574 0.000000
0.283051 0.219604 0.000000
0.305695 0.219574 0.000000
0.328644 0.219574 0.000000
0.351959 0.219604 0.000000
0.375549 0.219635 0.000000
0.399475 0.219604 0.000000
0.423767 0.219543 0.000000
0.456329 0.223511 0.000000
0.490448 0.227600 0.000000
0.524780 0.231323 0.000000
0.558838 0.234680 0.000000
0.592407 0.237762 0.000000
0.625641 0.240601 0.000000
0.658691 0.243286 0.000000
0.691711 0.245636 0.000000
0.724579 0.247986 0.000000
0.757721 0.250000 0.000000
0.790985 0.252014 0.000000
0.824768 0.253662 0.000000
0.000000 0.326324 0.000000
0.029480 0.326324 0.000000
0.058594 0.326324 0.000000
0.087433 0.326324 0.000000
0.115997 0.326324 0.000000
0.144470 0.326324 0.000000
0.167877 0.316162 0.000000
0.187134 0.301544 0.000000
0.204041 0.286957 0.000000
0.218658 0.272430 0.000000
0.230804 0.257874 0.000000
0.240509 0.243347 0.000000
0.260620 0.241180 0.000000
0.283051 0.241180 0.000000
0.305695 0.241180 0.000000
0.328644 0.241119 0.000000
0.351959 0.241150 0.000000
0.375549 0.241180 0.000000
0.399475 0.241180 0.000000
0.423767 0.241180 0.000000
0.448334 0.241180 0.000000
0.475098 0.242157 0.000000
0.509552 0.246582 0.000000
0.543823 0.250610 0.000000
0.577545 0.254456 0.000000
0.611053 0.257782 0.000000
0.644165 0.260986 0.000000
0.677246 0.263885 0.000000
0.710175 0.266663 0.000000
0.743225 0.269135 0.000000
0.776489 0.271393 0.000000
0.809998 0.273682 0.000000
0.000000 0.356476 0.000000
0.029510 0.356476 0.000000
0.058594 0.356476 0.000000
0.087372 0.356476 0.000000
0.115967 0.356476 0.000000
0.144470 0.356476 0.000000
0.171295 0.352936 0.000000
0.191803 0.338196 0.000000
0.210144 0.323456 0.000000
0.226410 0.308716 0.000000
0.240448 0.293945 0.000000
0.252258 0.279205 0.000000
0.261871 0.264435 0.000000
0.283051 0.263184 0.000000
0.305695 0.263123 0.000000
0.328644 0.263123 0.000000
0.351959 0.263153 0.000000
0.375549 0.263184 0.000000
0.399475 0.263092 0.000000
0.423767 0.263184 0.000000
0.448334 0.263153 0.000000
0.473236 0.263153 0.000000
0.498444 0.263184 0.000000
0.528503 0.265594 0.000000
0.562622 0.269989 0.000000
0.596222 0.274078 0.000000
0.629547 0.277924 0.000000
0.662659 0.281342 0.000000
0.695679 0.284576 0.000000
0.728699 0.287537 0.000000
0.761902 0.290222 0.000000
0.795258 0.292847 0.000000
0.000000 0.387238 0.000000
0.029480 0.387238 0.000000
0.058594 0.387238 0.000000
0.087494 0.387238 0.000000
0.116028 0.387238 0.000000
0.144470 0.387238 0.000000
0.172852 0.387238 0.000000
0.195770 0.375580 0.000000
0.215363 0.360687 0.000000
0.233063 0.345703 0.000000
0.248749 0.330872 0.000000
0.262421 0.315918 0.000000
0.273987 0.300995 0.000000
0.283508 0.285980 0.000000
0.305695 0.285461 0.000000
0.328644 0.285522 0.000000
0.351959 0.285492 0.000000
0.375549 0.285522 0.000000
0.399475 0.285492 0.000000
0.423767 0.285553 0.000000
0.448334 0.285461 0.000000
0.473236 0.285553 0.000000
0.498444 0.285492 0.000000
0.523712 0.285553 0.000000
0.548767 0.285492 0.000000
0.581207 0.289429 0.000000
0.614716 0.293823 0.000000
0.647949 0.297913 0.000000
0.681061 0.301666 0.000000
0.714050 0.305237 0.000000
0.747101 0.308502 0.000000
0.780396 0.311523 0.000000
0.000000 0.418549 0.000000
0.029541 0.418549 0.000000
0.058594 0.418549 0.000000
0.087402 0.418549 0.000000
0.116028 0.418549 0.000000
0.144470 0.418549 0.000000
0.172882 0.418549 0.000000
0.199249 0.413818 0.000000
0.219940 0.398712 0.000000
0.238861 0.383606 0.000000
0.255951 0.368500 0.000000
0.271240 0.353394 0.000000
0.284607 0.338287 0.000000
0.295990 0.323120 0.000000
0.305725 0.308197 0.000000
0.328644 0.308197 0.000000
0.351959 0.308228 0.000000
0.375549 0.308197 0.000000
0.399475 0.308197 0.000000
0.423767 0.308136 0.000000
0.448334 0.308136 0.000000
0.473236 0.308167 0.000000
0.498444 0.308197 0.000000
0.523712 0.308228 0.000000
0.548767 0.308136 0.000000
0.573578 0.308167 0.000000
0.599609 0.308929 0.000000
0.632996 0.313721 0.000000
0.666229 0.318085 0.000000
0.699158 0.322174 0.000000
0.732330 0.325897 0.000000
0.765472 0.329529 0.000000
0.000000 0.450623 0.000000
0.029541 0.450623 0.000000
0.058594 0.450623 0.000000
0.087402 0.450623 0.000000
0.116028 0.450623 0.000000
0.144470 0.450623 0.000000
0.172913 0.450623 0.000000
0.201385 0.450623 0.000000
0.224030 0.437683 0.000000
0.243988 0.422424 0.000000
0.262268 0.407135 0.000000
0.278931 0.391846 0.000000
0.293884 0.376526 0.000000
0.306976 0.361206 0.000000
0.318298 0.345764 0.000000
0.328613 0.331390 0.000000
0.351959 0.331421 0.000000
0.375549 0.331421 0.000000
0.399475 0.331390 0.000000
0.423767 0.331390 0.000000
0.448334 0.331360 0.000000
0.473236 0.331360 0.000000
0.498444 0.331329 0.000000
0.523712 0.331360 0.000000
0.548767 0.331421 0.000000
0.573578 0.331390 0.000000
0.598175 0.331299 0.000000
0.622650 0.331421 0.000000
0.651123 0.333649 0.000000
0.684235 0.338348 0.000000
0.717285 0.342773 0.000000
0.750366 0.346863 0.000000
0.000000 0.483368 0.000000
0.029510 0.483368 0.000000
0.058594 0.483368 0.000000
0.087372 0.483368 0.000000
0.116028 0.483368 0.000000
0.144470 0.483368 0.000000
0.172913 0.483368 0.000000
0.201385 0.483368 0.000000
0.227509 0.477661 0.000000
0.248474 0.462128 0.000000
0.268005 0.446625 0.000000
0.285828 0.431152 0.000000
0.302155 0.415741 0.000000
0.316772 0.400116 0.000000
0.329742 0.384521 0.000000
0.340881 0.368927 0.000000
0.351959 0.355042 0.000000
0.375549 0.355042 0.000000
0.399475 0.354980 0.000000
0.423767 0.355011 0.000000
0.448334 0.354980 0.000000
0.473236 0.355072 0.000000
0.498444 0.355042 0.000000
0.523712 0.355072 0.000000
0.548767 0.355042 0.000000
0.573578 0.355042 0.000000
0.598175 0.354980 0.000000
0.622650 0.354980 0.000000
0.647003 0.355072 0.000000
0.671265 0.355011 0.000000
0.702057 0.358734 0.000000
0.735199 0.363403 0.000000
0.000000 0.516479 0.000000
0.029541 0.516479 0.000000
0.058502 0.516479 0.000000
0.087494 0.516479 0.000000
0.115997 0.516479 0.000000
0.144470 0.516479 0.000000
0.172852 0.516479 0.000000
0.201385 0.516479 0.000000
0.230042 0.516479 0.000000
0.252594 0.502686 0.000000
0.273010 0.487152 0.000000
0.291992 0.471466 0.000000
0.309479 0.455750 0.000000
0.325500 0.440063 0.000000
0.339935 0.424286 0.000000
0.352692 0.408478 0.000000
0.363800 0.392548 0.000000
0.375580 0.379089 0.000000
0.399475 0.379120 0.000000
0.423767 0.379089 0.000000
0.448334 0.379089 0.000000
0.473236 0.379059 0.000000
0.498444 0.379028 0.000000
0.523712 0.379059 0.000000
0.548767 0.379059 0.000000
0.573578 0.379028 0.000000
0.598175 0.379089 0.000000
0.622650 0.379028 0.000000
0.647003 0.379120 0.000000
0.671265 0.379120 0.000000
0.695496 0.379059 0.000000
0.719910 0.379150 0.000000
0.000000 0.549408 0.000000
0.029510 0.549408 0.000000
0.058563 0.549408 0.000000
0.087372 0.549408 0.000000
0.115997 0.549408 0.000000
0.144470 0.549408 0.000000
0.172913 0.549408 0.000000
0.201324 0.549408 0.000000
0.230103 0.549408 0.000000
0.256195 0.543182 0.000000
0.277557 0.527863 0.000000
0.297546 0.512360 0.000000
0.316040 0.496765 0.000000
0.333344 0.480835 0.000000
0.349091 0.464935 0.000000
0.363312 0.448883 0.000000
0.375977 0.432800 0.000000
0.387115 0.416656 0.000000
0.399506 0.403625 0.000000
0.423767 0.403595 0.000000
0.448334 0.403625 0.000000
0.473236 0.403595 0.000000
0.498444 0.403595 0.000000
0.523712 0.403625 0.000000
0.548767 0.403564 0.000000
0.573578 0.403625 0.000000
0.598175 0.403564 0.000000
0.622650 0.403595 0.000000
0.647003 0.403687 0.000000
0.671265 0.403625 0.000000
0.695496 0.403595 0.000000
0.719666 0.403534 0.000000
0.000000 0.582214 0.000000
0.029419 0.582214 0.000000
0.058563 0.582214 0.000000
0.087402 0.582214 0.000000
0.115997 0.582214 0.000000
0.144501 0.582214 0.000000
0.172913 0.582214 0.000000
0.201385 0.582214 0.000000
0.229980 0.582214 0.000000
0.258972 0.582214 0.000000
0.281616 0.568298 0.000000
0.302490 0.553070 0.000000
0.322052 0.537689 0.000000
0.340424 0.522064 0.000000
0.357391 0.506317 0.000000
0.372925 0.490204 0.000000
0.387024 0.473969 0.000000
0.399597 0.457581 0.000000
0.410645 0.441162 0.000000
0.423737 0.428558 0.000000
0.448334 0.428558 0.000000
0.473236 0.428589 0.000000
0.498444 0.428589 0.000000
0.523712 0.428528 0.000000
0.548767 0.428528 0.000000
0.573578 0.428558 0.000000
0.598175 0.428528 0.000000
0.622650 0.428436 0.000000
0.647003 0.428589 0.000000
0.671265 0.428497 0.000000
0.695496 0.428497 0.000000
0.719666 0.428589 0.000000
0.000000 0.614990 0.000000
0.029480 0.614990 0.000000
0.058533 0.614990 0.000000
0.087433 0.614990 0.000000
0.115936 0.614990 0.000000
0.144501 0.614990 0.000000
0.172852 0.614990 0.000000
0.201385 0.614990 0.000000
0.230072 0.614990 0.000000
0.258972 0.614990 0.000000
0.285309 0.608521 0.000000
0.306946 0.593536 0.000000
0.327515 0.578308 0.000000
0.346832 0.562958 0.000000
0.364838 0.547424 0.000000
0.381622 0.531708 0.000000
0.397003 0.515717 0.000000
0.411011 0.499420 0.000000
0.423553 0.482880 0.000000
0.434631 0.466156 0.000000
0.448303 0.453949 0.000000
0.473236 0.453979 0.000000
0.498444 0.453888 0.000000
0.523712 0.453888 0.000000
0.548767 0.453949 0.000000
0.573578 0.453979 0.000000
0.598175 0.453979 0.000000
0.622650 0.453888 0.000000
0.647003 0.453857 0.000000
0.671265 0.453888 0.000000
0.695496 0.453979 0.000000
0.719666 0.453857 0.000000
0.000000 0.647797 0.000000
0.029572 0.647797 0.000000
0.058502 0.647797 0.000000
0.087524 0.647797 0.000000
0.116028 0.647797 0.000000
0.144409 0.647797 0.000000
0.172943 0.647797 0.000000
0.201416 0.647797 0.000000
0.230011 0.647797 0.000000
0.259033 0.647797 0.000000
0.288269 0.647797 0.000000
0.311157 0.633698 0.000000
0.332397 0.618713 0.000000
0.352600 0.603546 0.000000
0.371643 0.588165 0.000000
0.389435 0.572693 0.000000
0.406097 0.556976 0.000000
0.421356 0.540985 0.000000
0.435303 0.524719 0.000000
0.447784 0.508270 0.000000
0.458862 0.491486 0.000000
0.473267 0.479736 0.000000
0.498444 0.479675 0.000000
0.523712 0.479736 0.000000
0.548767 0.479767 0.000000
0.573578 0.479767 0.000000
0.598175 0.479645 0.000000
0.622650 0.479675 0.000000
0.647003 0.479675 0.000000
0.671265 0.479675 0.000000
0.695496 0.479645 0.000000
0.719666 0.479706 0.000000
0.000000 0.680695 0.000000
0.029480 0.680695 0.000000
0.058533 0.680695 0.000000
0.087494 0.680695 0.000000
0.115936 0.680695 0.000000
0.144409 0.680695 0.000000
0.172882 0.680695 0.000000
0.201355 0.680695 0.000000
0.230042 0.680695 0.000000
0.259003 0.680695 0.000000
0.288391 0.680695 0.000000
0.314819 0.674011 0.000000
0.336914 0.659058 0.000000
0.357971 0.643982 0.000000
0.377869 0.628784 0.000000
0.396729 0.613403 0.000000
0.414337 0.597870 0.000000
0.430817 0.582184 0.000000
0.445984 0.566223 0.000000
0.459839 0.550018 0.000000
0.472290 0.533630 0.000000
0.483398 0.516937 0.000000
0.498505 0.505768 0.000000
0.523712 0.505768 0.000000
0.548767 0.505737 0.000000
0.573578 0.505737 0.000000
0.598175 0.505829 0.000000
0.622650 0.505829 0.000000
0.647003 0.505707 0.000000
0.671265 0.505829 0.000000
0.695496 0.505707 0.000000
0.719666 0.505798 0.000000
0.000000 0.713837 0.000000
0.029419 0.713837 0.000000
0.058685 0.713837 0.000000
0.087372 0.713837 0.000000
0.115997 0.713837 0.000000
0.144470 0.713837 0.000000
0.172943 0.713837 0.000000
0.201385 0.713837 0.000000
0.230072 0.713837 0.000000
0.259064 0.713837 0.000000
0.288239 0.713837 0.000000
0.317993 0.713837 0.000000
0.340973 0.699615 0.000000
0.362823 0.684509 0.000000
0.383575 0.669373 0.000000
0.403259 0.654114 0.000000
0.421906 0.638672 0.000000
0.439514 0.623108 0.000000
0.455811 0.607361 0.000000
0.470978 0.591339 0.000000
0.484680 0.575226 0.000000
0.497162 0.558807 0.000000
0.508270 0.542267 0.000000
0.523743 0.531708 0.000000
0.548767 0.531708 0.000000
0.573578 0.531738 0.000000
0.598175 0.531738 0.000000
0.622650 0.531677 0.000000
0.647003 0.531647 0.000000
0.671265 0.531738 0.000000
0.695496 0.531677 0.000000
0.719666 0.531769 0.000000
0.000000 0.747253 0.000000
0.029510 0.747253 0.000000
0.058533 0.747253 0.000000
0.087524 0.747253 0.000000
0.115967 0.747253 0.000000
0.144470 0.747253 0.000000
0.172791 0.747253 0.000000
0.201294 0.747253 0.000000
0.230042 0.747253 0.000000
0.259094 0.747253 0.000000
0.288361 0.747253 0.000000
0.317993 0.747253 0.000000
0.344818 0.740326 0.000000
0.367279 0.725220 0.000000
0.388733 0.710052 0.000000
0.409332 0.694763 0.000000
0.428894 0.679382 0.000000
0.447418 0.663818 0.000000
0.464844 0.648224 0.000000
0.481049 0.632385 0.000000
0.496094 0.616333 0.000000
0.509857 0.600189 0.000000
0.522064 0.583923 0.000000
0.532959 0.567413 0.000000
0.548798 0.557404 0.000000
0.573578 0.557373 0.000000
0.598175 0.557434 0.000000
0.622650 0.557373 0.000000
0.647003 0.557373 0.000000
0.671265 0.557465 0.000000
0.695496 0.557495 0.000000
0.719666 0.557434 0.000000
0.000000 0.781097 0.000000
0.029388 0.781097 0.000000
0.058594 0.781097 0.000000
0.087494 0.781097 0.000000
0.116089 0.781097 0.000000
0.144470 0.781097 0.000000
0.172974 0.781097 0.000000
0.201385 0.781097 0.000000
0.230103 0.781097 0.000000
0.258911 0.781097 0.000000
0.288330 0.781097 0.000000
0.317932 0.781097 0.000000
0.347961 0.781097 0.000000
0.371460 0.766388 0.000000
0.393646 0.751129 0.000000
0.415009 0.735687 0.000000
0.435394 0.720276 0.000000
0.454742 0.704742 0.000000
0.473114 0.689056 0.000000
0.490448 0.673401 0.000000
0.506531 0.657501 0.000000
0.521393 0.641357 0.000000
0.534790 0.625244 0.000000
0.546783 0.608948 0.000000
0.557434 0.592499 0.000000
0.573578 0.583038 0.000000
0.598175 0.583069 0.000000
0.622650 0.582977 0.000000
0.647003 0.583038 0.000000
0.671265 0.583099 0.000000
0.695496 0.583038 0.000000
0.719666 0.583008 0.000000
0.000000 0.815491 0.000000
0.029419 0.815491 0.000000
0.058624 0.815491 0.000000
0.087341 0.815491 0.000000
0.115967 0.815491 0.000000
0.144409 0.815491 0.000000
0.172943 0.815491 0.000000
0.201385 0.815491 0.000000
0.230133 0.815491 0.000000
0.259003 0.815491 0.000000
0.288269 0.815491 0.000000
0.317932 0.815491 0.000000
0.348022 0.815491 0.000000
0.375244 0.808258 0.000000
0.398132 0.792786 0.000000
0.420166 0.777222 0.000000
0.441345 0.761566 0.000000
