assets/luts/PHLEARN/PHLEARN-Warm Tones-Rich Cork.CUBE
#Created by: Adobe Photoshop Export Color Lookup Plugin
#Copyright: (C) Copyright 2019 PHLEARN
TITLE "PHLEARN Warming 02"
#LUT size
LUT_3D_SIZE 32
#data domain
DOMAIN_MIN 0.0 0.0 0.0
DOMAIN_MAX 1.0 1.0 1.0
#LUT data points
0.000000 0.000000 0.000000
0.036682 0.000000 0.000000
0.073334 0.000000 0.000000
0.109894 0.000000 0.000000
0.146393 0.000000 0.000000
0.182739 0.000000 0.000000
0.218933 0.000000 0.000000
0.254883 0.000000 0.000000
0.290619 0.000000 0.000000
0.326111 0.000000 0.000000
0.361267 0.000000 0.000000
0.396118 0.000000 0.000000
0.430573 0.000000 0.000000
0.464630 0.000000 0.000000
0.498260 0.000000 0.000000
0.531433 0.000000 0.000000
0.564117 0.000000 0.000000
0.596222 0.000000 0.000000
0.627777 0.000000 0.000000
0.658722 0.000000 0.000000
0.689117 0.000000 0.000000
0.718994 0.000000 0.000000
0.748413 0.000000 0.000000
0.777435 0.000000 0.000000
0.806061 0.000000 0.000000
0.834381 0.000000 0.000000
0.862427 0.000000 0.000000
0.890228 0.000000 0.000000
0.917816 0.000000 0.000000
0.945282 0.000000 0.000000
0.972656 0.000000 0.000000
1.000000 0.000000 0.000000
0.000000 0.032257 0.000000
0.036682 0.032257 0.000000
0.073334 0.032257 0.000000
0.109894 0.032257 0.000000
0.146393 0.032257 0.000000
0.182739 0.032257 0.000000
0.218933 0.032257 0.000000
0.254883 0.032257 0.000000
0.290619 0.032257 0.000000
0.326111 0.032257 0.000000
0.361267 0.032257 0.000000
0.396118 0.032257 0.000000
0.430573 0.032257 0.000000
0.464630 0.032257 0.000000
0.498260 0.032257 0.000000
0.531433 0.032257 0.000000
0.564117 0.032257 0.000000
0.596222 0.032257 0.000000
0.627777 0.032257 0.000000
0.658722 0.032257 0.000000
0.689117 0.032257 0.000000
0.718994 0.032257 0.000000
0.748413 0.032257 0.000000
0.777435 0.032257 0.000000
0.806061 0.032257 0.000000
0.834381 0.032257 0.000000
0.862427 0.032257 0.000000
0.890228 0.032257 0.000000
0.917816 0.032257 0.000000
0.945282 0.032257 0.000000
0.972656 0.032257 0.000000
1.000000 0.032257 0.000000
0.000000 0.064514 0.000000
0.036682 0.064514 0.000000
0.073334 0.064514 0.000000
0.109894 0.064514 0.000000
0.146393 0.064514 0.000000
0.182739 0.064514 0.000000
0.218933 0.064514 0.000000
0.254883 0.064514 0.000000
0.290619 0.064514 0.000000
0.326111 0.064514 0.000000
0.361267 0.064514 0.000000
0.396118 0.064514 0.000000
0.430573 0.064514 0.000000
0.464630 0.064514 0.000000
0.498260 0.064514 0.000000
0.531433 0.064514 0.000000
0.564117 0.064514 0.000000
0.596222 0.064514 0.000000
0.627777 0.064514 0.000000
0.658722 0.064514 0.000000
0.689117 0.064514 0.000000
0.718994 0.064514 0.000000
0.748413 0.064514 0.000000
0.777435 0.064514 0.000000
0.806061 0.064514 0.000000
0.834381 0.064514 0.000000
0.862427 0.064514 0.000000
0.890228 0.064514 0.000000
0.917816 0.064514 0.000000
0.945282 0.064514 0.000000
0.972656 0.064514 0.000000
1.000000 0.064514 0.000000
0.000000 0.096771 0.000000
0.036682 0.096771 0.000000
0.073334 0.096771 0.000000
0.109894 0.096771 0.000000
0.146393 0.096771 0.000000
0.182739 0.096771 0.000000
0.218933 0.096771 0.000000
0.254883 0.096771 0.000000
0.290619 0.096771 0.000000
0.326111 0.096771 0.000000
0.361267 0.096771 0.000000
0.396118 0.096771 0.000000
0.430573 0.096771 0.000000
0.464630 0.096771 0.000000
0.498260 0.096771 0.000000
0.531433 0.096771 0.000000
0.564117 0.096771 0.000000
0.596222 0.096771 0.000000
0.627777 0.096771 0.000000
0.658722 0.096771 0.000000
0.689117 0.096771 0.000000
0.718994 0.096771 0.000000
0.748413 0.096771 0.000000
0.777435 0.096771 0.000000
0.806061 0.096771 0.000000
0.834381 0.096771 0.000000
0.862427 0.096771 0.000000
0.890228 0.096771 0.000000
0.917816 0.096771 0.000000
0.945282 0.096771 0.000000
0.972656 0.096771 0.000000
1.000000 0.096771 0.000000
0.000000 0.129028 0.000000
0.036682 0.129028 0.000000
0.073334 0.129028 0.000000
0.109894 0.129028 0.000000
0.146393 0.129028 0.000000
0.182739 0.129028 0.000000
0.218933 0.129028 0.000000
0.254883 0.129028 0.000000
0.290619 0.129028 0.000000
0.326111 0.129028 0.000000
0.361267 0.129028 0.000000
0.396118 0.129028 0.000000
0.430573 0.129028 0.000000
0.464630 0.129028 0.000000
0.498260 0.129028 0.000000
0.531433 0.129028 0.000000
0.564117 0.129028 0.000000
0.596222 0.129028 0.000000
0.627777 0.129028 0.000000
0.658722 0.129028 0.000000
0.689117 0.129028 0.000000
0.718994 0.129028 0.000000
0.748413 0.129028 0.000000
0.777435 0.129028 0.000000
0.806061 0.129028 0.000000
0.834381 0.129028 0.000000
0.862427 0.129028 0.000000
0.890228 0.129028 0.000000
0.917816 0.129028 0.000000
0.945282 0.129028 0.000000
0.972656 0.129028 0.000000
1.000000 0.129028 0.000000
0.000000 0.161285 0.000000
0.036682 0.161285 0.000000
0.073334 0.161285 0.000000
0.109894 0.161285 0.000000
0.146393 0.161285 0.000000
0.182739 0.161285 0.000000
0.218933 0.161285 0.000000
0.254883 0.161285 0.000000
0.290619 0.161285 0.000000
0.326111 0.161285 0.000000
0.361267 0.161285 0.000000
0.396118 0.161285 0.000000
0.430573 0.161285 0.000000
0.464630 0.161285 0.000000
0.498260 0.161285 0.000000
0.531433 0.161285 0.000000
0.564117 0.161285 0.000000
0.596222 0.161285 0.000000
0.627777 0.161285 0.000000
0.658722 0.161285 0.000000
0.689117 0.161285 0.000000
0.718994 0.161285 0.000000
0.748413 0.161285 0.000000
0.777435 0.161285 0.000000
0.806061 0.161285 0.000000
0.834381 0.161285 0.000000
0.862427 0.161285 0.000000
0.890228 0.161285 0.000000
0.917816 0.161285 0.000000
0.945282 0.161285 0.000000
0.972656 0.161285 0.000000
1.000000 0.161285 0.000000
0.000000 0.193542 0.000000
0.036682 0.193542 0.000000
0.073334 0.193542 0.000000
0.109894 0.193542 0.000000
0.146393 0.193542 0.000000
0.182739 0.193542 0.000000
0.218933 0.193542 0.000000
0.254883 0.193542 0.000000
0.290619 0.193542 0.000000
0.326111 0.193542 0.000000
0.361267 0.193542 0.000000
0.396118 0.193542 0.000000
0.430573 0.193542 0.000000
0.464630 0.193542 0.000000
0.498260 0.193542 0.000000
0.531433 0.193542 0.000000
0.564117 0.193542 0.000000
0.596222 0.193542 0.000000
0.627777 0.193542 0.000000
0.658722 0.193542 0.000000
0.689117 0.193542 0.000000
0.718994 0.193542 0.000000
0.748413 0.193542 0.000000
0.777435 0.193542 0.000000
0.806061 0.193542 0.000000
0.834381 0.193542 0.000000
0.862427 0.193542 0.000000
0.890228 0.193542 0.000000
0.917816 0.193542 0.000000
0.945282 0.193542 0.000000
0.972656 0.193542 0.000000
1.000000 0.193542 0.000000
0.000000 0.225800 0.000000
0.036682 0.225800 0.000000
0.073334 0.225800 0.000000
0.109894 0.225800 0.000000
0.146393 0.225800 0.000000
0.182739 0.225800 0.000000
0.218933 0.225800 0.000000
0.254883 0.225800 0.000000
0.290619 0.225800 0.000000
0.326111 0.225800 0.000000
0.361267 0.225800 0.000000
0.396118 0.225800 0.000000
0.430573 0.225800 0.000000
0.464630 0.225800 0.000000
0.498260 0.225800 0.000000
0.531433 0.225800 0.000000
0.564117 0.225800 0.000000
0.596222 0.225800 0.000000
0.627777 0.225800 0.000000
0.658722 0.225800 0.000000
0.689117 0.225800 0.000000
0.718994 0.225800 0.000000
0.748413 0.225800 0.000000
0.777435 0.225800 0.000000
0.806061 0.225800 0.000000
0.834381 0.225800 0.000000
0.862427 0.225800 0.000000
0.890228 0.225800 0.000000
0.917816 0.225800 0.000000
0.945282 0.225800 0.000000
0.972656 0.225800 0.000000
1.000000 0.225800 0.000000
0.000000 0.258057 0.000000
0.036682 0.258057 0.000000
0.073334 0.258057 0.000000
0.109894 0.258057 0.000000
0.146393 0.258057 0.000000
0.182739 0.258057 0.000000
0.218933 0.258057 0.000000
0.254883 0.258057 0.000000
0.290619 0.258057 0.000000
0.326111 0.258057 0.000000
0.361267 0.258057 0.000000
0.396118 0.258057 0.000000
0.430573 0.258057 0.000000
0.464630 0.258057 0.000000
0.498260 0.258057 0.000000
0.531433 0.258057 0.000000
0.564117 0.258057 0.000000
0.596222 0.258057 0.000000
0.627777 0.258057 0.000000
0.658722 0.258057 0.000000
0.689117 0.258057 0.000000
0.718994 0.258057 0.000000
0.748413 0.258057 0.000000
0.777435 0.258057 0.000000
0.806061 0.258057 0.000000
0.834381 0.258057 0.000000
0.862427 0.258057 0.000000
0.890228 0.258057 0.000000
0.917816 0.258057 0.000000
0.945282 0.258057 0.000000
0.972656 0.258057 0.000000
1.000000 0.258057 0.000000
0.000000 0.290314 0.000000
0.036682 0.290314 0.000000
0.073334 0.290314 0.000000
0.109894 0.290314 0.000000
0.146393 0.290314 0.000000
0.182739 0.290314 0.000000
0.218933 0.290314 0.000000
0.254883 0.290314 0.000000
0.290619 0.290314 0.000000
0.326111 0.290314 0.000000
0.361267 0.290314 0.000000
0.396118 0.290314 0.000000
0.430573 0.290314 0.000000
0.464630 0.290314 0.000000
0.498260 0.290314 0.000000
0.531433 0.290314 0.000000
0.564117 0.290314 0.000000
0.596222 0.290314 0.000000
0.627777 0.290314 0.000000
0.658722 0.290314 0.000000
0.689117 0.290314 0.000000
0.718994 0.290314 0.000000
0.748413 0.290314 0.000000
0.777435 0.290314 0.000000
0.806061 0.290314 0.000000
0.834381 0.290314 0.000000
0.862427 0.290314 0.000000
0.890228 0.290314 0.000000
0.917816 0.290314 0.000000
0.945282 0.290314 0.000000
0.972656 0.290314 0.000000
1.000000 0.290314 0.000000
0.000000 0.322571 0.000000
0.036682 0.322571 0.000000
0.073334 0.322571 0.000000
0.109894 0.322571 0.000000
0.146393 0.322571 0.000000
0.182739 0.322571 0.000000
0.218933 0.322571 0.000000
0.254883 0.322571 0.000000
0.290619 0.322571 0.000000
0.326111 0.322571 0.000000
0.361267 0.322571 0.000000
0.396118 0.322571 0.000000
0.430573 0.322571 0.000000
0.464630 0.322571 0.000000
0.498260 0.322571 0.000000
0.531433 0.322571 0.000000
0.564117 0.322571 0.000000
0.596222 0.322571 0.000000
0.627777 0.322571 0.000000
0.658722 0.322571 0.000000
0.689117 0.322571 0.000000
0.718994 0.322571 0.000000
0.748413 0.322571 0.000000
0.777435 0.322571 0.000000
0.806061 0.322571 0.000000
0.834381 0.322571 0.000000
0.862427 0.322571 0.000000
0.890228 0.322571 0.000000
0.917816 0.322571 0.000000
0.945282 0.322571 0.000000
0.972656 0.322571 0.000000
1.000000 0.322571 0.000000
0.000000 0.354828 0.000000
0.036682 0.354828 0.000000
0.073334 0.354828 0.000000
0.109894 0.354828 0.000000
0.146393 0.354828 0.000000
0.182739 0.354828 0.000000
0.218933 0.354828 0.000000
0.254883 0.354828 0.000000
0.290619 0.354828 0.000000
0.326111 0.354828 0.000000
0.361267 0.354828 0.000000
0.396118 0.354828 0.000000
0.430573 0.354828 0.000000
0.464630 0.354828 0.000000
0.498260 0.354828 0.000000
0.531433 0.354828 0.000000
0.564117 0.354828 0.000000
0.596222 0.354828 0.000000
0.627777 0.354828 0.000000
0.658722 0.354828 0.000000
0.689117 0.354828 0.000000
0.718994 0.354828 0.000000
0.748413 0.354828 0.000000
0.777435 0.354828 0.000000
0.806061 0.354828 0.000000
0.834381 0.354828 0.000000
0.862427 0.354828 0.000000
0.890228 0.354828 0.000000
0.917816 0.354828 0.000000
0.945282 0.354828 0.000000
0.972656 0.354828 0.000000
1.000000 0.354828 0.000000
0.000000 0.387085 0.000000
0.036682 0.387085 0.000000
0.073334 0.387085 0.000000
0.109894 0.387085 0.000000
0.146393 0.387085 0.000000
0.182739 0.387085 0.000000
0.218933 0.387085 0.000000
0.254883 0.387085 0.000000
0.290619 0.387085 0.000000
0.326111 0.387085 0.000000
0.361267 0.387085 0.000000
0.396118 0.387085 0.000000
0.430573 0.387085 0.000000
0.464630 0.387085 0.000000
0.498260 0.387085 0.000000
0.531433 0.387085 0.000000
0.564117 0.387085 0.000000
0.596222 0.387085 0.000000
0.627777 0.387085 0.000000
0.658722 0.387085 0.000000
0.689117 0.387085 0.000000
0.718994 0.387085 0.000000
0.748413 0.387085 0.000000
0.777435 0.387085 0.000000
0.806061 0.387085 0.000000
0.834381 0.387085 0.000000
0.862427 0.387085 0.000000
0.890228 0.387085 0.000000
0.917816 0.387085 0.000000
0.945282 0.387085 0.000000
0.972656 0.387085 0.000000
1.000000 0.387085 0.000000
0.000000 0.419342 0.000000
0.036682 0.419342 0.000000
0.073334 0.419342 0.000000
0.109894 0.419342 0.000000
0.146393 0.419342 0.000000
0.182739 0.419342 0.000000
0.218933 0.419342 0.000000
0.254883 0.419342 0.000000
0.290619 0.419342 0.000000
0.326111 0.419342 0.000000
0.361267 0.419342 0.000000
0.396118 0.419342 0.000000
0.430573 0.419342 0.000000
0.464630 0.419342 0.000000
0.498260 0.419342 0.000000
0.531433 0.419342 0.000000
0.564117 0.419342 0.000000
0.596222 0.419342 0.000000
0.627777 0.419342 0.000000
0.658722 0.419342 0.000000
0.689117 0.419342 0.000000
0.718994 0.419342 0.000000
0.748413 0.419342 0.000000
0.777435 0.419342 0.000000
0.806061 0.419342 0.000000
0.834381 0.419342 0.000000
0.862427 0.419342 0.000000
0.890228 0.419342 0.000000
0.917816 0.419342 0.000000
0.945282 0.419342 0.000000
0.972656 0.419342 0.000000
1.000000 0.419342 0.000000
0.000000 0.451599 0.000000
0.036682 0.451599 0.000000
0.073334 0.451599 0.000000
0.109894 0.451599 0.000000
0.146393 0.451599 0.000000
0.182739 0.451599 0.000000
0.218933 0.451599 0.000000
0.254883 0.451599 0.000000
0.290619 0.451599 0.000000
0.326111 0.451599 0.000000
0.361267 0.451599 0.000000
0.396118 0.451599 0.000000
0.430573 0.451599 0.000000
0.464630 0.451599 0.000000
0.498260 0.451599 0.000000
0.531433 0.451599 0.000000
0.564117 0.451599 0.000000
0.596222 0.451599 0.000000
0.627777 0.451599 0.000000
0.658722 0.451599 0.000000
0.689117 0.451599 0.000000
0.718994 0.451599 0.000000
0.748413 0.451599 0.000000
0.777435 0.451599 0.000000
0.806061 0.451599 0.000000
0.834381 0.451599 0.000000
0.862427 0.451599 0.000000
0.890228 0.451599 0.000000
0.917816 0.451599 0.000000
0.945282 0.451599 0.000000
0.972656 0.451599 0.000000
1.000000 0.451599 0.000000
0.000000 0.483856 0.000000
0.036682 0.483856 0.000000
0.073334 0.483856 0.000000
0.109894 0.483856 0.000000
0.146393 0.483856 0.000000
0.182739 0.483856 0.000000
0.218933 0.483856 0.000000
0.254883 0.483856 0.000000
0.290619 0.483856 0.000000
0.326111 0.483856 0.000000
0.361267 0.483856 0.000000
0.396118 0.483856 0.000000
0.430573 0.483856 0.000000
0.464630 0.483856 0.000000
0.498260 0.483856 0.000000
0.531433 0.483856 0.000000
0.564117 0.483856 0.000000
0.596222 0.483856 0.000000
0.627777 0.483856 0.000000
0.658722 0.483856 0.000000
0.689117 0.483856 0.000000
0.718994 0.483856 0.000000
0.748413 0.483856 0.000000
0.777435 0.483856 0.000000
0.806061 0.483856 0.000000
0.834381 0.483856 0.000000
0.862427 0.483856 0.000000
0.890228 0.483856 0.000000
0.917816 0.483856 0.000000
0.945282 0.483856 0.000000
0.972656 0.483856 0.000000
1.000000 0.483856 0.000000
0.000000 0.516144 0.000000
0.036682 0.516144 0.000000
0.073334 0.516144 0.000000
0.109894 0.516144 0.000000
0.146393 0.516144 0.000000
0.182739 0.516144 0.000000
0.218933 0.516144 0.000000
0.254883 0.516144 0.000000
0.290619 0.516144 0.000000
0.326111 0.516144 0.000000
0.361267 0.516144 0.000000
0.396118 0.516144 0.000000
0.430573 0.516144 0.000000
0.464630 0.516144 0.000000
0.498260 0.516144 0.000000
0.531433 0.516144 0.000000
0.564117 0.516144 0.000000
0.596222 0.516144 0.000000
0.627777 0.516144 0.000000
0.658722 0.516144 0.000000
0.689117 0.516144 0.000000
0.718994 0.516144 0.000000
0.748413 0.516144 0.000000
0.777435 0.516144 0.000000
0.806061 0.516144 0.000000
0.834381 0.516144 0.000000
0.862427 0.516144 0.000000
0.890228 0.516144 0.000000
0.917816 0.516144 0.000000
0.945282 0.516144 0.000000
0.972656 0.516144 0.000000
1.000000 0.516144 0.000000
0.000000 0.548401 0.000000
0.036682 0.548401 0.000000
0.073334 0.548401 0.000000
0.109894 0.548401 0.000000
0.146393 0.548401 0.000000
0.182739 0.548401 0.000000
0.218933 0.548401 0.000000
0.254883 0.548401 0.000000
0.290619 0.548401 0.000000
0.326111 0.548401 0.000000
0.361267 0.548401 0.000000
0.396118 0.548401 0.000000
0.430573 0.548401 0.000000
0.464630 0.548401 0.000000
0.498260 0.548401 0.000000
0.531433 0.548401 0.000000
0.564117 0.548401 0.000000
0.596222 0.548401 0.000000
0.627777 0.548401 0.000000
0.658722 0.548401 0.000000
0.689117 0.548401 0.000000
0.718994 0.548401 0.000000
0.748413 0.548401 0.000000
0.777435 0.548401 0.000000
0.806061 0.548401 0.000000
0.834381 0.548401 0.000000
0.862427 0.548401 0.000000
0.890228 0.548401 0.000000
0.917816 0.548401 0.000000
0.945282 0.548401 0.000000
0.972656 0.548401 0.000000
1.000000 0.548401 0.000000
0.000000 0.580658 0.000000
0.036682 0.580658 0.000000
0.073334 0.580658 0.000000
0.109894 0.580658 0.000000
0.146393 0.580658 0.000000
0.182739 0.580658 0.000000
0.218933 0.580658 0.000000
0.254883 0.580658 0.000000
0.290619 0.580658 0.000000
0.326111 0.580658 0.000000
0.361267 0.580658 0.000000
0.396118 0.580658 0.000000
0.430573 0.580658 0.000000
0.464630 0.580658 0.000000
0.498260 0.580658 0.000000
0.531433 0.580658 0.000000
0.564117 0.580658 0.000000
0.596222 0.580658 0.000000
0.627777 0.580658 0.000000
0.658722 0.580658 0.000000
0.689117 0.580658 0.000000
0.718994 0.580658 0.000000
0.748413 0.580658 0.000000
0.777435 0.580658 0.000000
0.806061 0.580658 0.000000
0.834381 0.580658 0.000000
0.862427 0.580658 0.000000
0.890228 0.580658 0.000000
0.917816 0.580658 0.000000
0.945282 0.580658 0.000000
0.972656 0.580658 0.000000
1.000000 0.580658 0.000000
0.000000 0.612915 0.000000
0.036682 0.612915 0.000000
0.073334 0.612915 0.000000
0.109894 0.612915 0.000000
0.146393 0.612915 0.000000
0.182739 0.612915 0.000000
0.218933 0.612915 0.000000
0.254883 0.612915 0.000000
0.290619 0.612915 0.000000
0.326111 0.612915 0.000000
0.361267 0.612915 0.000000
0.396118 0.612915 0.000000
0.430573 0.612915 0.000000
0.464630 0.612915 0.000000
0.498260 0.612915 0.000000
0.531433 0.612915 0.000000
0.564117 0.612915 0.000000
0.596222 0.612915 0.000000
0.627777 0.612915 0.000000
0.658722 0.612915 0.000000
0.689117 0.612915 0.000000
0.718994 0.612915 0.000000
0.748413 0.612915 0.000000
0.777435 0.612915 0.000000
0.806061 0.612915 0.000000
0.834381 0.612915 0.000000
0.862427 0.612915 0.000000
0.890228 0.612915 0.000000
0.917816 0.612915 0.000000
0.945282 0.612915 0.000000
0.972656 0.612915 0.000000
1.000000 0.612915 0.000000
0.000000 0.645172 0.000000
0.036682 0.645172 0.000000
0.073334 0.645172 0.000000
0.109894 0.645172 0.000000
0.146393 0.645172 0.000000
0.182739 0.645172 0.000000
0.218933 0.645172 0.000000
0.254883 0.645172 0.000000
0.290619 0.645172 0.000000
0.326111 0.645172 0.000000
0.361267 0.645172 0.000000
0.396118 0.645172 0.000000
0.430573 0.645172 0.000000
0.464630 0.645172 0.000000
0.498260 0.645172 0.000000
0.531433 0.645172 0.000000
0.564117 0.645172 0.000000
0.596222 0.645172 0.000000
0.627777 0.645172 0.000000
0.658722 0.645172 0.000000
0.689117 0.645172 0.000000
0.718994 0.645172 0.000000
0.748413 0.645172 0.000000
0.777435 0.645172 0.000000
0.806061 0.645172 0.000000
0.834381 0.645172 0.000000
0.862427 0.645172 0.000000
0.890228 0.645172 0.000000
0.917816 0.645172 0.000000
0.945282 0.645172 0.000000
0.972656 0.645172 0.000000
1.000000 0.645172 0.000000
0.000000 0.677429 0.000000
0.036682 0.677429 0.000000
0.073334 0.677429 0.000000
0.109894 0.677429 0.000000
0.146393 0.677429 0.000000
0.182739 0.677429 0.000000
0.218933 0.677429 0.000000
0.254883 0.677429 0.000000
0.290619 0.677429 0.000000
0.326111 0.677429 0.000000
0.361267 0.677429 0.000000
0.396118 0.677429 0.000000
0.430573 0.677429 0.000000
0.464630 0.677429 0.000000
0.498260 0.677429 0.000000
0.531433 0.677429 0.000000
0.564117 0.677429 0.000000
0.596222 0.677429 0.000000
0.627777 0.677429 0.000000
0.658722 0.677429 0.000000
0.689117 0.677429 0.000000
0.718994 0.677429 0.000000
0.748413 0.677429 0.000000
0.777435 0.677429 0.000000
0.806061 0.677429 0.000000
0.834381 0.677429 0.000000
0.862427 0.677429 0.000000
0.890228 0.677429 0.000000
0.917816 0.677429 0.000000
0.945282 0.677429 0.000000
0.972656 0.677429 0.000000
1.000000 0.677429 0.000000
0.000000 0.709686 0.000000
0.036682 0.709686 0.000000
0.073334 0.709686 0.000000
0.109894 0.709686 0.000000
0.146393 0.709686 0.000000
0.182739 0.709686 0.000000
0.218933 0.709686 0.000000
0.254883 0.709686 0.000000
0.290619 0.709686 0.000000
0.326111 0.709686 0.000000
0.361267 0.709686 0.000000
0.396118 0.709686 0.000000
0.430573 0.709686 0.000000
0.464630 0.709686 0.000000
0.498260 0.709686 0.000000
0.531433 0.709686 0.000000
0.564117 0.709686 0.000000
0.596222 0.709686 0.000000
0.627777 0.709686 0.000000
0.658722 0.709686 0.000000
0.689117 0.709686 0.000000
0.718994 0.709686 0.000000
0.748413 0.709686 0.000000
0.777435 0.709686 0.000000
0.806061 0.709686 0.000000
0.834381 0.709686 0.000000
0.862427 0.709686 0.000000
0.890228 0.709686 0.000000
0.917816 0.709686 0.000000
0.945282 0.709686 0.000000
0.972656 0.709686 0.000000
1.000000 0.709686 0.000000
0.000000 0.741943 0.000000
0.036682 0.741943 0.000000
0.073334 0.741943 0.000000
0.109894 0.741943 0.000000
0.146393 0.741943 0.000000
0.182739 0.741943 0.000000
0.218933 0.741943 0.000000
0.254883 0.741943 0.000000
0.290619 0.741943 0.000000
0.326111 0.741943 0.000000
0.361267 0.741943 0.000000
0.396118 0.741943 0.000000
0.430573 0.741943 0.000000
0.464630 0.741943 0.000000
0.498260 0.741943 0.000000
0.531433 0.741943 0.000000
0.564117 0.741943 0.000000
0.596222 0.741943 0.000000
0.627777 0.741943 0.000000
0.658722 0.741943 0.000000
0.689117 0.741943 0.000000
0.718994 0.741943 0.000000
0.748413 0.741943 0.000000
0.777435 0.741943 0.000000
0.806061 0.741943 0.000000
0.834381 0.741943 0.000000
0.862427 0.741943 0.000000
0.890228 0.741943 0.000000
0.917816 0.741943 0.000000
0.945282 0.741943 0.000000
0.972656 0.741943 0.000000
1.000000 0.741943 0.000000
0.000000 0.774200 0.000000
0.036682 0.774200 0.000000
0.073334 0.774200 0.000000
0.109894 0.774200 0.000000
0.146393 0.774200 0.000000
0.182739 0.774200 0.000000
0.218933 0.774200 0.000000
0.254883 0.774200 0.000000
0.290619 0.774200 0.000000
0.326111 0.774200 0.000000
0.361267 0.774200 0.000000
0.396118 0.774200 0.000000
0.430573 0.774200 0.000000
0.464630 0.774200 0.000000
0.498260 0.774200 0.000000
0.531433 0.774200 0.000000
0.564117 0.774200 0.000000
0.596222 0.774200 0.000000
0.627777 0.774200 0.000000
0.658722 0.774200 0.000000
0.689117 0.774200 0.000000
0.718994 0.774200 0.000000
0.748413 0.774200 0.000000
0.777435 0.774200 0.000000
0.806061 0.774200 0.000000
0.834381 0.774200 0.000000
0.862427 0.774200 0.000000
0.890228 0.774200 0.000000
0.917816 0.774200 0.000000
0.945282 0.774200 0.000000
0.972656 0.774200 0.000000
1.000000 0.774200 0.000000
0.000000 0.806458 0.000000
0.036682 0.806458 0.000000
0.073334 0.806458 0.000000
0.109894 0.806458 0.000000
0.146393 0.806458 0.000000
0.182739 0.806458 0.000000
0.218933 0.806458 0.000000
0.254883 0.806458 0.000000
0.290619 0.806458 0.000000
0.326111 0.806458 0.000000
0.361267 0.806458 0.000000
0.396118 0.806458 0.000000
0.430573 0.806458 0.000000
0.464630 0.806458 0.000000
0.498260 0.806458 0.000000
0.531433 0.806458 0.000000
0.564117 0.806458 0.000000
0.596222 0.806458 0.000000
0.627777 0.806458 0.000000
0.658722 0.806458 0.000000
0.689117 0.806458 0.000000
0.718994 0.806458 0.000000
0.748413 0.806458 0.000000
0.777435 0.806458 0.000000
0.806061 0.806458 0.000000
0.834381 0.806458 0.000000
0.862427 0.806458 0.000000
0.890228 0.806458 0.000000
0.917816 0.806458 0.000000
0.945282 0.806458 0.000000
0.972656 0.806458 0.000000
1.000000 0.806458 0.000000
0.000000 0.838715 0.000000
0.036682 0.838715 0.000000
0.073334 0.838715 0.000000
0.109894 0.838715 0.000000
0.146393 0.838715 0.000000
0.182739 0.838715 0.000000
0.218933 0.838715 0.000000
0.254883 0.838715 0.000000
0.290619 0.838715 0.000000
0.326111 0.838715 0.000000
0.361267 0.838715 0.000000
0.396118 0.838715 0.000000
0.430573 0.838715 0.000000
0.464630 0.838715 0.000000
0.498260 0.838715 0.000000
0.531433 0.838715 0.000000
0.564117 0.838715 0.000000
0.596222 0.838715 0.000000
0.627777 0.838715 0.000000
0.658722 0.838715 0.000000
0.689117 0.838715 0.000000
0.718994 0.838715 0.000000
0.748413 0.838715 0.000000
0.777435 0.838715 0.000000
0.806061 0.838715 0.000000
0.834381 0.838715 0.000000
0.862427 0.838715 0.000000
0.890228 0.838715 0.000000
0.917816 0.838715 0.000000
0.945282 0.838715 0.000000
0.972656 0.838715 0.000000
1.000000 0.838715 0.000000
0.000000 0.870972 0.000000
0.036682 0.870972 0.000000
0.073334 0.870972 0.000000
0.109894 0.870972 0.000000
0.146393 0.870972 0.000000
0.182739 0.870972 0.000000
0.218933 0.870972 0.000000
0.254883 0.870972 0.000000
0.290619 0.870972 0.000000
0.326111 0.870972 0.000000
0.361267 0.870972 0.000000
0.396118 0.870972 0.000000
0.430573 0.870972 0.000000
0.464630 0.870972 0.000000
0.498260 0.870972 0.000000
0.531433 0.870972 0.000000
