assets/luts/PHLEARN/PHLEARN-Cool Tones-Crisp Slate.CUBE
#Created by: Adobe Photoshop Export Color Lookup Plugin
#Copyright: (C) Copyright 2019 PHLEARN
TITLE "PHLEARN Cooling 01"
#LUT size
LUT_3D_SIZE 32
#data domain
DOMAIN_MIN 0.0 0.0 0.0
DOMAIN_MAX 1.0 1.0 1.0
#LUT data points
0.000000 0.000000 0.000000
0.031219 0.000000 0.001892
0.060364 0.000000 0.003784
0.087402 0.000000 0.005707
0.112366 0.000000 0.007599
0.140411 0.000000 0.009491
0.168762 0.000000 0.011261
0.198090 0.000000 0.012604
0.227692 0.000000 0.013824
0.257629 0.000000 0.014862
0.287903 0.000000 0.015778
0.318512 0.000000 0.016510
0.349457 0.000000 0.017120
0.380707 0.000000 0.017548
0.412292 0.000000 0.017883
0.444244 0.000000 0.018005
0.479004 0.000000 0.016876
0.516052 0.000000 0.014709
0.552765 0.000000 0.012665
0.589142 0.000000 0.010803
0.625183 0.000000 0.009094
0.660919 0.000000 0.007507
0.696320 0.000000 0.006073
0.731384 0.000000 0.004822
0.766113 0.000000 0.003662
0.800507 0.000000 0.002716
0.834595 0.000000 0.001892
0.868317 0.000000 0.001190
0.901733 0.000000 0.000671
0.934814 0.000000 0.000305
0.967590 0.000000 0.000061
1.000000 0.000000 0.000000
0.000000 0.032257 0.001892
0.031219 0.032257 0.001892
0.060364 0.032257 0.003784
0.087402 0.032257 0.005707
0.112366 0.032257 0.007599
0.140411 0.032257 0.009491
0.168762 0.032257 0.011261
0.198090 0.032257 0.012604
0.227692 0.032257 0.013824
0.257629 0.032257 0.014862
0.287903 0.032257 0.015778
0.318512 0.032257 0.016510
0.349457 0.032257 0.017120
0.380707 0.032257 0.017548
0.412292 0.032257 0.017883
0.444244 0.032257 0.018005
0.479004 0.032257 0.016876
0.516052 0.032257 0.014709
0.552765 0.032257 0.012665
0.589142 0.032257 0.010803
0.625183 0.032257 0.009094
0.660919 0.032257 0.007507
0.696320 0.032257 0.006073
0.731384 0.032257 0.004822
0.766113 0.032257 0.003662
0.800507 0.032257 0.002716
0.834595 0.032257 0.001892
0.868317 0.032257 0.001190
0.901733 0.032257 0.000671
0.934814 0.032257 0.000305
0.967590 0.032257 0.000061
1.000000 0.032257 0.000000
0.000000 0.064514 0.003784
0.030182 0.064514 0.003784
0.060364 0.064514 0.003784
0.087402 0.064514 0.005707
0.112366 0.064514 0.007599
0.140411 0.064514 0.009491
0.168762 0.064514 0.011261
0.198090 0.064514 0.012604
0.227692 0.064514 0.013824
0.257629 0.064514 0.014862
0.287903 0.064514 0.015778
0.318512 0.064514 0.016510
0.349457 0.064514 0.017120
0.380707 0.064514 0.017548
0.412292 0.064514 0.017883
0.444244 0.064514 0.018005
0.479004 0.064514 0.016876
0.516052 0.064514 0.014709
0.552765 0.064514 0.012665
0.589142 0.064514 0.010803
0.625183 0.064514 0.009094
0.660919 0.064514 0.007507
0.696320 0.064514 0.006073
0.731384 0.064514 0.004822
0.766113 0.064514 0.003662
0.800507 0.064514 0.002716
0.834595 0.064514 0.001892
0.868317 0.064514 0.001190
0.901733 0.064514 0.000671
0.934814 0.064514 0.000305
0.967590 0.064514 0.000061
1.000000 0.064514 0.000000
0.000000 0.096771 0.005707
0.029144 0.096771 0.005707
0.058258 0.096771 0.005707
0.087402 0.096771 0.005707
0.112366 0.096771 0.007599
0.140411 0.096771 0.009491
0.168762 0.096771 0.011261
0.198090 0.096771 0.012604
0.227692 0.096771 0.013824
0.257629 0.096771 0.014862
0.287903 0.096771 0.015778
0.318512 0.096771 0.016510
0.349457 0.096771 0.017120
0.380707 0.096771 0.017548
0.412292 0.096771 0.017883
0.444244 0.096771 0.018005
0.479004 0.096771 0.016876
0.516052 0.096771 0.014709
0.552765 0.096771 0.012665
0.589142 0.096771 0.010803
0.625183 0.096771 0.009094
0.660919 0.096771 0.007507
0.696320 0.096771 0.006073
0.731384 0.096771 0.004822
0.766113 0.096771 0.003662
0.800507 0.096771 0.002716
0.834595 0.096771 0.001892
0.868317 0.096771 0.001190
0.901733 0.096771 0.000671
0.934814 0.096771 0.000305
0.967590 0.096771 0.000061
1.000000 0.096771 0.000000
0.000000 0.129028 0.007599
0.028107 0.129028 0.007599
0.056183 0.129028 0.007599
0.084290 0.129028 0.007599
0.112366 0.129028 0.007599
0.140411 0.129028 0.009491
0.168762 0.129028 0.011261
0.198090 0.129028 0.012604
0.227692 0.129028 0.013824
0.257629 0.129028 0.014862
0.287903 0.129028 0.015778
0.318512 0.129028 0.016510
0.349457 0.129028 0.017120
0.380707 0.129028 0.017548
0.412292 0.129028 0.017883
0.444244 0.129028 0.018005
0.479004 0.129028 0.016876
0.516052 0.129028 0.014709
0.552765 0.129028 0.012665
0.589142 0.129028 0.010803
0.625183 0.129028 0.009094
0.660919 0.129028 0.007507
0.696320 0.129028 0.006073
0.731384 0.129028 0.004822
0.766113 0.129028 0.003662
0.800507 0.129028 0.002716
0.834595 0.129028 0.001892
0.868317 0.129028 0.001190
0.901733 0.129028 0.000671
0.934814 0.129028 0.000305
0.967590 0.129028 0.000061
1.000000 0.129028 0.000000
0.000000 0.161285 0.009491
0.027069 0.161285 0.009491
0.054108 0.161285 0.009491
0.081177 0.161285 0.009491
0.108215 0.161285 0.009491
0.140411 0.161285 0.009491
0.168762 0.161285 0.011261
0.198090 0.161285 0.012604
0.227692 0.161285 0.013824
0.257629 0.161285 0.014862
0.287903 0.161285 0.015778
0.318512 0.161285 0.016510
0.349457 0.161285 0.017120
0.380707 0.161285 0.017548
0.412292 0.161285 0.017883
0.444244 0.161285 0.018005
0.479004 0.161285 0.016876
0.516052 0.161285 0.014709
0.552765 0.161285 0.012665
0.589142 0.161285 0.010803
0.625183 0.161285 0.009094
0.660919 0.161285 0.007507
0.696320 0.161285 0.006073
0.731384 0.161285 0.004822
0.766113 0.161285 0.003662
0.800507 0.161285 0.002716
0.834595 0.161285 0.001892
0.868317 0.161285 0.001190
0.901733 0.161285 0.000671
0.934814 0.161285 0.000305
0.967590 0.161285 0.000061
1.000000 0.161285 0.000000
0.000000 0.193542 0.011383
0.026001 0.193542 0.011383
0.052032 0.193542 0.011383
0.078033 0.193542 0.011383
0.104065 0.193542 0.011383
0.136230 0.193542 0.011383
0.168762 0.193542 0.011261
0.198090 0.193542 0.012604
0.227692 0.193542 0.013824
0.257629 0.193542 0.014862
0.287903 0.193542 0.015778
0.318512 0.193542 0.016510
0.349457 0.193542 0.017120
0.380707 0.193542 0.017548
0.412292 0.193542 0.017883
0.444244 0.193542 0.018005
0.479004 0.193542 0.016876
0.516052 0.193542 0.014709
0.552765 0.193542 0.012665
0.589142 0.193542 0.010803
0.625183 0.193542 0.009094
0.660919 0.193542 0.007507
0.696320 0.193542 0.006073
0.731384 0.193542 0.004822
0.766113 0.193542 0.003662
0.800507 0.193542 0.002716
0.834595 0.193542 0.001892
0.868317 0.193542 0.001190
0.901733 0.193542 0.000671
0.934814 0.193542 0.000305
0.967590 0.193542 0.000061
1.000000 0.193542 0.000000
0.000000 0.225800 0.013275
0.024963 0.225800 0.013275
0.049957 0.225800 0.013275
0.074921 0.225800 0.013275
0.099884 0.225800 0.013275
0.132080 0.225800 0.013275
0.164673 0.225800 0.013123
0.198090 0.225800 0.012604
0.227692 0.225800 0.013824
0.257629 0.225800 0.014862
0.287903 0.225800 0.015778
0.318512 0.225800 0.016510
0.349457 0.225800 0.017120
0.380707 0.225800 0.017548
0.412292 0.225800 0.017883
0.444244 0.225800 0.018005
0.479004 0.225800 0.016876
0.516052 0.225800 0.014709
0.552765 0.225800 0.012665
0.589142 0.225800 0.010803
0.625183 0.225800 0.009094
0.660919 0.225800 0.007507
0.696320 0.225800 0.006073
0.731384 0.225800 0.004822
0.766113 0.225800 0.003662
0.800507 0.225800 0.002716
0.834595 0.225800 0.001892
0.868317 0.225800 0.001190
0.901733 0.225800 0.000671
0.934814 0.225800 0.000305
0.967590 0.225800 0.000061
1.000000 0.225800 0.000000
0.000000 0.258057 0.015198
0.023926 0.258057 0.015198
0.047852 0.258057 0.015198
0.071808 0.258057 0.015198
0.095734 0.258057 0.015198
0.127899 0.258057 0.015198
0.160522 0.258057 0.015015
0.194122 0.258057 0.014435
0.227692 0.258057 0.013824
0.257629 0.258057 0.014862
0.287903 0.258057 0.015778
0.318512 0.258057 0.016510
0.349457 0.258057 0.017120
0.380707 0.258057 0.017548
0.412292 0.258057 0.017883
0.444244 0.258057 0.018005
0.479004 0.258057 0.016876
0.516052 0.258057 0.014709
0.552765 0.258057 0.012665
0.589142 0.258057 0.010803
0.625183 0.258057 0.009094
0.660919 0.258057 0.007507
0.696320 0.258057 0.006073
0.731384 0.258057 0.004822
0.766113 0.258057 0.003662
0.800507 0.258057 0.002716
0.834595 0.258057 0.001892
0.868317 0.258057 0.001190
0.901733 0.258057 0.000671
0.934814 0.258057 0.000305
0.967590 0.258057 0.000061
1.000000 0.258057 0.000000
0.000000 0.290314 0.017090
0.022888 0.290314 0.017090
0.045776 0.290314 0.017090
0.068665 0.290314 0.017090
0.091583 0.290314 0.017090
0.123718 0.290314 0.017090
0.156403 0.290314 0.016907
0.190155 0.290314 0.016235
0.223877 0.290314 0.015533
0.257629 0.290314 0.014862
0.287903 0.290314 0.015778
0.318512 0.290314 0.016510
0.349457 0.290314 0.017120
0.380707 0.290314 0.017548
0.412292 0.290314 0.017883
0.444244 0.290314 0.018005
0.479004 0.290314 0.016876
0.516052 0.290314 0.014709
0.552765 0.290314 0.012665
0.589142 0.290314 0.010803
0.625183 0.290314 0.009094
0.660919 0.290314 0.007507
0.696320 0.290314 0.006073
0.731384 0.290314 0.004822
0.766113 0.290314 0.003662
0.800507 0.290314 0.002716
0.834595 0.290314 0.001892
0.868317 0.290314 0.001190
0.901733 0.290314 0.000671
0.934814 0.290314 0.000305
0.967590 0.290314 0.000061
1.000000 0.290314 0.000000
0.000000 0.322571 0.018982
0.021851 0.322571 0.018982
0.043701 0.322571 0.018982
0.065552 0.322571 0.018982
0.087402 0.322571 0.018982
0.119537 0.322571 0.018982
0.152252 0.322571 0.018768
0.186188 0.322571 0.018005
0.220093 0.322571 0.017273
0.253998 0.322571 0.016510
0.287903 0.322571 0.015778
0.318512 0.322571 0.016510
0.349457 0.322571 0.017120
0.380707 0.322571 0.017548
0.412292 0.322571 0.017883
0.444244 0.322571 0.018005
0.479004 0.322571 0.016876
0.516052 0.322571 0.014709
0.552765 0.322571 0.012665
0.589142 0.322571 0.010803
0.625183 0.322571 0.009094
0.660919 0.322571 0.007507
0.696320 0.322571 0.006073
0.731384 0.322571 0.004822
0.766113 0.322571 0.003662
0.800507 0.322571 0.002716
0.834595 0.322571 0.001892
0.868317 0.322571 0.001190
0.901733 0.322571 0.000671
0.934814 0.322571 0.000305
0.967590 0.322571 0.000061
1.000000 0.322571 0.000000
0.000000 0.354828 0.020874
0.020813 0.354828 0.020874
0.041626 0.354828 0.020874
0.062439 0.354828 0.020874
0.083252 0.354828 0.020874
0.115387 0.354828 0.020874
0.148163 0.354828 0.020630
0.182251 0.354828 0.019806
0.216309 0.354828 0.018982
0.250366 0.354828 0.018158
0.284454 0.354828 0.017334
0.318512 0.354828 0.016510
0.349457 0.354828 0.017120
0.380707 0.354828 0.017548
0.412292 0.354828 0.017883
0.444244 0.354828 0.018005
0.479004 0.354828 0.016876
0.516052 0.354828 0.014709
0.552765 0.354828 0.012665
0.589142 0.354828 0.010803
0.625183 0.354828 0.009094
0.660919 0.354828 0.007507
0.696320 0.354828 0.006073
0.731384 0.354828 0.004822
0.766113 0.354828 0.003662
0.800507 0.354828 0.002716
0.834595 0.354828 0.001892
0.868317 0.354828 0.001190
0.901733 0.354828 0.000671
0.934814 0.354828 0.000305
0.967590 0.354828 0.000061
1.000000 0.354828 0.000000
0.000000 0.387085 0.022766
0.019775 0.387085 0.022766
0.039551 0.387085 0.022766
0.059326 0.387085 0.022766
0.079071 0.387085 0.022766
0.111206 0.387085 0.022766
0.144043 0.387085 0.022522
0.178253 0.387085 0.021606
0.212494 0.387085 0.020721
0.246735 0.387085 0.019806
0.280975 0.387085 0.018921
0.315216 0.387085 0.018005
0.349457 0.387085 0.017120
0.380707 0.387085 0.017548
0.412292 0.387085 0.017883
0.444244 0.387085 0.018005
0.479004 0.387085 0.016876
0.516052 0.387085 0.014709
0.552765 0.387085 0.012665
0.589142 0.387085 0.010803
0.625183 0.387085 0.009094
0.660919 0.387085 0.007507
0.696320 0.387085 0.006073
0.731384 0.387085 0.004822
0.766113 0.387085 0.003662
0.800507 0.387085 0.002716
0.834595 0.387085 0.001892
0.868317 0.387085 0.001190
0.901733 0.387085 0.000671
0.934814 0.387085 0.000305
0.967590 0.387085 0.000061
1.000000 0.387085 0.000000
0.000000 0.419342 0.024658
0.018738 0.419342 0.024658
0.037476 0.419342 0.024658
0.056183 0.419342 0.024658
0.074921 0.419342 0.024658
0.107025 0.419342 0.024658
0.139893 0.419342 0.024384
0.174286 0.419342 0.023407
0.208710 0.419342 0.022430
0.243103 0.419342 0.021454
0.277496 0.419342 0.020477
0.311920 0.419342 0.019501
0.346313 0.419342 0.018524
0.380707 0.419342 0.017548
0.412292 0.419342 0.017883
0.444244 0.419342 0.018005
0.479004 0.419342 0.016876
0.516052 0.419342 0.014709
0.552765 0.419342 0.012665
0.589142 0.419342 0.010803
0.625183 0.419342 0.009094
0.660919 0.419342 0.007507
0.696320 0.419342 0.006073
0.731384 0.419342 0.004822
0.766113 0.419342 0.003662
0.800507 0.419342 0.002716
0.834595 0.419342 0.001892
0.868317 0.419342 0.001190
0.901733 0.419342 0.000671
0.934814 0.419342 0.000305
0.967590 0.419342 0.000061
1.000000 0.419342 0.000000
0.000000 0.451599 0.026581
0.017700 0.451599 0.026581
0.035370 0.451599 0.026581
0.053070 0.451599 0.026581
0.070770 0.451599 0.026581
0.102844 0.451599 0.026581
0.135773 0.451599 0.026276
0.170319 0.451599 0.025238
0.204895 0.451599 0.024170
0.239471 0.451599 0.023132
0.274048 0.451599 0.022064
0.308594 0.451599 0.021027
0.343170 0.451599 0.019958
0.377747 0.451599 0.018921
0.412292 0.451599 0.017883
0.444244 0.451599 0.018005
0.479004 0.451599 0.016876
0.516052 0.451599 0.014709
0.552765 0.451599 0.012665
0.589142 0.451599 0.010803
0.625183 0.451599 0.009094
0.660919 0.451599 0.007507
0.696320 0.451599 0.006073
0.731384 0.451599 0.004822
0.766113 0.451599 0.003662
0.800507 0.451599 0.002716
0.834595 0.451599 0.001892
0.868317 0.451599 0.001190
0.901733 0.451599 0.000671
0.934814 0.451599 0.000305
0.967590 0.451599 0.000061
1.000000 0.451599 0.000000
0.000000 0.483856 0.028473
0.016663 0.483856 0.028473
0.033295 0.483856 0.028473
0.049957 0.483856 0.028473
0.066589 0.483856 0.028473
0.098663 0.483856 0.028473
0.131622 0.483856 0.028137
0.166351 0.483856 0.027039
0.201080 0.483856 0.025909
0.235840 0.483856 0.024780
0.270569 0.483856 0.023651
0.305298 0.483856 0.022522
0.340027 0.483856 0.021393
0.374756 0.483856 0.020264
0.409485 0.483856 0.019135
0.444244 0.483856 0.018005
0.479004 0.483856 0.016876
0.516052 0.483856 0.014709
0.552765 0.483856 0.012665
0.589142 0.483856 0.010803
0.625183 0.483856 0.009094
0.660919 0.483856 0.007507
0.696320 0.483856 0.006073
0.731384 0.483856 0.004822
0.766113 0.483856 0.003662
0.800507 0.483856 0.002716
0.834595 0.483856 0.001892
0.868317 0.483856 0.001190
0.901733 0.483856 0.000671
0.934814 0.483856 0.000305
0.967590 0.483856 0.000061
1.000000 0.483856 0.000000
0.000000 0.516144 0.028473
0.016663 0.516144 0.028473
0.033295 0.516144 0.028473
0.049957 0.516144 0.028473
0.066589 0.516144 0.028473
0.098663 0.516144 0.028473
0.131622 0.516144 0.028137
0.166351 0.516144 0.027039
0.201080 0.516144 0.025909
0.235840 0.516144 0.024780
0.270569 0.516144 0.023651
0.305298 0.516144 0.022522
0.340027 0.516144 0.021393
0.374756 0.516144 0.020264
0.409485 0.516144 0.019135
0.444244 0.516144 0.018005
0.479004 0.516144 0.016876
0.516052 0.516144 0.014709
0.552765 0.516144 0.012665
0.589142 0.516144 0.010803
0.625183 0.516144 0.009094
0.660919 0.516144 0.007507
0.696320 0.516144 0.006073
0.731384 0.516144 0.004822
0.766113 0.516144 0.003662
0.800507 0.516144 0.002716
0.834595 0.516144 0.001892
0.868317 0.516144 0.001190
0.901733 0.516144 0.000671
0.934814 0.516144 0.000305
0.967590 0.516144 0.000061
1.000000 0.516144 0.000000
0.000000 0.548401 0.026581
0.017700 0.548401 0.026581
0.035370 0.548401 0.026581
0.053070 0.548401 0.026581
0.070770 0.548401 0.026581
0.102844 0.548401 0.026581
0.135773 0.548401 0.026276
0.170319 0.548401 0.025238
0.204895 0.548401 0.024170
0.239471 0.548401 0.023132
0.274048 0.548401 0.022064
0.308594 0.548401 0.021027
0.343170 0.548401 0.019958
0.377747 0.548401 0.018921
0.412292 0.548401 0.017883
0.446869 0.548401 0.016815
0.481476 0.548401 0.015778
0.516052 0.548401 0.014709
0.552765 0.548401 0.012665
0.589142 0.548401 0.010803
0.625183 0.548401 0.009094
0.660919 0.548401 0.007507
0.696320 0.548401 0.006073
0.731384 0.548401 0.004822
0.766113 0.548401 0.003662
0.800507 0.548401 0.002716
0.834595 0.548401 0.001892
0.868317 0.548401 0.001190
0.901733 0.548401 0.000671
0.934814 0.548401 0.000305
0.967590 0.548401 0.000061
1.000000 0.548401 0.000000
0.000000 0.580658 0.024658
0.018738 0.580658 0.024658
0.037476 0.580658 0.024658
0.056183 0.580658 0.024658
0.074921 0.580658 0.024658
0.107025 0.580658 0.024658
0.139893 0.580658 0.024384
0.174286 0.580658 0.023407
0.208710 0.580658 0.022430
0.243103 0.580658 0.021454
0.277496 0.580658 0.020477
0.311920 0.580658 0.019501
0.346313 0.580658 0.018524
0.380707 0.580658 0.017548
0.415131 0.580658 0.016571
0.449524 0.580658 0.015594
0.483948 0.580658 0.014618
0.518372 0.580658 0.013641
0.552765 0.580658 0.012665
0.589142 0.580658 0.010803
0.625183 0.580658 0.009094
0.660919 0.580658 0.007507
0.696320 0.580658 0.006073
0.731384 0.580658 0.004822
0.766113 0.580658 0.003662
0.800507 0.580658 0.002716
0.834595 0.580658 0.001892
0.868317 0.580658 0.001190
0.901733 0.580658 0.000671
0.934814 0.580658 0.000305
0.967590 0.580658 0.000061
1.000000 0.580658 0.000000
0.000000 0.612915 0.022766
0.019775 0.612915 0.022766
0.039551 0.612915 0.022766
0.059326 0.612915 0.022766
0.079071 0.612915 0.022766
0.111206 0.612915 0.022766
0.144043 0.612915 0.022522
0.178253 0.612915 0.021606
0.212494 0.612915 0.020721
0.246735 0.612915 0.019806
0.280975 0.612915 0.018921
0.315216 0.612915 0.018005
0.349457 0.612915 0.017120
0.383698 0.612915 0.016205
0.417938 0.612915 0.015320
0.452179 0.612915 0.014404
0.486450 0.612915 0.013519
0.520660 0.612915 0.012604
0.554901 0.612915 0.011719
0.589142 0.612915 0.010803
0.625183 0.612915 0.009094
0.660919 0.612915 0.007507
0.696320 0.612915 0.006073
0.731384 0.612915 0.004822
0.766113 0.612915 0.003662
0.800507 0.612915 0.002716
0.834595 0.612915 0.001892
0.868317 0.612915 0.001190
0.901733 0.612915 0.000671
0.934814 0.612915 0.000305
0.967590 0.612915 0.000061
1.000000 0.612915 0.000000
0.000000 0.645172 0.020874
0.020813 0.645172 0.020874
0.041626 0.645172 0.020874
0.062439 0.645172 0.020874
0.083252 0.645172 0.020874
0.115387 0.645172 0.020874
0.148163 0.645172 0.020630
0.182251 0.645172 0.019806
0.216309 0.645172 0.018982
0.250366 0.645172 0.018158
0.284454 0.645172 0.017334
0.318512 0.645172 0.016510
0.352600 0.645172 0.015686
0.386658 0.645172 0.014862
0.420746 0.645172 0.014038
0.454803 0.645172 0.013214
0.488922 0.645172 0.012390
0.522980 0.645172 0.011566
0.557037 0.645172 0.010742
0.591125 0.645172 0.009918
0.625183 0.645172 0.009094
0.660919 0.645172 0.007507
0.696320 0.645172 0.006073
0.731384 0.645172 0.004822
0.766113 0.645172 0.003662
0.800507 0.645172 0.002716
0.834595 0.645172 0.001892
0.868317 0.645172 0.001190
0.901733 0.645172 0.000671
0.934814 0.645172 0.000305
0.967590 0.645172 0.000061
1.000000 0.645172 0.000000
0.000000 0.677429 0.018982
0.021851 0.677429 0.018982
0.043701 0.677429 0.018982
0.065552 0.677429 0.018982
0.087402 0.677429 0.018982
0.119537 0.677429 0.018982
0.152252 0.677429 0.018768
0.186188 0.677429 0.018005
0.220093 0.677429 0.017273
0.253998 0.677429 0.016510
0.287903 0.677429 0.015778
0.321808 0.677429 0.015015
0.355713 0.677429 0.014252
0.389618 0.677429 0.013519
0.423523 0.677429 0.012756
0.457428 0.677429 0.012024
0.491394 0.677429 0.011261
0.525299 0.677429 0.010498
0.559204 0.677429 0.009766
0.593109 0.677429 0.009003
0.627014 0.677429 0.008270
0.660919 0.677429 0.007507
0.696320 0.677429 0.006073
0.731384 0.677429 0.004822
0.766113 0.677429 0.003662
0.800507 0.677429 0.002716
0.834595 0.677429 0.001892
0.868317 0.677429 0.001190
0.901733 0.677429 0.000671
0.934814 0.677429 0.000305
0.967590 0.677429 0.000061
1.000000 0.677429 0.000000
0.000000 0.709686 0.017090
0.022888 0.709686 0.017090
0.045776 0.709686 0.017090
0.068665 0.709686 0.017090
0.091583 0.709686 0.017090
0.123718 0.709686 0.017090
0.156403 0.709686 0.016907
0.190155 0.709686 0.016235
0.223877 0.709686 0.015533
0.257629 0.709686 0.014862
0.291382 0.709686 0.014191
0.325104 0.709686 0.013519
0.358856 0.709686 0.012848
0.392609 0.709686 0.012177
0.426331 0.709686 0.011505
0.460083 0.709686 0.010803
0.493866 0.709686 0.010132
0.527588 0.709686 0.009460
0.561340 0.709686 0.008789
0.595093 0.709686 0.008118
0.628815 0.709686 0.007446
0.662567 0.709686 0.006744
0.696320 0.709686 0.006073
0.731384 0.709686 0.004822
0.766113 0.709686 0.003662
0.800507 0.709686 0.002716
0.834595 0.709686 0.001892
0.868317 0.709686 0.001190
0.901733 0.709686 0.000671
0.934814 0.709686 0.000305
0.967590 0.709686 0.000061
1.000000 0.709686 0.000000
0.000000 0.741943 0.015198
0.023926 0.741943 0.015198
0.047852 0.741943 0.015198
0.071808 0.741943 0.015198
0.095734 0.741943 0.015198
0.127899 0.741943 0.015198
0.160522 0.741943 0.015015
0.194122 0.741943 0.014435
0.227692 0.741943 0.013824
0.261261 0.741943 0.013214
0.294830 0.741943 0.012634
0.328430 0.741943 0.012024
0.362000 0.741943 0.011414
0.395569 0.741943 0.010834
0.429138 0.741943 0.010223
0.462738 0.741943 0.009613
0.496338 0.741943 0.009003
0.529907 0.741943 0.008423
0.563507 0.741943 0.007812
0.597076 0.741943 0.007202
0.630646 0.741943 0.006622
0.664215 0.741943 0.006012
0.697815 0.741943 0.005402
0.731384 0.741943 0.004822
0.766113 0.741943 0.003662
0.800507 0.741943 0.002716
0.834595 0.741943 0.001892
0.868317 0.741943 0.001190
0.901733 0.741943 0.000671
0.934814 0.741943 0.000305
0.967590 0.741943 0.000061
1.000000 0.741943 0.000000
0.000000 0.774200 0.013275
0.024963 0.774200 0.013275
0.049957 0.774200 0.013275
0.074921 0.774200 0.013275
0.099884 0.774200 0.013275
0.132080 0.774200 0.013275
0.164673 0.774200 0.013123
0.198090 0.774200 0.012604
0.231506 0.774200 0.012085
0.264893 0.774200 0.011536
0.298309 0.774200 0.011017
0.331726 0.774200 0.010498
0.365143 0.774200 0.009979
0.398560 0.774200 0.009460
0.431976 0.774200 0.008911
0.465363 0.774200 0.008392
0.498810 0.774200 0.007874
0.532227 0.774200 0.007355
0.565613 0.774200 0.006836
0.599030 0.774200 0.006287
0.632446 0.774200 0.005768
0.665863 0.774200 0.005249
0.699280 0.774200 0.004730
0.732697 0.774200 0.004211
0.766113 0.774200 0.003662
0.800507 0.774200 0.002716
0.834595 0.774200 0.001892
0.868317 0.774200 0.001190
0.901733 0.774200 0.000671
0.934814 0.774200 0.000305
0.967590 0.774200 0.000061
1.000000 0.774200 0.000000
0.000000 0.806458 0.011383
0.026001 0.806458 0.011383
0.052032 0.806458 0.011383
0.078033 0.806458 0.011383
0.104065 0.806458 0.011383
0.136230 0.806458 0.011383
0.168762 0.806458 0.011261
0.202026 0.806458 0.010803
0.235260 0.806458 0.010345
0.268524 0.806458 0.009918
0.301758 0.806458 0.009460
0.335022 0.806458 0.009003
0.368256 0.806458 0.008545
0.401520 0.806458 0.008118
0.434753 0.806458 0.007660
0.467987 0.806458 0.007202
0.501282 0.806458 0.006744
0.534515 0.806458 0.006317
0.567780 0.806458 0.005859
0.601013 0.806458 0.005402
0.634277 0.806458 0.004944
0.667511 0.806458 0.004517
0.700775 0.806458 0.004059
0.734009 0.806458 0.003601
0.767273 0.806458 0.003143
0.800507 0.806458 0.002716
0.834595 0.806458 0.001892
0.868317 0.806458 0.001190
0.901733 0.806458 0.000671
0.934814 0.806458 0.000305
0.967590 0.806458 0.000061
1.000000 0.806458 0.000000
0.000000 0.838715 0.009491
0.027069 0.838715 0.009491
0.054108 0.838715 0.009491
0.081177 0.838715 0.009491
0.108215 0.838715 0.009491
0.140411 0.838715 0.009491
0.172913 0.838715 0.009369
0.205994 0.838715 0.009003
0.239075 0.838715 0.008636
0.272156 0.838715 0.008270
0.305237 0.838715 0.007874
0.338318 0.838715 0.007507
0.371399 0.838715 0.007141
0.404480 0.838715 0.006744
0.437561 0.838715 0.006378
0.470642 0.838715 0.006012
0.503754 0.838715 0.005615
0.536835 0.838715 0.005249
0.569916 0.838715 0.004883
0.602997 0.838715 0.004517
0.636078 0.838715 0.004120
0.669159 0.838715 0.003754
0.702271 0.838715 0.003387
0.735352 0.838715 0.002991
0.768433 0.838715 0.002625
0.801514 0.838715 0.002258
0.834595 0.838715 0.001892
0.868317 0.838715 0.001190
0.901733 0.838715 0.000671
0.934814 0.838715 0.000305
0.967590 0.838715 0.000061
1.000000 0.838715 0.000000
0.000000 0.870972 0.007599
0.028107 0.870972 0.007599
0.056183 0.870972 0.007599
0.084290 0.870972 0.007599
0.112366 0.870972 0.007599
0.144592 0.870972 0.007599
0.177032 0.870972 0.007507
0.209961 0.870972 0.007202
0.242859 0.870972 0.006897
0.275787 0.870972 0.006622
0.308716 0.870972 0.006317
0.341614 0.870972 0.006012
0.374542 0.870972 0.005707
0.407471 0.870972 0.005402
0.440369 0.870972 0.005096
0.473297 0.870972 0.004822
