assets/luts/PHLEARN/PHLEARN-Warm Tones-Rich Cork.CUBE
#Created by: Adobe Photoshop Export Color Lookup Plugin
#Copyright: (C) Copyright 2019 PHLEARN
TITLE "PHLEARN Warming 02"
#LUT size
LUT_3D_SIZE 8
#data domain
#LUT data points
DOMAIN_MIN 0.000000 0.000000 0.000000
DOMAIN_MAX 0.903226 0.903226 0.903226
0.000000 0.000000 0.000000
0.146393 0.000000 0.000000
0.290619 0.000000 0.000000
0.430573 0.000000 0.000000
0.564117 0.000000 0.000000
0.689117 0.000000 0.000000
0.806061 0.000000 0.000000
0.917816 0.000000 0.000000
0.000000 0.129028 0.000000
0.146393 0.129028 0.000000
0.290619 0.129028 0.000000
0.430573 0.129028 0.000000
0.564117 0.129028 0.000000
0.689117 0.129028 0.000000
0.806061 0.129028 0.000000
0.917816 0.129028 0.000000
0.000000 0.258057 0.000000
0.146393 0.258057 0.000000
0.290619 0.258057 0.000000
0.430573 0.258057 0.000000
0.564117 0.258057 0.000000
0.689117 0.258057 0.000000
0.806061 0.258057 0.000000
0.917816 0.258057 0.000000
0.000000 0.387085 0.000000
0.146393 0.387085 0.000000
0.290619 0.387085 0.000000
0.430573 0.387085 0.000000
0.564117 0.387085 0.000000
0.689117 0.387085 0.000000
0.806061 0.387085 0.000000
0.917816 0.387085 0.000000
0.000000 0.516144 0.000000
0.146393 0.516144 0.000000
0.290619 0.516144 0.000000
0.430573 0.516144 0.000000
0.564117 0.516144 0.000000
0.689117 0.516144 0.000000
0.806061 0.516144 0.000000
0.917816 0.516144 0.000000
0.000000 0.645172 0.000000
0.146393 0.645172 0.000000
0.290619 0.645172 0.000000
0.430573 0.645172 0.000000
0.564117 0.645172 0.000000
0.689117 0.645172 0.000000
0.806061 0.645172 0.000000
0.917816 0.645172 0.000000
0.000000 0.774200 0.000000
0.146393 0.774200 0.000000
0.290619 0.774200 0.000000
0.430573 0.774200 0.000000
0.564117 0.774200 0.000000
0.689117 0.774200 0.000000
0.806061 0.774200 0.000000
0.917816 0.774200 0.000000
0.000000 0.903229 0.000000
0.146393 0.903229 0.000000
0.290619 0.903229 0.000000
0.430573 0.903229 0.000000
0.564117 0.903229 0.000000
0.689117 0.903229 0.000000
0.806061 0.903229 0.000000
0.917816 0.903229 0.000000
0.000000 0.000000 0.118805
0.146393 0.000000 0.118805
0.290619 0.000000 0.118805
0.430573 0.000000 0.118805
0.564117 0.000000 0.118805
0.689117 0.000000 0.118805
0.806061 0.000000 0.118805
0.917816 0.000000 0.118805
0.000000 0.129028 0.118805
0.146393 0.129028 0.118805
0.290619 0.129028 0.118805
0.430573 0.129028 0.118805
0.564117 0.129028 0.118805
0.689117 0.129028 0.118805
0.806061 0.129028 0.118805
0.917816 0.129028 0.118805
0.000000 0.258057 0.118805
0.146393 0.258057 0.118805
0.290619 0.258057 0.118805
0.430573 0.258057 0.118805
0.564117 0.258057 0.118805
0.689117 0.258057 0.118805
0.806061 0.258057 0.118805
0.917816 0.258057 0.118805
0.000000 0.387085 0.118805
0.146393 0.387085 0.118805
0.290619 0.387085 0.118805
0.430573 0.387085 0.118805
0.564117 0.387085 0.118805
0.689117 0.387085 0.118805
0.806061 0.387085 0.118805
0.917816 0.387085 0.118805
0.000000 0.516144 0.118805
0.146393 0.516144 0.118805
0.290619 0.516144 0.118805
0.430573 0.516144 0.118805
0.564117 0.516144 0.118805
0.689117 0.516144 0.118805
0.806061 0.516144 0.118805
0.917816 0.516144 0.118805
0.000000 0.645172 0.118805
0.146393 0.645172 0.118805
0.290619 0.645172 0.118805
0.430573 0.645172 0.118805
0.564117 0.645172 0.118805
0.689117 0.645172 0.118805
0.806061 0.645172 0.118805
0.917816 0.645172 0.118805
0.000000 0.774200 0.118805
0.146393 0.774200 0.118805
0.290619 0.774200 0.118805
0.430573 0.774200 0.118805
0.564117 0.774200 0.118805
0.689117 0.774200 0.118805
0.806061 0.774200 0.118805
0.917816 0.774200 0.118805
0.000000 0.903229 0.118805
0.146393 0.903229 0.118805
0.290619 0.903229 0.118805
0.430573 0.903229 0.118805
0.564117 0.903229 0.118805
0.689117 0.903229 0.118805
0.806061 0.903229 0.118805
0.917816 0.903229 0.118805
0.000000 0.000000 0.238800
0.146393 0.000000 0.238800
0.290619 0.000000 0.238800
0.430573 0.000000 0.238800
0.564117 0.000000 0.238800
0.689117 0.000000 0.238800
0.806061 0.000000 0.238800
0.917816 0.000000 0.238800
0.000000 0.129028 0.238800
0.146393 0.129028 0.238800
0.290619 0.129028 0.238800
0.430573 0.129028 0.238800
0.564117 0.129028 0.238800
0.689117 0.129028 0.238800
0.806061 0.129028 0.238800
0.917816 0.129028 0.238800
0.000000 0.258057 0.238800
0.146393 0.258057 0.238800
0.290619 0.258057 0.238800
0.430573 0.258057 0.238800
0.564117 0.258057 0.238800
0.689117 0.258057 0.238800
0.806061 0.258057 0.238800
0.917816 0.258057 0.238800
0.000000 0.387085 0.238800
0.146393 0.387085 0.238800
0.290619 0.387085 0.238800
0.430573 0.387085 0.238800
0.564117 0.387085 0.238800
0.689117 0.387085 0.238800
0.806061 0.387085 0.238800
0.917816 0.387085 0.238800
0.000000 0.516144 0.238800
0.146393 0.516144 0.238800
0.290619 0.516144 0.238800
0.430573 0.516144 0.238800
0.564117 0.516144 0.238800
0.689117 0.516144 0.238800
0.806061 0.516144 0.238800
0.917816 0.516144 0.238800
0.000000 0.645172 0.238800
0.146393 0.645172 0.238800
0.290619 0.645172 0.238800
0.430573 0.645172 0.238800
0.564117 0.645172 0.238800
0.689117 0.645172 0.238800
0.806061 0.645172 0.238800
0.917816 0.645172 0.238800
0.000000 0.774200 0.238800
0.146393 0.774200 0.238800
0.290619 0.774200 0.238800
0.430573 0.774200 0.238800
0.564117 0.774200 0.238800
0.689117 0.774200 0.238800
0.806061 0.774200 0.238800
0.917816 0.774200 0.238800
0.000000 0.903229 0.238800
0.146393 0.903229 0.238800
0.290619 0.903229 0.238800
0.430573 0.903229 0.238800
0.564117 0.903229 0.238800
0.689117 0.903229 0.238800
0.806061 0.903229 0.238800
0.917816 0.903229 0.238800
0.000000 0.000000 0.361176
0.146393 0.000000 0.361176
0.290619 0.000000 0.361176
0.430573 0.000000 0.361176
0.564117 0.000000 0.361176
0.689117 0.000000 0.361176
0.806061 0.000000 0.361176
0.917816 0.000000 0.361176
0.000000 0.129028 0.361176
0.146393 0.129028 0.361176
0.290619 0.129028 0.361176
0.430573 0.129028 0.361176
0.564117 0.129028 0.361176
0.689117 0.129028 0.361176
0.806061 0.129028 0.361176
0.917816 0.129028 0.361176
0.000000 0.258057 0.361176
0.146393 0.258057 0.361176
0.290619 0.258057 0.361176
0.430573 0.258057 0.361176
0.564117 0.258057 0.361176
0.689117 0.258057 0.361176
0.806061 0.258057 0.361176
0.917816 0.258057 0.361176
0.000000 0.387085 0.361176
0.146393 0.387085 0.361176
0.290619 0.387085 0.361176
0.430573 0.387085 0.361176
0.564117 0.387085 0.361176
0.689117 0.387085 0.361176
0.806061 0.387085 0.361176
0.917816 0.387085 0.361176
0.000000 0.516144 0.361176
0.146393 0.516144 0.361176
0.290619 0.516144 0.361176
0.430573 0.516144 0.361176
0.564117 0.516144 0.361176
0.689117 0.516144 0.361176
0.806061 0.516144 0.361176
0.917816 0.516144 0.361176
0.000000 0.645172 0.361176
0.146393 0.645172 0.361176
0.290619 0.645172 0.361176
0.430573 0.645172 0.361176
0.564117 0.645172 0.361176
0.689117 0.645172 0.361176
0.806061 0.645172 0.361176
0.917816 0.645172 0.361176
0.000000 0.774200 0.361176
0.146393 0.774200 0.361176
0.290619 0.774200 0.361176
0.430573 0.774200 0.361176
0.564117 0.774200 0.361176
0.689117 0.774200 0.361176
0.806061 0.774200 0.361176
0.917816 0.774200 0.361176
0.000000 0.903229 0.361176
0.146393 0.903229 0.361176
0.290619 0.903229 0.361176
0.430573 0.903229 0.361176
0.564117 0.903229 0.361176
0.689117 0.903229 0.361176
0.806061 0.903229 0.361176
0.917816 0.903229 0.361176
0.000000 0.000000 0.487183
0.146393 0.000000 0.487183
0.290619 0.000000 0.487183
0.430573 0.000000 0.487183
0.564117 0.000000 0.487183
0.689117 0.000000 0.487183
0.806061 0.000000 0.487183
0.917816 0.000000 0.487183
0.000000 0.129028 0.487183
0.146393 0.129028 0.487183
0.290619 0.129028 0.487183
0.430573 0.129028 0.487183
0.564117 0.129028 0.487183
0.689117 0.129028 0.487183
0.806061 0.129028 0.487183
0.917816 0.129028 0.487183
0.000000 0.258057 0.487183
0.146393 0.258057 0.487183
0.290619 0.258057 0.487183
0.430573 0.258057 0.487183
0.564117 0.258057 0.487183
0.689117 0.258057 0.487183
0.806061 0.258057 0.487183
0.917816 0.258057 0.487183
0.000000 0.387085 0.487183
0.146393 0.387085 0.487183
0.290619 0.387085 0.487183
0.430573 0.387085 0.487183
0.564117 0.387085 0.487183
0.689117 0.387085 0.487183
0.806061 0.387085 0.487183
0.917816 0.387085 0.487183
0.000000 0.516144 0.487183
0.146393 0.516144 0.487183
0.290619 0.516144 0.487183
0.430573 0.516144 0.487183
0.564117 0.516144 0.487183
0.689117 0.516144 0.487183
0.806061 0.516144 0.487183
0.917816 0.516144 0.487183
0.000000 0.645172 0.487183
0.146393 0.645172 0.487183
0.290619 0.645172 0.487183
0.430573 0.645172 0.487183
0.564117 0.645172 0.487183
0.689117 0.645172 0.487183
0.806061 0.645172 0.487183
0.917816 0.645172 0.487183
0.000000 0.774200 0.487183
0.146393 0.774200 0.487183
0.290619 0.774200 0.487183
0.430573 0.774200 0.487183
0.564117 0.774200 0.487183
0.689117 0.774200 0.487183
0.806061 0.774200 0.487183
0.917816 0.774200 0.487183
0.000000 0.903229 0.487183
0.146393 0.903229 0.487183
0.290619 0.903229 0.487183
0.430573 0.903229 0.487183
0.564117 0.903229 0.487183
0.689117 0.903229 0.487183
0.806061 0.903229 0.487183
0.917816 0.903229 0.487183
0.000000 0.000000 0.617981
0.146393 0.000000 0.617981
0.290619 0.000000 0.617981
0.430573 0.000000 0.617981
0.564117 0.000000 0.617981
0.689117 0.000000 0.617981
0.806061 0.000000 0.617981
0.917816 0.000000 0.617981
0.000000 0.129028 0.617981
0.146393 0.129028 0.617981
0.290619 0.129028 0.617981
0.430573 0.129028 0.617981
0.564117 0.129028 0.617981
0.689117 0.129028 0.617981
0.806061 0.129028 0.617981
0.917816 0.129028 0.617981
0.000000 0.258057 0.617981
0.146393 0.258057 0.617981
0.290619 0.258057 0.617981
0.430573 0.258057 0.617981
0.564117 0.258057 0.617981
0.689117 0.258057 0.617981
0.806061 0.258057 0.617981
0.917816 0.258057 0.617981
0.000000 0.387085 0.617981
0.146393 0.387085 0.617981
0.290619 0.387085 0.617981
0.430573 0.387085 0.617981
0.564117 0.387085 0.617981
0.689117 0.387085 0.617981
0.806061 0.387085 0.617981
0.917816 0.387085 0.617981
0.000000 0.516144 0.617981
0.146393 0.516144 0.617981
0.290619 0.516144 0.617981
0.430573 0.516144 0.617981
0.564117 0.516144 0.617981
0.689117 0.516144 0.617981
0.806061 0.516144 0.617981
0.917816 0.516144 0.617981
0.000000 0.645172 0.617981
0.146393 0.645172 0.617981
0.290619 0.645172 0.617981
0.430573 0.645172 0.617981
0.564117 0.645172 0.617981
0.689117 0.645172 0.617981
0.806061 0.645172 0.617981
0.917816 0.645172 0.617981
0.000000 0.774200 0.617981
0.146393 0.774200 0.617981
0.290619 0.774200 0.617981
0.430573 0.774200 0.617981
0.564117 0.774200 0.617981
0.689117 0.774200 0.617981
0.806061 0.774200 0.617981
0.917816 0.774200 0.617981
0.000000 0.903229 0.617981
0.146393 0.903229 0.617981
0.290619 0.903229 0.617981
0.430573 0.903229 0.617981
0.564117 0.903229 0.617981
0.689117 0.903229 0.617981
0.806061 0.903229 0.617981
0.917816 0.903229 0.617981
0.000000 0.000000 0.754089
0.146393 0.000000 0.754089
0.290619 0.000000 0.754089
0.430573 0.000000 0.754089
0.564117 0.000000 0.754089
0.689117 0.000000 0.754089
0.806061 0.000000 0.754089
0.917816 0.000000 0.754089
0.000000 0.129028 0.754089
0.146393 0.129028 0.754089
0.290619 0.129028 0.754089
0.430573 0.129028 0.754089
0.564117 0.129028 0.754089
0.689117 0.129028 0.754089
0.806061 0.129028 0.754089
0.917816 0.129028 0.754089
0.000000 0.258057 0.754089
0.146393 0.258057 0.754089
0.290619 0.258057 0.754089
0.430573 0.258057 0.754089
0.564117 0.258057 0.754089
0.689117 0.258057 0.754089
0.806061 0.258057 0.754089
0.917816 0.258057 0.754089
0.000000 0.387085 0.754089
0.146393 0.387085 0.754089
0.290619 0.387085 0.754089
0.430573 0.387085 0.754089
0.564117 0.387085 0.754089
0.689117 0.387085 0.754089
0.806061 0.387085 0.754089
0.917816 0.387085 0.754089
0.000000 0.516144 0.754089
0.146393 0.516144 0.754089
0.290619 0.516144 0.754089
0.430573 0.516144 0.754089
0.564117 0.516144 0.754089
0.689117 0.516144 0.754089
0.806061 0.516144 0.754089
0.917816 0.516144 0.754089
0.000000 0.645172 0.754089
0.146393 0.645172 0.754089
0.290619 0.645172 0.754089
0.430573 0.645172 0.754089
0.564117 0.645172 0.754089
0.689117 0.645172 0.754089
0.806061 0.645172 0.754089
0.917816 0.645172 0.754089
0.000000 0.774200 0.754089
0.146393 0.774200 0.754089
0.290619 0.774200 0.754089
0.430573 0.774200 0.754089
0.564117 0.774200 0.754089
0.689117 0.774200 0.754089
0.806061 0.774200 0.754089
0.917816 0.774200 0.754089
0.000000 0.903229 0.754089
0.146393 0.903229 0.754089
0.290619 0.903229 0.754089
0.430573 0.903229 0.754089
0.564117 0.903229 0.754089
0.689117 0.903229 0.754089
0.806061 0.903229 0.754089
0.917816 0.903229 0.754089
0.000000 0.000000 0.893951
0.146393 0.000000 0.893951
0.290619 0.000000 0.893951
0.430573 0.000000 0.893951
0.564117 0.000000 0.893951
0.689117 0.000000 0.893951
0.806061 0.000000 0.893951
0.917816 0.000000 0.893951
0.000000 0.129028 0.893951
0.146393 0.129028 0.893951
0.290619 0.129028 0.893951
0.430573 0.129028 0.893951
0.564117 0.129028 0.893951
0.689117 0.129028 0.893951
0.806061 0.129028 0.893951
0.917816 0.129028 0.893951
0.000000 0.258057 0.893951
0.146393 0.258057 0.893951
0.290619 0.258057 0.893951
0.430573 0.258057 0.893951
0.564117 0.258057 0.893951
0.689117 0.258057 0.893951
0.806061 0.258057 0.893951
0.917816 0.258057 0.893951
0.000000 0.387085 0.893951
0.146393 0.387085 0.893951
0.290619 0.387085 0.893951
0.430573 0.387085 0.893951
0.564117 0.387085 0.893951
0.689117 0.387085 0.893951
0.806061 0.387085 0.893951
0.917816 0.387085 0.893951
0.000000 0.516144 0.893951
0.146393 0.516144 0.893951
0.290619 0.516144 0.893951
0.430573 0.516144 0.893951
0.564117 0.516144 0.893951
0.689117 0.516144 0.893951
0.806061 0.516144 0.893951
0.917816 0.516144 0.893951
0.000000 0.645172 0.893951
0.146393 0.645172 0.893951
0.290619 0.645172 0.893951
0.430573 0.645172 0.893951
0.564117 0.645172 0.893951
0.689117 0.645172 0.893951
0.806061 0.645172 0.893951
0.917816 0.645172 0.893951
0.000000 0.774200 0.893951
0.146393 0.774200 0.893951
0.290619 0.774200 0.893951
0.430573 0.774200 0.893951
0.564117 0.774200 0.893951
0.689117 0.774200 0.893951
0.806061 0.774200 0.893951
0.917816 0.774200 0.893951
0.000000 0.903229 0.893951
0.146393 0.903229 0.893951
0.290619 0.903229 0.893951
0.430573 0.903229 0.893951
0.564117 0.903229 0.893951
0.689117 0.903229 0.893951
0.806061 0.903229 0.893951
0.917816 0.903229 0.893951
