assets/luts/PHLEARN/PHLEARN-Moody Vibes-Tate Olive.jpeg.CUBE
#Created by: Adobe Photoshop Export Color Lookup Plugin
TITLE "PHLEARN-Moody Vibes-Tate Olive.jpeg"
#LUT size
LUT_3D_SIZE 8
#data domain
#LUT data points
DOMAIN_MIN 0.000000 0.000000 0.000000
DOMAIN_MAX 0.903226 0.903226 0.903226
0.000000 0.000000 0.000000
0.115997 0.000000 0.000000
0.230042 0.000000 0.000000
0.347992 0.000000 0.000000
0.472687 0.000000 0.000000
0.601471 0.000000 0.000000
0.728180 0.000000 0.000000
0.858307 0.000000 0.000000
0.000000 0.102783 0.000000
0.087524 0.076721 0.000000
0.180695 0.080109 0.000000
0.300507 0.088623 0.000000
0.426941 0.092896 0.000000
0.560242 0.095642 0.000000
0.691345 0.097260 0.000000
0.823578 0.098511 0.000000
0.000000 0.210999 0.000000
0.112427 0.204102 0.000000
0.173401 0.156738 0.000000
0.260620 0.156738 0.000000
0.368774 0.164368 0.000000
0.501648 0.175293 0.000000
0.635559 0.182617 0.000000
0.767212 0.187683 0.000000
0.000000 0.326324 0.000000
0.115997 0.326324 0.000000
0.204041 0.286957 0.000000
0.260620 0.241180 0.000000
0.351959 0.241150 0.000000
0.448334 0.241180 0.000000
0.577545 0.254456 0.000000
0.710175 0.266663 0.000000
0.000000 0.450623 0.000000
0.116028 0.450623 0.000000
0.224030 0.437683 0.000000
0.293884 0.376526 0.000000
0.351959 0.331421 0.000000
0.448334 0.331360 0.000000
0.548767 0.331421 0.000000
0.651123 0.333649 0.000000
0.000000 0.582214 0.000000
0.115997 0.582214 0.000000
0.229980 0.582214 0.000000
0.322052 0.537689 0.000000
0.387024 0.473969 0.000000
0.448334 0.428558 0.000000
0.548767 0.428528 0.000000
0.647003 0.428589 0.000000
0.000000 0.713837 0.000000
0.115997 0.713837 0.000000
0.230072 0.713837 0.000000
0.340973 0.699615 0.000000
0.421906 0.638672 0.000000
0.484680 0.575226 0.000000
0.548767 0.531708 0.000000
0.647003 0.531647 0.000000
0.000000 0.850525 0.000000
0.116089 0.850525 0.000000
0.230011 0.850525 0.000000
0.347931 0.850525 0.000000
0.446777 0.803528 0.000000
0.525024 0.739807 0.000000
0.584015 0.675079 0.000000
0.647003 0.633972 0.000000
0.000000 0.000000 0.089142
0.115997 0.000000 0.089142
0.230042 0.000000 0.089172
0.347992 0.000000 0.089172
0.472687 0.000000 0.089111
0.601471 0.000000 0.089172
0.728180 0.000000 0.089081
0.858307 0.000000 0.089142
0.000000 0.102783 0.089142
0.115997 0.102783 0.089142
0.230042 0.102783 0.089142
0.347992 0.102783 0.089142
0.472687 0.102783 0.089142
0.601471 0.102783 0.089111
0.728180 0.102783 0.089172
0.858307 0.102783 0.089233
0.000000 0.210999 0.089172
0.115997 0.210999 0.089142
0.201538 0.184235 0.089142
0.298218 0.188324 0.089142
0.424622 0.196960 0.089142
0.557922 0.201355 0.089142
0.689117 0.203949 0.089142
0.821198 0.205750 0.089142
0.000000 0.326324 0.089142
0.115997 0.326324 0.089142
0.226349 0.318939 0.089142
0.289215 0.269531 0.089142
0.381134 0.269501 0.089142
0.497864 0.278320 0.089142
0.631958 0.289581 0.089142
0.763672 0.297028 0.089142
0.000000 0.450623 0.089172
0.115997 0.450623 0.089142
0.230072 0.450623 0.089142
0.321167 0.409363 0.089142
0.381134 0.360626 0.089142
0.478210 0.360596 0.089142
0.577850 0.360596 0.089142
0.704498 0.375000 0.089142
0.000000 0.582214 0.089142
0.115997 0.582214 0.089142
0.230072 0.582214 0.089142
0.342316 0.570465 0.089142
0.416718 0.507599 0.089142
0.478210 0.458618 0.089142
0.577850 0.458710 0.089142
0.675201 0.458679 0.089142
0.000000 0.713837 0.089142
0.115997 0.713837 0.089142
0.229980 0.713837 0.089142
0.347931 0.713837 0.089142
0.446381 0.670624 0.089142
0.515961 0.607513 0.089142
0.577850 0.561279 0.089142
0.675201 0.561279 0.089142
0.000000 0.850525 0.089233
0.115997 0.850525 0.089142
0.230011 0.850525 0.089142
0.348053 0.850525 0.089142
0.466003 0.836517 0.089142
0.551514 0.771942 0.089142
0.614319 0.707031 0.089142
0.675201 0.662781 0.089142
0.000000 0.000000 0.187042
0.116028 0.000000 0.187042
0.230042 0.000000 0.187042
0.347992 0.000000 0.187012
0.472687 0.000000 0.187042
0.601471 0.000000 0.187073
0.728180 0.000000 0.187073
0.858307 0.000000 0.187012
0.000000 0.102814 0.187042
0.115997 0.102783 0.187042
0.230042 0.102783 0.187042
0.347992 0.102783 0.187042
0.472687 0.102783 0.187012
0.601471 0.102783 0.186981
0.728180 0.102783 0.187012
0.858307 0.102783 0.187103
0.000000 0.210968 0.187042
0.115997 0.210999 0.187042
0.230042 0.210999 0.187042
0.347992 0.210999 0.187042
0.472687 0.210999 0.187073
0.601471 0.210999 0.187012
0.728180 0.210999 0.187042
0.858307 0.210999 0.186981
0.000000 0.326324 0.187073
0.115997 0.326324 0.187042
0.230042 0.326324 0.187042
0.318237 0.298340 0.187042
0.421356 0.303131 0.187042
0.554749 0.312042 0.187042
0.686005 0.316498 0.187042
0.818115 0.319122 0.187042
0.000000 0.450623 0.187103
0.115997 0.450623 0.187073
0.230042 0.450623 0.187042
0.344208 0.442902 0.187042
0.410797 0.390320 0.187042
0.508545 0.390320 0.187042
0.626678 0.399963 0.187042
0.758392 0.411865 0.187042
0.000000 0.582214 0.186981
0.115997 0.582214 0.187073
0.230042 0.582214 0.187042
0.347961 0.582214 0.187042
0.444855 0.541107 0.187042
0.508545 0.489319 0.187042
0.606903 0.489319 0.187042
0.703583 0.489288 0.187042
0.000000 0.713837 0.187073
0.115997 0.713837 0.186981
0.230042 0.713837 0.187042
0.347992 0.713837 0.187042
0.467072 0.702942 0.187042
0.546021 0.639954 0.187042
0.606903 0.591003 0.187042
0.703583 0.590973 0.187042
0.000000 0.850525 0.187012
0.115997 0.850525 0.187012
0.230042 0.850525 0.187042
0.347931 0.850525 0.187042
0.472748 0.850525 0.187042
0.575653 0.804840 0.187042
0.644043 0.739349 0.187042
0.703583 0.691895 0.187042
0.000000 0.000000 0.295441
0.116028 0.000000 0.295441
0.230011 0.000000 0.295441
0.347992 0.000000 0.295441
0.472687 0.000000 0.295471
0.601471 0.000000 0.295441
0.728180 0.000000 0.295502
0.858307 0.000000 0.295502
0.000000 0.102753 0.295441
0.115997 0.102783 0.295441
0.230042 0.102783 0.295441
0.347992 0.102783 0.295441
0.472687 0.102783 0.295410
0.601471 0.102783 0.295441
0.728180 0.102783 0.295410
0.858307 0.102783 0.295532
0.000000 0.211029 0.295441
0.115997 0.210968 0.295441
0.230042 0.210999 0.295441
0.347992 0.210999 0.295441
0.472687 0.210999 0.295410
0.601471 0.210999 0.295441
0.728180 0.210999 0.295410
0.858307 0.210999 0.295441
0.000000 0.326324 0.295441
0.115997 0.326324 0.295441
0.230042 0.326324 0.295441
0.347992 0.326324 0.295441
0.472687 0.326324 0.295441
0.601471 0.326324 0.295441
0.728180 0.326324 0.295441
0.858307 0.326324 0.295471
0.000000 0.450623 0.295441
0.115997 0.450623 0.295441
0.230042 0.450623 0.295441
0.347992 0.450623 0.295441
0.441223 0.420868 0.295441
0.550415 0.426147 0.295441
0.681854 0.435577 0.295441
0.813843 0.440216 0.295441
0.000000 0.582214 0.295441
0.115997 0.582214 0.295502
0.230042 0.582214 0.295410
0.347992 0.582214 0.295441
0.468842 0.574799 0.295441
0.539124 0.520416 0.295441
0.636139 0.520386 0.295441
0.751617 0.530029 0.295441
0.000000 0.713837 0.295410
0.115997 0.713837 0.295410
0.230042 0.713837 0.295441
0.347992 0.713837 0.295441
0.472717 0.713837 0.295441
0.574158 0.672852 0.295441
0.636139 0.620850 0.295441
0.732452 0.620819 0.295441
0.000000 0.850525 0.295410
0.115997 0.850525 0.295502
0.230042 0.850525 0.295410
0.347992 0.850525 0.295441
0.472656 0.850525 0.295441
0.596008 0.838806 0.295441
0.673157 0.772552 0.295441
0.732452 0.721436 0.295441
0.000000 0.000000 0.416626
0.115936 0.000000 0.416626
0.230042 0.000000 0.416626
0.348022 0.000000 0.416626
0.472687 0.000000 0.416626
0.601471 0.000000 0.416656
0.728180 0.000000 0.416626
0.858307 0.000000 0.416626
0.000000 0.102722 0.416626
0.115967 0.102783 0.416626
0.230011 0.102783 0.416626
0.347961 0.102783 0.416626
0.472687 0.102783 0.416626
0.601471 0.102783 0.416565
0.728180 0.102783 0.416656
0.858307 0.102783 0.416656
0.000000 0.211060 0.416626
0.115997 0.210968 0.416626
0.230072 0.210999 0.416626
0.347961 0.210999 0.416626
0.472687 0.210999 0.416626
0.601471 0.210999 0.416595
0.728180 0.210999 0.416595
0.858307 0.210999 0.416656
0.000000 0.326324 0.416626
0.115997 0.326294 0.416626
0.230042 0.326324 0.416626
0.347992 0.326324 0.416626
0.472687 0.326324 0.416626
0.601471 0.326324 0.416626
0.728180 0.326324 0.416656
0.858307 0.326324 0.416656
0.000000 0.450653 0.416626
0.115997 0.450653 0.416626
0.230042 0.450623 0.416626
0.347992 0.450623 0.416626
0.472687 0.450623 0.416626
0.601471 0.450623 0.416626
0.728180 0.450623 0.416626
0.858307 0.450623 0.416626
0.000000 0.582214 0.416565
0.115997 0.582214 0.416656
0.230042 0.582214 0.416626
0.347992 0.582214 0.416595
0.472687 0.582214 0.416626
0.570038 0.551910 0.416626
0.676544 0.557007 0.416626
0.808502 0.566681 0.416626
0.000000 0.713837 0.416565
0.115997 0.713837 0.416656
0.230042 0.713837 0.416565
0.347992 0.713837 0.416656
0.472687 0.713837 0.416626
0.597870 0.706573 0.416626
0.666016 0.651367 0.416626
0.762207 0.651367 0.416626
0.000000 0.850525 0.416595
0.115997 0.850525 0.416595
0.230042 0.850525 0.416656
0.347992 0.850525 0.416595
0.472687 0.850525 0.416626
0.601440 0.850525 0.416626
0.700958 0.806915 0.416626
0.762207 0.752045 0.416626
0.000000 0.000000 0.548584
0.116028 0.000000 0.548584
0.230072 0.000000 0.548584
0.347992 0.000000 0.548584
0.472748 0.000000 0.548584
0.601471 0.000000 0.548584
0.728180 0.000000 0.548584
0.858307 0.000000 0.548645
0.000000 0.102844 0.548584
0.115936 0.102783 0.548584
0.229980 0.102783 0.548584
0.347992 0.102783 0.548584
0.472626 0.102783 0.548584
0.601471 0.102783 0.548584
0.728180 0.102783 0.548645
0.858307 0.102783 0.548615
0.000000 0.211060 0.548584
0.115997 0.210999 0.548584
0.230011 0.210999 0.548584
0.347992 0.210999 0.548584
0.472656 0.210999 0.548584
0.601471 0.210999 0.548584
0.728180 0.210999 0.548523
0.858307 0.210999 0.548615
0.000000 0.326385 0.548584
0.115997 0.326294 0.548584
0.230042 0.326324 0.548584
0.347992 0.326324 0.548584
0.472687 0.326324 0.548584
0.601471 0.326324 0.548584
0.728180 0.326324 0.548523
0.858307 0.326324 0.548615
0.000000 0.450592 0.548584
0.115997 0.450653 0.548584
0.230042 0.450592 0.548584
0.347992 0.450592 0.548584
0.472687 0.450623 0.548584
0.601471 0.450623 0.548584
0.728180 0.450623 0.548553
0.858307 0.450623 0.548615
0.000000 0.582275 0.548584
0.115997 0.582184 0.548584
0.230042 0.582245 0.548584
0.347992 0.582214 0.548584
0.472687 0.582214 0.548584
0.601471 0.582214 0.548584
0.728180 0.582214 0.548584
0.858307 0.582214 0.548584
0.000000 0.713837 0.548523
0.115997 0.713837 0.548645
0.230042 0.713837 0.548615
0.347992 0.713837 0.548584
0.472687 0.713837 0.548615
0.601471 0.713837 0.548584
0.696747 0.682831 0.548584
0.802673 0.687408 0.548584
0.000000 0.850525 0.548492
0.115997 0.850525 0.548553
0.230042 0.850525 0.548553
0.347992 0.850525 0.548553
0.472687 0.850525 0.548553
0.601471 0.850525 0.548584
0.724701 0.843109 0.548584
0.793152 0.783905 0.548584
0.000000 0.000000 0.685089
0.115906 0.000000 0.685089
0.230072 0.000000 0.685089
0.348053 0.000000 0.685089
0.472687 0.000000 0.685089
0.601471 0.000000 0.685089
0.728180 0.000000 0.685089
0.858307 0.000000 0.685059
0.000000 0.102692 0.685089
0.116028 0.102783 0.685089
0.230011 0.102783 0.685089
0.347931 0.102783 0.685089
0.472748 0.102783 0.685089
0.601532 0.102783 0.685089
0.728180 0.102783 0.685089
0.858307 0.102783 0.685181
0.000000 0.211060 0.685089
0.115997 0.210938 0.685089
0.230042 0.210999 0.685089
0.347961 0.210999 0.685089
0.472656 0.210999 0.685089
0.601410 0.210999 0.685089
0.728180 0.210999 0.685089
0.858307 0.210999 0.684998
0.000000 0.326416 0.685089
0.115997 0.326294 0.685089
0.230042 0.326324 0.685089
0.347992 0.326324 0.685089
0.472717 0.326324 0.685089
0.601410 0.326324 0.685089
0.728180 0.326324 0.685089
0.858307 0.326324 0.685059
0.000000 0.450684 0.685089
0.115997 0.450653 0.685089
0.230042 0.450623 0.685089
0.347992 0.450592 0.685089
0.472687 0.450623 0.685089
0.601440 0.450623 0.685089
0.728180 0.450623 0.685089
0.858307 0.450623 0.685059
0.000000 0.582184 0.685089
0.115997 0.582275 0.685089
0.230042 0.582275 0.685089
0.347992 0.582245 0.685089
0.472687 0.582214 0.685089
0.601471 0.582214 0.685089
0.728180 0.582214 0.685089
0.858307 0.582214 0.685059
0.000000 0.713867 0.685089
0.115997 0.713776 0.685089
0.230042 0.713898 0.685089
0.347992 0.713867 0.685089
0.472687 0.713867 0.685089
0.601471 0.713837 0.685089
0.728180 0.713837 0.685089
0.858307 0.713837 0.685089
0.000000 0.850525 0.685181
0.115997 0.850525 0.685181
0.230042 0.850525 0.685150
0.347992 0.850525 0.685059
0.472687 0.850525 0.685089
0.601471 0.850525 0.685059
0.728180 0.850525 0.685089
0.825226 0.817017 0.685089
0.000000 0.000000 0.832123
0.115997 0.000000 0.832123
0.230011 0.000000 0.832123
0.348053 0.000000 0.832123
0.472687 0.000000 0.832123
0.601532 0.000000 0.832123
0.728149 0.000000 0.832123
0.858307 0.000000 0.832123
0.000000 0.102692 0.832123
0.116089 0.102783 0.832123
0.230133 0.102783 0.832123
0.348083 0.102783 0.832123
0.472748 0.102783 0.832123
0.601501 0.102783 0.832123
0.728271 0.102783 0.832123
0.858307 0.102783 0.832123
0.000000 0.210938 0.832123
0.115997 0.211060 0.832123
0.229980 0.210999 0.832123
0.347992 0.210999 0.832123
0.472717 0.210999 0.832123
0.601501 0.210999 0.832123
0.728119 0.210999 0.832123
0.858307 0.210999 0.832123
0.000000 0.326416 0.832123
0.115997 0.326263 0.832123
0.230042 0.326263 0.832123
0.348022 0.326324 0.832123
0.472748 0.326324 0.832123
0.601501 0.326324 0.832123
0.728149 0.326324 0.832123
0.858307 0.326324 0.832123
0.000000 0.450592 0.832123
0.115997 0.450684 0.832123
0.230042 0.450684 0.832123
0.347992 0.450592 0.832123
0.472687 0.450623 0.832123
0.601501 0.450623 0.832123
0.728149 0.450623 0.832123
0.858307 0.450623 0.832123
0.000000 0.582275 0.832123
0.115997 0.582275 0.832123
0.230042 0.582214 0.832123
0.347992 0.582153 0.832123
0.472687 0.582214 0.832123
0.601471 0.582214 0.832123
0.728149 0.582214 0.832123
0.858307 0.582214 0.832123
0.000000 0.713776 0.832123
0.115997 0.713776 0.832123
0.230042 0.713867 0.832123
0.347992 0.713837 0.832123
0.472687 0.713867 0.832123
0.601471 0.713806 0.832123
0.728180 0.713837 0.832123
0.858307 0.713837 0.832123
0.000000 0.850555 0.832123
0.115997 0.850494 0.832123
0.230042 0.850555 0.832123
0.347992 0.850494 0.832123
0.472687 0.850494 0.832123
0.601471 0.850494 0.832123
0.728180 0.850525 0.832123
0.858307 0.850525 0.832123
