assets/luts/PHLEARN/PHLEARN-Film Tones-Matte Anchor.CUBE
#Created by: Adobe Photoshop Export Color Lookup Plugin
#Copyright: (C) Copyright 2019 PHLEARN
TITLE "PHLEARN Cinematic 10"
#LUT size
LUT_3D_SIZE 5
#data domain
#LUT data points
DOMAIN_MIN 0.000000 0.000000 0.000000
DOMAIN_MAX 0.903226 0.903226 0.903226
0.058624 0.022461 0.092377
0.219666 0.038849 0.106232
0.381378 0.062775 0.126892
0.546082 0.088837 0.148224
0.716064 0.111969 0.164368
0.065979 0.219543 0.126190
0.230530 0.245636 0.147583
0.400330 0.268951 0.164001
0.589722 0.289490 0.168121
0.807678 0.304321 0.155731
0.084534 0.425812 0.163574
0.272766 0.446503 0.168121
0.490204 0.461487 0.156311
0.699890 0.476715 0.146973
0.879669 0.497101 0.153229
0.172943 0.618683 0.156799
0.383453 0.633698 0.146973
0.563995 0.654022 0.152924
0.731415 0.676697 0.167023
0.898499 0.698059 0.186951
0.248291 0.810944 0.152588
0.415863 0.833496 0.166382
0.583008 0.855255 0.186462
0.748474 0.869720 0.204529
0.914215 0.885498 0.226868
0.059967 0.027283 0.253937
0.220978 0.047028 0.270966
0.383514 0.072388 0.292603
0.549866 0.097961 0.312714
0.722412 0.118652 0.325409
0.068054 0.229034 0.291809
0.234253 0.254791 0.312134
0.406494 0.275665 0.325134
0.610657 0.295685 0.322998
0.829224 0.309204 0.308167
0.090668 0.432709 0.324890
0.293457 0.452789 0.323395
0.512146 0.466370 0.308563
0.710480 0.483887 0.305939
0.883881 0.505219 0.315186
0.195068 0.623535 0.308990
0.394348 0.640808 0.305756
0.568329 0.662140 0.314758
0.734558 0.685303 0.331818
0.901306 0.703186 0.350586
0.252777 0.819031 0.314331
0.419006 0.842163 0.331146
0.585815 0.860321 0.350006
0.751465 0.875458 0.370026
0.917084 0.891205 0.392944
0.061157 0.033539 0.416870
0.222473 0.055969 0.436310
0.386139 0.081940 0.458008
0.554504 0.106415 0.476166
0.735779 0.127106 0.483368
0.070648 0.238708 0.457336
0.238800 0.263306 0.475708
0.419037 0.284027 0.483368
0.633392 0.300842 0.475220
0.847961 0.314819 0.462524
0.102386 0.440887 0.483368
0.315887 0.457977 0.475800
0.531219 0.471893 0.462677
0.717987 0.491394 0.466003
0.887146 0.513641 0.478210
0.214447 0.628998 0.462891
0.402161 0.648346 0.465759
0.571625 0.670502 0.477692
0.738617 0.694031 0.497864
0.904175 0.708527 0.515015
0.256104 0.827301 0.477112
0.422943 0.850891 0.497070
0.588684 0.865662 0.514374
0.754456 0.881287 0.535950
0.919922 0.896790 0.559021
0.062408 0.041016 0.580994
0.224304 0.065369 0.601959
0.389404 0.091400 0.623047
0.560089 0.113922 0.638336
0.754608 0.134277 0.640839
0.073853 0.248199 0.622437
0.244263 0.270844 0.637970
0.437561 0.291321 0.640991
0.656006 0.305603 0.627106
0.861786 0.321655 0.620148
0.120544 0.448364 0.640991
0.338776 0.462799 0.627594
0.545471 0.478577 0.619995
0.723358 0.499298 0.627167
0.890076 0.522125 0.642303
0.229218 0.635590 0.619904
0.407715 0.656219 0.626831
0.574554 0.678986 0.641693
0.741638 0.699432 0.661377
0.907166 0.714172 0.680206
0.259064 0.835846 0.641083
0.426147 0.856598 0.660858
0.591644 0.871277 0.679504
0.757385 0.887024 0.701996
0.922607 0.902130 0.724823
0.063751 0.049408 0.745911
0.226532 0.074951 0.767578
0.393433 0.100342 0.787292
0.567322 0.120667 0.798615
0.776398 0.140015 0.794037
0.077820 0.257202 0.786743
0.250946 0.277405 0.798615
0.459167 0.297180 0.794495
0.677124 0.310638 0.779877
0.871063 0.328888 0.779572
0.141724 0.454254 0.794983
0.360138 0.467804 0.780212
0.555084 0.485840 0.779358
0.727234 0.507507 0.789398
0.893494 0.530823 0.807617
0.239136 0.642822 0.779175
0.411682 0.664398 0.788971
0.577911 0.687683 0.806885
0.744446 0.704590 0.825195
0.910156 0.719940 0.845886
0.262360 0.844543 0.806183
0.428955 0.861725 0.824615
0.594635 0.877045 0.845154
0.760254 0.892761 0.868134
0.925110 0.907166 0.890137
