assets/luts/PHLEARN/PHLEARN-Film Tones-Matte Anchor.CUBE
#Created by: Adobe Photoshop Export Color Lookup Plugin
#Copyright: (C) Copyright 2019 PHLEARN
TITLE "PHLEARN Cinematic 10"
#LUT size
LUT_3D_SIZE 32
#data domain
DOMAIN_MIN 0.0 0.0 0.0
DOMAIN_MAX 1.0 1.0 1.0
#LUT data points
0.058624 0.022461 0.092377
0.081696 0.024170 0.093719
0.104706 0.026062 0.095276
0.127716 0.028259 0.097107
0.150726 0.030640 0.099182
0.173706 0.033173 0.101318
0.196686 0.035980 0.103729
0.219666 0.038849 0.106232
0.242676 0.041962 0.108948
0.265717 0.045197 0.111755
0.288757 0.048492 0.114594
0.311859 0.051941 0.117615
0.334991 0.055511 0.120697
0.358154 0.059052 0.123718
0.381378 0.062775 0.126892
0.404663 0.066528 0.130066
0.428040 0.070190 0.133148
0.451477 0.074005 0.136322
0.474976 0.077698 0.139343
0.498596 0.081482 0.142426
0.522308 0.085236 0.145416
0.546082 0.088837 0.148224
0.569977 0.092468 0.151031
0.594025 0.096039 0.153687
0.618134 0.099426 0.156128
0.642426 0.102783 0.158508
0.666840 0.106018 0.160675
0.691376 0.109039 0.162598
0.716064 0.111969 0.164368
0.740906 0.114655 0.165863
0.765930 0.117249 0.167145
0.791229 0.119720 0.168121
0.059662 0.048523 0.095245
0.082672 0.050720 0.097076
0.105652 0.053040 0.099060
0.128662 0.055634 0.101288
0.151642 0.058411 0.103668
0.174622 0.061279 0.106171
0.197632 0.064392 0.108856
0.220642 0.067566 0.111603
0.243713 0.070892 0.114532
0.266815 0.074371 0.117523
0.289917 0.077850 0.120514
0.313110 0.081482 0.123657
0.336334 0.085205 0.126801
0.359589 0.088837 0.129913
0.382965 0.092621 0.133087
0.406372 0.096313 0.136169
0.429932 0.100128 0.139282
0.453522 0.103912 0.142334
0.477203 0.107544 0.145264
0.501007 0.111267 0.148163
0.524933 0.114899 0.150940
0.548920 0.118378 0.153564
0.573059 0.121857 0.156067
0.597351 0.125214 0.158447
0.621704 0.128357 0.160583
0.646271 0.131470 0.162567
0.670990 0.134399 0.164337
0.695801 0.137115 0.165833
0.720825 0.139709 0.167145
0.745972 0.142029 0.168121
0.773712 0.145782 0.168121
0.802338 0.149170 0.168121
0.060608 0.075500 0.098999
0.083618 0.078094 0.101227
0.106598 0.080780 0.103546
0.129578 0.083740 0.106110
0.152588 0.086761 0.108734
0.175598 0.089996 0.111542
0.198669 0.093353 0.114441
0.221741 0.096710 0.117371
0.244873 0.100281 0.120453
0.268036 0.103912 0.123566
0.291260 0.107513 0.126648
0.314545 0.111267 0.129822
0.337921 0.115051 0.132996
0.361328 0.118744 0.136078
0.384857 0.122559 0.139191
0.408417 0.126221 0.142181
0.432129 0.129974 0.145203
0.455933 0.133698 0.148102
0.479828 0.137238 0.150818
0.503845 0.140808 0.153503
0.527985 0.144287 0.156006
0.552216 0.147552 0.158325
0.576630 0.150818 0.160522
0.601196 0.153900 0.162506
0.625854 0.156769 0.164246
0.650696 0.159576 0.165802
0.675659 0.162109 0.167084
0.700867 0.164490 0.168121
0.728546 0.168182 0.168121
0.756989 0.171509 0.168121
0.786285 0.174591 0.168121
0.816223 0.177399 0.168121
0.061554 0.103241 0.103485
0.084534 0.106171 0.106049
0.107544 0.109192 0.108673
0.130554 0.112427 0.111481
0.153595 0.115692 0.114319
0.176697 0.119141 0.117310
0.199829 0.122711 0.120392
0.222992 0.126251 0.123413
0.246216 0.129944 0.126587
0.269501 0.133698 0.129730
0.292847 0.137360 0.132843
0.316284 0.141174 0.135986
0.339783 0.144958 0.139130
0.363342 0.148651 0.142120
0.387054 0.152405 0.145111
0.410828 0.156036 0.147949
0.434753 0.159668 0.150757
0.458771 0.163239 0.153442
0.482849 0.166626 0.155884
0.507141 0.169983 0.158264
0.531555 0.173248 0.160461
0.556061 0.176270 0.162415
0.580750 0.179230 0.164215
0.605621 0.182007 0.165771
0.630554 0.184540 0.167053
0.655762 0.186951 0.168091
0.683228 0.190552 0.168121
0.711792 0.193939 0.168121
0.741089 0.197021 0.168121
0.770813 0.199768 0.168121
0.801270 0.202332 0.167694
0.832153 0.204681 0.166138
0.062500 0.131622 0.108582
0.085510 0.134766 0.111328
0.108551 0.138123 0.114227
0.131653 0.141571 0.117218
0.154755 0.145050 0.120209
0.177917 0.148682 0.123352
0.201172 0.152374 0.126495
0.224426 0.156006 0.129578
0.247772 0.159790 0.132751
0.271210 0.163574 0.135925
0.294708 0.167297 0.138977
0.318298 0.171082 0.142029
0.341949 0.174744 0.144958
0.365753 0.178436 0.147858
0.389648 0.182098 0.150696
0.413635 0.185577 0.153290
0.437805 0.189056 0.155823
0.462067 0.192444 0.158234
0.486420 0.195587 0.160370
0.510956 0.198730 0.162384
0.535675 0.201660 0.164185
0.560455 0.204407 0.165680
0.585480 0.207001 0.167023
0.610596 0.209351 0.168030
0.638062 0.212952 0.168121
0.666595 0.216400 0.168121
0.695679 0.219391 0.168121
0.725586 0.222229 0.168121
0.756042 0.224792 0.167725
0.786713 0.227081 0.166229
0.817902 0.229279 0.164368
0.849304 0.231293 0.162262
0.063507 0.160553 0.114166
0.086578 0.163910 0.117096
0.109711 0.167480 0.120148
0.132874 0.171082 0.123260
0.156097 0.174683 0.126343
0.179382 0.178436 0.129517
0.202728 0.182220 0.132690
0.226135 0.185913 0.135773
0.249634 0.189728 0.138885
0.273224 0.193481 0.141968
0.296875 0.197174 0.144897
0.320679 0.200867 0.147797
0.344543 0.204437 0.150543
0.368561 0.208008 0.153229
0.392700 0.211487 0.155792
0.416901 0.214783 0.158112
0.441345 0.218048 0.160309
0.465881 0.221161 0.162323
0.490509 0.224030 0.164093
0.515350 0.226837 0.165649
0.540375 0.229462 0.166992
0.565491 0.231812 0.168030
0.592896 0.235382 0.168121
0.621246 0.238739 0.168121
0.650482 0.241852 0.168121
0.680359 0.244659 0.168121
0.710602 0.247192 0.167816
0.741455 0.249542 0.166260
0.772644 0.251709 0.164429
0.803833 0.253723 0.162384
0.835358 0.255676 0.160156
0.866943 0.257568 0.157837
0.064667 0.189880 0.120056
0.087830 0.193420 0.123108
0.111023 0.197113 0.126251
0.134308 0.200867 0.129425
0.157654 0.204529 0.132538
0.181061 0.208344 0.135681
0.204559 0.212128 0.138824
0.228149 0.215820 0.141815
0.251831 0.219574 0.144806
0.275574 0.223206 0.147644
0.299469 0.226868 0.150482
0.323486 0.230438 0.153168
0.347565 0.233826 0.155640
0.371826 0.237213 0.158051
0.396240 0.240479 0.160248
0.420715 0.243530 0.162231
0.445435 0.246490 0.164032
0.470276 0.249298 0.165619
0.495209 0.251831 0.166931
0.520386 0.254272 0.167999
0.547577 0.257721 0.168121
0.576050 0.261169 0.168121
0.605255 0.264282 0.168121
0.634949 0.267059 0.168121
0.665344 0.269623 0.167847
0.696198 0.272003 0.166321
0.727173 0.274139 0.164520
0.758575 0.276184 0.162445
0.790100 0.278137 0.160217
0.821442 0.279968 0.157959
0.852936 0.281860 0.155670
0.884003 0.283691 0.153534
0.065979 0.219543 0.126190
0.089233 0.223175 0.129272
0.112579 0.226959 0.132446
0.136017 0.230743 0.135620
0.159485 0.234467 0.138641
0.183075 0.238251 0.141724
0.206757 0.242004 0.144745
0.230530 0.245636 0.147583
0.254395 0.249268 0.150391
0.278381 0.252777 0.153046
0.302521 0.256256 0.155579
0.326752 0.259644 0.157990
0.351105 0.262817 0.160156
0.375641 0.265961 0.162170
0.400330 0.268951 0.164001
0.425110 0.271667 0.165558
0.450104 0.274292 0.166901
0.475281 0.276703 0.167969
0.502411 0.280151 0.168121
0.530853 0.283600 0.168121
0.559875 0.286652 0.168121
0.589722 0.289490 0.168121
0.620117 0.292084 0.167877
0.650757 0.294403 0.166412
0.681915 0.296600 0.164581
0.713318 0.298645 0.162506
0.744629 0.300568 0.160339
0.776184 0.302460 0.158020
0.807678 0.304321 0.155731
0.838745 0.306152 0.153595
0.869751 0.308105 0.151550
0.900146 0.310089 0.149811
0.067535 0.249390 0.132355
0.090942 0.253082 0.135437
0.114441 0.256897 0.138580
0.138031 0.260651 0.141663
0.161682 0.264343 0.144592
0.185455 0.268036 0.147522
0.209290 0.271606 0.150269
0.233307 0.275208 0.152954
0.257416 0.278687 0.155518
0.281647 0.282013 0.157867
0.306030 0.285278 0.160095
0.330566 0.288391 0.162140
0.355164 0.291321 0.163910
0.380005 0.294128 0.165527
0.404999 0.296753 0.166870
0.430084 0.299133 0.167938
0.457245 0.302582 0.168121
0.485657 0.306030 0.168121
0.514679 0.309113 0.168121
0.544495 0.311951 0.168121
0.574707 0.314484 0.167938
0.605499 0.316864 0.166443
0.636658 0.319061 0.164612
0.667847 0.321075 0.162598
0.699371 0.323029 0.160400
0.730927 0.324921 0.158081
0.762177 0.326752 0.155853
0.793488 0.328613 0.153625
0.824524 0.330566 0.151611
0.854919 0.332550 0.149872
0.885040 0.334686 0.148407
0.914337 0.336914 0.147400
0.069366 0.279297 0.138489
0.092926 0.282990 0.141510
0.116608 0.286743 0.144531
0.140381 0.290466 0.147461
0.164246 0.294037 0.150208
0.188232 0.297638 0.152893
0.212311 0.301025 0.155396
0.236542 0.304443 0.157806
0.260956 0.307709 0.160034
0.285400 0.310760 0.162048
0.310089 0.313751 0.163879
0.334900 0.316559 0.165466
0.359833 0.319153 0.166809
0.385010 0.321594 0.167908
0.412048 0.325012 0.168121
0.440308 0.328400 0.168121
0.469482 0.331543 0.168121
0.499084 0.334320 0.168121
0.529449 0.336945 0.167969
0.560272 0.339325 0.166473
0.591187 0.341461 0.164703
0.622589 0.343536 0.162659
0.654114 0.345490 0.160431
0.685455 0.347351 0.158203
0.716949 0.349213 0.155914
0.748260 0.351105 0.153687
0.779053 0.352997 0.151703
0.809692 0.355011 0.149902
0.839630 0.357086 0.148468
0.869141 0.359375 0.147430
0.897949 0.361877 0.146973
0.925812 0.364532 0.146973
0.071564 0.309174 0.144440
0.095276 0.312805 0.147308
0.119171 0.316467 0.150116
0.143127 0.319977 0.152771
0.167236 0.323456 0.155334
0.191498 0.326874 0.157745
0.215820 0.330048 0.159943
0.240326 0.333191 0.161987
0.264984 0.336182 0.163818
0.289764 0.338959 0.165405
0.314728 0.341583 0.166779
0.339905 0.344025 0.167877
0.366730 0.347321 0.168121
0.395111 0.350830 0.168121
0.424072 0.353912 0.168121
0.453857 0.356781 0.168121
0.484222 0.359375 0.167999
0.514801 0.361725 0.166565
0.545929 0.363922 0.164764
0.577332 0.365997 0.162720
0.608612 0.367920 0.160553
0.640167 0.369812 0.158264
0.671692 0.371704 0.155975
0.702789 0.373535 0.153809
0.733826 0.375458 0.151764
0.764465 0.377472 0.149963
0.794403 0.379547 0.148499
0.823944 0.381836 0.147461
0.852631 0.384247 0.146973
0.880676 0.386993 0.146973
0.907654 0.389771 0.147369
0.934021 0.392548 0.147980
0.074097 0.338898 0.150055
0.098053 0.342407 0.152710
0.122162 0.345886 0.155273
0.146362 0.349213 0.157623
0.170715 0.352509 0.159882
0.195251 0.355652 0.161957
0.219849 0.358582 0.163727
0.244659 0.361389 0.165375
0.269653 0.364044 0.166748
0.294739 0.366425 0.167847
0.321564 0.369751 0.168121
0.349915 0.373260 0.168121
0.378876 0.376343 0.168121
0.408630 0.379211 0.168121
0.438751 0.381775 0.168060
0.469543 0.384186 0.166595
0.500702 0.386383 0.164795
0.531860 0.388428 0.162811
0.563354 0.390381 0.160614
0.594940 0.392303 0.158325
0.626221 0.394104 0.156067
0.657532 0.395996 0.153839
0.688568 0.397919 0.151794
0.719025 0.399872 0.150024
0.749207 0.402008 0.148529
0.778595 0.404236 0.147491
0.807465 0.406708 0.146973
0.835510 0.409424 0.146973
0.862427 0.412170 0.147339
0.888885 0.414978 0.147980
0.914886 0.417877 0.148743
0.940399 0.420746 0.149658
0.077057 0.368225 0.155151
0.101288 0.371643 0.157562
0.125641 0.374939 0.159821
0.150116 0.378021 0.161835
0.174774 0.381012 0.163696
0.199585 0.383850 0.165314
0.224487 0.386444 0.166687
0.249634 0.388885 0.167816
0.276398 0.392181 0.168121
0.304565 0.395599 0.168121
0.333649 0.398804 0.168121
0.363220 0.401611 0.168121
0.393524 0.404236 0.168091
0.424286 0.406647 0.166656
0.455200 0.408813 0.164886
0.486572 0.410889 0.162872
0.518097 0.412842 0.160675
0.549438 0.414703 0.158417
0.580933 0.416595 0.156128
0.612274 0.418457 0.153900
0.643127 0.420349 0.151886
0.673798 0.422333 0.150085
0.703979 0.424469 0.148560
0.733368 0.426697 0.147522
0.762268 0.429169 0.146973
0.790222 0.431793 0.146973
0.817291 0.434601 0.147339
0.843781 0.437408 0.147949
0.869690 0.440247 0.148712
0.895294 0.443176 0.149628
0.920502 0.446198 0.150726
0.945312 0.449188 0.151947
0.080536 0.397278 0.159729
0.105011 0.400452 0.161804
0.129669 0.403442 0.163635
0.154419 0.406219 0.165253
0.179382 0.408875 0.166656
0.204529 0.411346 0.167786
0.231110 0.414520 0.168121
0.259399 0.418030 0.168121
0.288452 0.421234 0.168121
0.317993 0.424042 0.168121
0.348297 0.426697 0.168121
0.378845 0.429047 0.166718
0.409943 0.431274 0.164948
0.441315 0.433350 0.162933
0.472595 0.435272 0.160767
0.504181 0.437195 0.158478
0.535675 0.439056 0.156189
0.566833 0.440887 0.154022
0.597870 0.442810 0.151947
0.628571 0.444794 0.150116
0.658569 0.446869 0.148651
0.688171 0.449158 0.147552
0.716949 0.451538 0.146973
0.745056 0.454254 0.146973
0.772156 0.457031 0.147308
0.798553 0.459808 0.147919
0.824585 0.462677 0.148682
0.850189 0.465637 0.149597
0.875336 0.468567 0.150665
0.900238 0.471619 0.151917
0.924805 0.474731 0.153320
0.949097 0.477814 0.154846
0.084534 0.425812 0.163574
0.109314 0.428680 0.165222
0.134308 0.431335 0.166626
0.159363 0.433746 0.167725
0.185944 0.436951 0.168121
0.214203 0.440491 0.168121
0.243073 0.443604 0.168121
0.272766 0.446503 0.168121
0.302856 0.449066 0.168121
0.333588 0.451508 0.166779
0.364716 0.453735 0.165009
0.395813 0.455750 0.163025
0.427338 0.457733 0.160828
0.458893 0.459656 0.158539
0.490204 0.461487 0.156311
0.521545 0.463348 0.154053
0.552643 0.465271 0.151978
0.583130 0.467224 0.150208
0.613342 0.469330 0.148682
0.642975 0.471619 0.147552
0.671753 0.473999 0.146973
0.699890 0.476715 0.146973
0.726898 0.479431 0.147278
0.753418 0.482239 0.147888
0.779480 0.485138 0.148651
0.805023 0.488007 0.149567
0.830261 0.490997 0.150635
0.855133 0.494049 0.151855
0.879669 0.497101 0.153229
0.904022 0.500244 0.154816
0.928131 0.503448 0.156525
0.952026 0.506592 0.158386
0.089142 0.453735 0.166565
0.114258 0.456207 0.167725
0.140778 0.459351 0.168121
0.168854 0.462830 0.168121
0.197876 0.466034 0.168121
0.227570 0.468933 0.168121
0.257629 0.471527 0.168121
0.288361 0.473969 0.166809
0.319214 0.476135 0.165100
0.350586 0.478241 0.163086
0.382080 0.480194 0.160889
0.413422 0.482056 0.158661
0.444946 0.483948 0.156372
0.476288 0.485809 0.154114
0.507172 0.487701 0.152100
0.537872 0.489685 0.150238
0.568146 0.491791 0.148712
0.597626 0.493988 0.147614
0.626556 0.496460 0.146973
0.654602 0.499084 0.146973
0.681763 0.501862 0.147278
0.708313 0.504669 0.147888
0.734283 0.507507 0.148621
0.759918 0.510437 0.149536
0.785156 0.513428 0.150604
0.809998 0.516418 0.151794
0.834595 0.519531 0.153198
0.858948 0.522675 0.154755
0.883026 0.525818 0.156433
0.906982 0.529053 0.158325
0.930756 0.532257 0.160339
0.954498 0.535553 0.162567
0.095459 0.481720 0.168121
0.123688 0.485260 0.168121
0.152679 0.488495 0.168121
0.182159 0.491333 0.168121
0.212402 0.493988 0.168121
0.243103 0.496429 0.166840
0.273987 0.498627 0.165161
0.305328 0.500702 0.163147
0.336578 0.502655 0.161011
0.368164 0.504547 0.158722
0.399689 0.506439 0.156403
0.430817 0.508270 0.154236
0.461914 0.510193 0.152130
0.492645 0.512177 0.150299
0.522705 0.514221 0.148773
0.552368 0.516479 0.147644
0.581390 0.518921 0.146973
0.609436 0.521545 0.146973
0.636627 0.524323 0.147278
0.663177 0.527161 0.147858
0.689148 0.529968 0.148590
0.714813 0.532898 0.149506
0.739990 0.535828 0.150543
0.764923 0.538879 0.151764
0.789520 0.541992 0.153168
0.813812 0.545074 0.154694
0.837952 0.548248 0.156403
0.861908 0.551514 0.158295
0.885681 0.554688 0.160278
0.909424 0.558014 0.162506
0.933105 0.561340 0.164917
0.956757 0.564636 0.167419
0.107300 0.510864 0.168121
0.136932 0.513794 0.168121
0.167175 0.516449 0.168121
0.197662 0.518829 0.166931
0.228729 0.521088 0.165192
0.260071 0.523193 0.163177
0.291351 0.525116 0.161072
0.322906 0.527039 0.158783
0.354187 0.528870 0.156525
0.385559 0.530731 0.154297
0.416687 0.532654 0.152191
0.447235 0.534576 0.150360
0.477478 0.536682 0.148804
0.507172 0.538940 0.147644
0.536041 0.541321 0.146973
0.564240 0.543976 0.146973
0.591492 0.546783 0.147247
0.617950 0.549530 0.147827
0.644043 0.552399 0.148560
0.669617 0.555267 0.149445
0.694885 0.558258 0.150513
0.719818 0.561310 0.151733
0.744385 0.564362 0.153076
0.768738 0.567505 0.154633
0.792877 0.570709 0.156342
0.816803 0.573853 0.158173
0.840637 0.577148 0.160217
0.864349 0.580444 0.162445
0.888000 0.583710 0.164795
0.911682 0.587067 0.167358
0.935364 0.590363 0.170013
0.959137 0.593781 0.172913
0.121735 0.538849 0.168121
0.152405 0.541290 0.166962
0.183472 0.543549 0.165253
0.214569 0.545593 0.163300
0.246094 0.547577 0.161102
0.277405 0.549469 0.158905
0.308960 0.551331 0.156586
0.340332 0.553192 0.154327
0.371246 0.555054 0.152283
0.401978 0.557037 0.150421
0.432281 0.559143 0.148834
0.461792 0.561340 0.147705
0.490845 0.563782 0.147003
0.519073 0.566437 0.146973
0.546204 0.569153 0.147217
0.572815 0.571991 0.147827
0.598938 0.574829 0.148560
0.624512 0.577728 0.149414
0.649811 0.580719 0.150482
0.674683 0.583679 0.151672
0.699310 0.586792 0.153046
0.723663 0.589935 0.154602
0.747772 0.593048 0.156281
0.771729 0.596283 0.158142
0.795563 0.599579 0.160187
0.819275 0.602783 0.162354
0.842957 0.606140 0.164734
0.866608 0.609497 0.167297
0.890289 0.612793 0.169952
0.914093 0.616211 0.172852
0.937927 0.619537 0.175873
0.962006 0.622986 0.179108
0.138000 0.565948 0.165344
0.169342 0.568054 0.163330
0.200806 0.570068 0.161163
0.232147 0.571930 0.158936
0.263702 0.573792 0.156647
0.294861 0.575623 0.154449
0.325989 0.577545 0.152344
0.356750 0.579529 0.150452
0.386871 0.581543 0.148926
0.416595 0.583801 0.147736
0.445648 0.586212 0.147003
0.473785 0.588806 0.146973
0.501068 0.591614 0.147217
0.527679 0.594421 0.147797
0.553711 0.597229 0.148529
0.579407 0.600159 0.149414
0.604645 0.603058 0.150421
0.629578 0.606110 0.151642
0.654236 0.609222 0.153015
0.678558 0.612305 0.154510
0.702698 0.615509 0.156219
0.726654 0.618713 0.158081
0.750488 0.621918 0.160065
0.774200 0.625214 0.162292
0.797882 0.628571 0.164673
0.821533 0.631866 0.167145
0.845245 0.635223 0.169891
0.868988 0.638550 0.172699
0.892883 0.641968 0.175781
0.916931 0.645416 0.179016
0.941132 0.648773 0.182373
0.965057 0.651276 0.185028
0.155334 0.592468 0.161285
0.186890 0.594391 0.158997
0.218201 0.596222 0.156769
0.249603 0.598114 0.154510
0.280731 0.600006 0.152405
0.311310 0.601929 0.150543
0.341644 0.604004 0.148956
0.371399 0.606262 0.147766
0.400299 0.608612 0.147034
0.428619 0.611267 0.146973
0.455933 0.614044 0.147217
0.482452 0.616791 0.147766
0.508575 0.619659 0.148499
0.534210 0.622528 0.149353
0.559509 0.625519 0.150391
0.584473 0.628571 0.151611
0.609100 0.631592 0.152954
0.633453 0.634735 0.154480
0.657623 0.637939 0.156189
0.681580 0.641083 0.157990
0.705414 0.644348 0.160004
0.729156 0.647675 0.162231
0.752808 0.650909 0.164551
0.776459 0.654297 0.167084
0.800171 0.657654 0.169800
0.823914 0.660980 0.172638
0.847809 0.664398 0.175690
0.871796 0.667755 0.178864
0.896057 0.671173 0.182281
0.920013 0.673737 0.184967
0.943573 0.675598 0.187012
0.967163 0.677551 0.189240
0.172943 0.618683 0.156799
0.204346 0.620575 0.154572
0.235291 0.622437 0.152496
0.266083 0.624390 0.150604
0.296417 0.626495 0.148987
0.326019 0.628662 0.147797
0.355133 0.631073 0.147034
0.383453 0.633698 0.146973
0.410675 0.636444 0.147186
0.437317 0.639252 0.147766
0.463470 0.642120 0.148468
0.489105 0.644958 0.149323
0.514435 0.647949 0.150391
0.539337 0.650940 0.151550
0.563995 0.654022 0.152924
0.588379 0.657166 0.154419
0.612518 0.660278 0.156067
0.636505 0.663513 0.157928
0.660339 0.666779 0.159973
0.684052 0.670013 0.162109
0.707733 0.673340 0.164490
0.731415 0.676697 0.167023
0.755096 0.680023 0.169678
0.778839 0.683411 0.172546
0.802704 0.686768 0.175537
0.826721 0.690186 0.178772
0.850983 0.693634 0.182190
0.874908 0.696167 0.184875
0.898499 0.698059 0.186951
0.922119 0.700012 0.189178
0.945709 0.701996 0.191528
0.969330 0.704071 0.194061
0.190033 0.644897 0.152557
0.220856 0.646851 0.150635
0.251007 0.648895 0.149048
0.280792 0.651123 0.147827
0.309937 0.653534 0.147064
0.338135 0.656097 0.146973
0.365540 0.658875 0.147156
0.392181 0.661682 0.147736
0.418274 0.664490 0.148438
0.444000 0.667419 0.149323
0.469238 0.670319 0.150330
0.494232 0.673370 0.151520
0.518890 0.676453 0.152863
0.543243 0.679535 0.154358
0.567413 0.682709 0.156036
0.591400 0.685944 0.157898
0.615234 0.689148 0.159851
0.638977 0.692444 0.162048
0.662689 0.695770 0.164429
0.686310 0.699066 0.166901
0.710022 0.702454 0.169586
0.733795 0.705841 0.172485
0.757629 0.709198 0.175476
0.781647 0.712616 0.178711
0.805847 0.715973 0.182037
0.829865 0.718658 0.184814
0.853455 0.720551 0.186890
0.877014 0.722443 0.189087
0.900635 0.724457 0.191467
0.924286 0.726532 0.194000
0.947906 0.728577 0.196564
0.971558 0.730713 0.199341
0.205780 0.671356 0.149109
0.235596 0.673584 0.147858
0.264587 0.675903 0.147064
0.292969 0.678528 0.146973
0.320404 0.681335 0.147156
0.346954 0.684052 0.147705
0.373138 0.686920 0.148407
0.398895 0.689850 0.149292
0.424164 0.692749 0.150299
0.449127 0.695801 0.151489
0.473755 0.698822 0.152802
0.498169 0.701965 0.154327
0.522339 0.705170 0.156006
0.546295 0.708313 0.157806
0.570160 0.711578 0.159821
0.593903 0.714874 0.161987
0.617584 0.718140 0.164307
0.641266 0.721497 0.166840
0.664948 0.724884 0.169525
0.688690 0.728210 0.172333
0.712555 0.731598 0.175385
0.736542 0.734955 0.178528
0.760773 0.738403 0.181946
0.784790 0.741119 0.184753
0.808350 0.742950 0.186798
0.831970 0.744904 0.189026
0.855591 0.746918 0.191406
0.879181 0.748932 0.193878
0.902832 0.751038 0.196503
0.926514 0.753174 0.199280
0.950134 0.755310 0.202087
0.973816 0.757538 0.205048
0.219391 0.698364 0.147095
0.247803 0.700989 0.146973
0.275146 0.703705 0.147125
0.301819 0.706512 0.147675
0.328033 0.709381 0.148407
0.353699 0.712219 0.149231
0.379059 0.715210 0.150269
0.404053 0.718231 0.151459
0.428680 0.721252 0.152771
0.453094 0.724396 0.154266
0.477234 0.727509 0.155914
0.501221 0.730743 0.157745
0.525085 0.734009 0.159760
0.548798 0.737213 0.161896
0.572510 0.740570 0.164246
0.596161 0.743927 0.166748
0.619873 0.747223 0.169403
0.643616 0.750641 0.172272
0.667480 0.754059 0.175293
0.691467 0.757385 0.178436
0.715698 0.760834 0.181854
0.739716 0.763550 0.184662
0.763306 0.765442 0.186737
0.786896 0.767395 0.188965
0.810486 0.769348 0.191284
0.834137 0.771393 0.193787
0.857758 0.773499 0.196442
0.881409 0.775604 0.199127
0.905090 0.777771 0.202026
0.928772 0.779999 0.204956
0.952423 0.782166 0.207947
0.976105 0.784424 0.211060
0.230011 0.726166 0.147125
0.256714 0.728943 0.147675
0.282806 0.731750 0.148346
0.308594 0.734650 0.149231
0.333954 0.737640 0.150238
0.358917 0.740601 0.151398
0.383606 0.743713 0.152740
0.407990 0.746765 0.154205
0.432159 0.749939 0.155884
0.456177 0.753174 0.157684
0.480011 0.756348 0.159668
0.503754 0.759674 0.161835
0.527435 0.763000 0.164185
0.551086 0.766266 0.166626
0.574768 0.769653 0.169312
0.598541 0.773071 0.172180
0.622375 0.776398 0.175140
0.646393 0.779816 0.178375
0.670563 0.783173 0.181671
0.694641 0.786011 0.184601
0.718231 0.787903 0.186676
0.741821 0.789795 0.188843
0.765411 0.791809 0.191223
0.789062 0.793854 0.193726
0.812683 0.795929 0.196320
0.836334 0.798065 0.199066
0.860016 0.800232 0.201935
0.883667 0.802399 0.204834
0.907379 0.804626 0.207886
0.931030 0.806824 0.210907
0.954712 0.809113 0.214111
0.978394 0.811371 0.217346
0.237701 0.754181 0.148346
0.263489 0.757111 0.149200
0.288788 0.760010 0.150177
0.313812 0.763062 0.151367
0.338531 0.766144 0.152710
0.362915 0.769196 0.154144
0.387085 0.772369 0.155823
0.411072 0.775513 0.157593
0.434937 0.778809 0.159607
0.458679 0.782104 0.161774
0.482361 0.785339 0.164062
0.506012 0.788727 0.166565
0.529724 0.792084 0.169250
0.553436 0.795410 0.172028
0.577301 0.798828 0.175079
0.601318 0.802246 0.178284
0.625488 0.805603 0.181580
0.649597 0.808472 0.184570
0.673157 0.810303 0.186584
0.696747 0.812256 0.188782
0.720367 0.814270 0.191162
0.743988 0.816284 0.193604
0.767609 0.818390 0.196228
0.791290 0.820526 0.199005
0.814941 0.822662 0.201782
0.838623 0.824860 0.204742
0.862305 0.827087 0.207794
0.885956 0.829285 0.210846
0.909637 0.831573 0.214020
0.933319 0.833771 0.217194
0.957001 0.836060 0.220459
0.980682 0.838348 0.223785
0.243683 0.782440 0.150146
0.268738 0.785492 0.151337
0.293396 0.788513 0.152618
0.317810 0.791626 0.154114
0.341980 0.794739 0.155731
0.365997 0.797974 0.157562
0.389862 0.801239 0.159546
0.413605 0.804443 0.161652
0.437286 0.807770 0.164001
0.460968 0.811127 0.166504
0.484619 0.814423 0.169098
0.508362 0.817841 0.171967
0.532227 0.821259 0.174988
0.556213 0.824585 0.178131
0.580383 0.828033 0.181488
0.604492 0.830902 0.184479
