assets/luts/PHLEARN/PHLEARN-Moody Vibes-Tate Olive.jpeg.CUBE
#Created by: Adobe Photoshop Export Color Lookup Plugin
TITLE "PHLEARN-Moody Vibes-Tate Olive.jpeg"
#LUT size
LUT_3D_SIZE 5
#data domain
#LUT data points
DOMAIN_MIN 0.000000 0.000000 0.000000
DOMAIN_MAX 0.903226 0.903226 0.903226
0.000000 0.000000 0.000000
0.201385 0.000000 0.000000
0.409393 0.000000 0.000000
0.633179 0.000000 0.000000
0.858307 0.000000 0.000000
0.000000 0.183319 0.000000
0.151947 0.136383 0.000000
0.319855 0.142761 0.000000
0.550415 0.158508 0.000000
0.781311 0.166321 0.000000
0.000000 0.387238 0.000000
0.195770 0.375580 0.000000
0.305695 0.285461 0.000000
0.473236 0.285553 0.000000
0.681061 0.301666 0.000000
0.000000 0.614990 0.000000
0.201385 0.614990 0.000000
0.364838 0.547424 0.000000
0.473236 0.453979 0.000000
0.647003 0.453857 0.000000
0.000000 0.850525 0.000000
0.201324 0.850525 0.000000
0.402130 0.835236 0.000000
0.541718 0.723663 0.000000
0.647003 0.633972 0.000000
0.000000 0.000000 0.161682
0.201385 0.000000 0.161682
0.409393 0.000000 0.161682
0.633179 0.000000 0.161682
0.858307 0.000000 0.161713
0.000000 0.183319 0.161682
0.201385 0.183319 0.161682
0.409393 0.183319 0.161682
0.633179 0.183319 0.161682
0.858307 0.183319 0.161682
0.000000 0.387238 0.161652
0.201385 0.387238 0.161682
0.356506 0.336151 0.161682
0.543610 0.344330 0.161682
0.774750 0.361084 0.161682
0.000000 0.614990 0.161682
0.201385 0.614990 0.161682
0.404175 0.604584 0.161682
0.525848 0.507263 0.161682
0.696442 0.507172 0.161682
0.000000 0.850525 0.161621
0.201385 0.850525 0.161682
0.409485 0.850525 0.161682
0.589020 0.780151 0.161682
0.696442 0.684479 0.161682
0.000000 0.000000 0.354279
0.201385 0.000000 0.354279
0.409393 0.000000 0.354279
0.633179 0.000000 0.354279
0.858307 0.000000 0.354279
0.000000 0.183319 0.354279
0.201385 0.183319 0.354279
0.409393 0.183319 0.354279
0.633179 0.183319 0.354309
0.858307 0.183319 0.354279
0.000000 0.387177 0.354279
0.201385 0.387238 0.354279
0.409393 0.387238 0.354279
0.633179 0.387238 0.354279
0.858307 0.387238 0.354248
0.000000 0.614990 0.354309
0.201385 0.614990 0.354309
0.409393 0.614990 0.354279
0.578766 0.561096 0.354279
0.763794 0.569305 0.354279
0.000000 0.850525 0.354218
0.201385 0.850525 0.354370
0.409393 0.850525 0.354279
0.628113 0.839630 0.354279
0.747192 0.736694 0.354279
0.000000 0.000000 0.582092
0.201385 0.000000 0.582092
0.409393 0.000000 0.582092
0.633179 0.000000 0.582092
0.858307 0.000000 0.582184
0.000000 0.183350 0.582092
0.201385 0.183319 0.582092
0.409424 0.183319 0.582092
0.633179 0.183319 0.582092
0.858307 0.183319 0.582123
0.000000 0.387299 0.582092
0.201385 0.387207 0.582092
0.409363 0.387238 0.582092
0.633179 0.387238 0.582092
0.858307 0.387238 0.582062
0.000000 0.615051 0.582092
0.201385 0.615051 0.582092
0.409393 0.614960 0.582092
0.633179 0.614990 0.582092
0.858307 0.614990 0.582123
0.000000 0.850525 0.582153
0.201385 0.850525 0.582153
0.409393 0.850525 0.582062
0.633179 0.850525 0.582092
0.801086 0.792053 0.582092
0.000000 0.000000 0.832123
0.201416 0.000000 0.832123
0.409363 0.000000 0.832123
0.633270 0.000000 0.832123
0.858307 0.000000 0.832123
0.000000 0.183289 0.832123
0.201385 0.183319 0.832123
0.409393 0.183319 0.832123
0.633209 0.183319 0.832123
0.858307 0.183319 0.832123
0.000000 0.387146 0.832123
0.201385 0.387329 0.832123
0.409332 0.387238 0.832123
0.633148 0.387238 0.832123
0.858307 0.387238 0.832123
0.000000 0.614899 0.832123
0.201385 0.614929 0.832123
0.409393 0.614960 0.832123
0.633209 0.614990 0.832123
0.858307 0.614990 0.832123
0.000000 0.850555 0.832123
0.201385 0.850433 0.832123
0.409393 0.850555 0.832123
0.633179 0.850494 0.832123
0.858307 0.850525 0.832123
