assets/luts/PHLEARN/PHLEARN-Bright _ Airy-Peachy Cream.CUBE
#Created by: Adobe Photoshop Export Color Lookup Plugin
TITLE "PHLEARN-Bright & Airy LUTs-Peachy Cream.jpeg"
#LUT size
LUT_3D_SIZE 32
#data domain
DOMAIN_MIN 0.0 0.0 0.0
DOMAIN_MAX 1.0 1.0 1.0
#LUT data points
0.315796 0.276764 0.276764
0.339142 0.270905 0.270905
0.362305 0.265228 0.265228
0.385254 0.259705 0.259705
0.407990 0.254272 0.254272
0.430359 0.249023 0.249023
0.452362 0.243958 0.243958
0.473999 0.239075 0.239075
0.495148 0.234314 0.234314
0.516968 0.231445 0.231445
0.539490 0.230988 0.230988
0.561279 0.230530 0.230530
0.582581 0.230072 0.230072
0.604126 0.229645 0.229645
0.625824 0.229156 0.229156
0.647644 0.228729 0.228729
0.669525 0.228241 0.228241
0.691376 0.227783 0.227783
0.713196 0.227295 0.227295
0.734894 0.226807 0.226807
0.756348 0.226349 0.226349
0.777588 0.225891 0.225891
0.798553 0.225464 0.225464
0.819183 0.224976 0.224976
0.839355 0.224579 0.224579
0.859131 0.224152 0.224152
0.878387 0.223694 0.223694
0.897095 0.223297 0.223297
0.915100 0.222870 0.222870
0.932434 0.222504 0.222504
0.949036 0.222137 0.222137
0.964752 0.221771 0.221771
0.317383 0.307587 0.276550
0.340118 0.301086 0.270599
0.362579 0.295166 0.264801
0.385040 0.289490 0.259033
0.407776 0.284149 0.253448
0.430054 0.279022 0.248138
0.452057 0.273956 0.242889
0.473633 0.269104 0.237854
0.494720 0.264404 0.232971
0.516479 0.261658 0.230103
0.538940 0.261261 0.229706
0.560699 0.260864 0.229248
0.581970 0.260498 0.228882
0.603455 0.260101 0.228485
0.625153 0.259705 0.228119
0.647644 0.258514 0.226746
0.669525 0.257965 0.226288
0.691376 0.257599 0.225830
0.713196 0.257019 0.225311
0.734863 0.256531 0.224792
0.756348 0.256104 0.224396
0.777588 0.255615 0.223907
0.798553 0.255188 0.223450
0.819183 0.254730 0.222961
0.839325 0.254425 0.222565
0.859131 0.254028 0.222168
0.878387 0.253571 0.221649
0.897064 0.253143 0.221252
0.915100 0.252747 0.220825
0.932404 0.252258 0.220428
0.949036 0.251984 0.220093
0.964752 0.251587 0.219727
0.313507 0.334106 0.272461
0.341980 0.332367 0.270538
0.365082 0.326233 0.264801
0.387543 0.320343 0.258942
0.409637 0.314728 0.253357
0.431213 0.309509 0.248230
0.452759 0.304382 0.242706
0.473694 0.299652 0.237823
0.494720 0.295074 0.232941
0.516449 0.292236 0.229858
0.538940 0.291687 0.229248
0.560699 0.291168 0.228668
0.581970 0.290497 0.228058
0.603455 0.289948 0.227478
0.625153 0.289398 0.226868
0.646912 0.288849 0.226227
0.668793 0.288208 0.225647
0.690613 0.287598 0.225006
0.712402 0.287201 0.224518
0.734070 0.286774 0.224121
0.755524 0.286285 0.223602
0.776703 0.285919 0.223297
0.797638 0.285492 0.222870
0.818237 0.285156 0.222443
0.838379 0.284851 0.222137
0.858124 0.284363 0.221771
0.877350 0.284058 0.221344
0.895996 0.283813 0.221069
0.914001 0.283478 0.220673
0.931305 0.283203 0.220337
0.947876 0.282776 0.220032
0.964752 0.281006 0.217834
0.307953 0.358612 0.266571
0.338348 0.358612 0.266571
0.366333 0.356995 0.264709
0.390045 0.351624 0.258881
0.412170 0.345795 0.253387
0.433899 0.340332 0.247955
0.455109 0.335297 0.243042
0.476318 0.330353 0.237701
0.496704 0.325836 0.233032
0.517883 0.323120 0.230438
0.540161 0.322174 0.229248
0.561157 0.321289 0.228668
0.581970 0.320648 0.228058
0.603455 0.320068 0.227478
0.625153 0.319550 0.226868
0.646912 0.319000 0.226227
0.668793 0.318481 0.225647
0.690613 0.317810 0.225006
0.712402 0.317261 0.224365
0.734070 0.316620 0.223724
0.755524 0.316071 0.223083
0.776703 0.315582 0.222473
0.797638 0.314972 0.221863
0.818237 0.314301 0.221222
0.838379 0.313782 0.220673
0.858124 0.313263 0.220032
0.877350 0.312775 0.219482
0.895996 0.312317 0.219025
0.914001 0.312012 0.218689
0.931274 0.311676 0.218353
0.947876 0.311523 0.218109
0.963623 0.310974 0.217743
0.302551 0.382843 0.260834
0.333191 0.382843 0.260834
0.362976 0.382843 0.260834
0.390503 0.381348 0.259033
0.414429 0.376740 0.253510
0.436249 0.371155 0.248169
0.457703 0.365814 0.242859
0.478851 0.360992 0.237610
0.499207 0.356323 0.233002
0.520660 0.353943 0.230927
0.542847 0.352966 0.229828
0.563721 0.352020 0.229248
0.584259 0.351227 0.228760
0.604980 0.350433 0.228241
0.626617 0.349243 0.226807
0.647644 0.348450 0.226227
0.668854 0.347778 0.225647
0.690613 0.347107 0.225006
0.712402 0.346558 0.224365
0.734070 0.346008 0.223724
0.755524 0.345428 0.223083
0.776703 0.344849 0.222473
0.797638 0.344330 0.221863
0.818237 0.343842 0.221222
0.838379 0.343201 0.220673
0.858124 0.342804 0.220032
0.877350 0.342133 0.219482
0.895996 0.341644 0.218903
0.914001 0.341156 0.218353
0.931274 0.340698 0.217834
0.947876 0.340332 0.217316
0.963623 0.339874 0.216797
0.297302 0.406799 0.255249
0.328156 0.406799 0.255249
0.358185 0.406799 0.255249
0.387390 0.406799 0.255249
0.414429 0.405426 0.253510
0.437958 0.401154 0.248169
0.460205 0.396301 0.242737
0.480957 0.391235 0.238129
0.501648 0.386566 0.233032
0.523315 0.384338 0.231506
0.545410 0.383209 0.230408
0.566315 0.382263 0.229919
0.586731 0.381287 0.229431
0.608002 0.380157 0.228180
0.628845 0.379272 0.227631
0.649902 0.378387 0.227081
0.670990 0.377563 0.226532
0.692780 0.376373 0.224945
0.713867 0.375641 0.224335
0.734741 0.374756 0.223724
0.755554 0.373993 0.223083
0.776703 0.373474 0.222473
0.797638 0.372925 0.221863
0.818237 0.372345 0.221222
0.838379 0.371918 0.220673
0.858124 0.371216 0.220032
0.877350 0.370728 0.219482
0.895996 0.370361 0.218903
0.914001 0.369781 0.218353
0.931274 0.369446 0.217834
0.947876 0.368866 0.217316
0.963623 0.368530 0.216797
0.292206 0.430450 0.249878
0.323303 0.430450 0.249878
0.353546 0.430450 0.249878
0.382965 0.430450 0.249878
0.411591 0.430450 0.249878
0.437958 0.429138 0.248169
0.461090 0.425232 0.243011
0.483429 0.421143 0.238098
0.504028 0.416321 0.233063
0.526489 0.414459 0.231415
0.547943 0.413025 0.230957
0.568726 0.411896 0.230560
0.589691 0.410675 0.229370
0.610260 0.409637 0.228882
0.631104 0.408569 0.228424
0.652710 0.407501 0.226959
0.673767 0.406586 0.226440
0.694733 0.405609 0.225891
0.715759 0.404724 0.225342
0.736633 0.403992 0.224792
0.758209 0.402710 0.223022
0.778717 0.401855 0.222443
0.798950 0.401093 0.221832
0.818848 0.400269 0.221222
0.838379 0.399567 0.220673
0.858124 0.399139 0.220032
0.877350 0.398621 0.219482
0.895996 0.398102 0.218903
0.914001 0.397705 0.218353
0.931274 0.397217 0.217834
0.947876 0.396851 0.217316
0.963623 0.396393 0.216797
0.287292 0.453735 0.244629
0.318634 0.453735 0.244629
0.349060 0.453735 0.244629
0.378693 0.453735 0.244629
0.407471 0.453735 0.244629
0.435333 0.453735 0.244629
0.461090 0.452545 0.243011
0.483826 0.448975 0.238007
0.506012 0.445465 0.233185
0.529022 0.443939 0.231995
0.550385 0.442291 0.231598
0.571655 0.440887 0.230499
0.592010 0.439636 0.230103
0.612518 0.438477 0.229675
0.633850 0.437225 0.228363
0.654755 0.436188 0.227875
0.675720 0.435150 0.227356
0.696686 0.434113 0.226898
0.718414 0.433044 0.225281
0.739197 0.432007 0.224731
0.759888 0.431152 0.224182
0.780365 0.430389 0.223633
0.800537 0.429504 0.223114
0.820404 0.428772 0.222565
0.840820 0.427429 0.220581
0.859894 0.426605 0.220001
0.878540 0.425995 0.219452
0.896637 0.425232 0.218872
0.914001 0.424622 0.218353
0.931274 0.424194 0.217834
0.947876 0.423828 0.217316
0.963623 0.423462 0.216797
0.282471 0.476624 0.239594
0.313965 0.476624 0.239594
0.344696 0.476624 0.239594
0.374512 0.476624 0.239594
0.403503 0.476624 0.239594
0.431519 0.476624 0.239594
0.458679 0.476624 0.239594
0.483826 0.475525 0.238007
0.506012 0.472168 0.233185
0.530273 0.471771 0.232605
0.552765 0.470886 0.232269
0.574005 0.469421 0.231201
0.594208 0.467896 0.230804
0.615295 0.466644 0.229584
0.635986 0.465393 0.229218
0.656799 0.464081 0.228790
0.678436 0.462891 0.227325
0.699341 0.461792 0.226807
0.720215 0.460693 0.226349
0.740967 0.459717 0.225830
0.762390 0.458496 0.224152
0.782867 0.457672 0.223572
0.802979 0.456665 0.223022
0.822815 0.455902 0.222504
0.842316 0.455048 0.221954
0.861359 0.454285 0.221436
0.879883 0.453522 0.220947
0.898956 0.452362 0.218781
0.916382 0.451691 0.218292
0.933136 0.451080 0.217804
0.949158 0.450409 0.217285
0.964417 0.449799 0.216797
0.277893 0.498962 0.234711
0.309662 0.498962 0.234711
0.340454 0.498962 0.234711
0.370514 0.498962 0.234711
0.399719 0.498962 0.234711
0.427948 0.498962 0.234711
0.455200 0.498962 0.234711
0.481537 0.498962 0.234711
0.506012 0.497986 0.233185
0.530273 0.497620 0.232605
0.553711 0.497375 0.232239
0.576202 0.497070 0.231903
0.597015 0.495575 0.230743
0.617401 0.494049 0.230408
0.638000 0.492584 0.230042
0.659454 0.491302 0.228699
0.680267 0.489899 0.228271
0.701111 0.488678 0.227814
0.722717 0.487549 0.226288
0.743530 0.486450 0.225800
0.764069 0.485474 0.225311
0.784424 0.484467 0.224792
0.805420 0.483215 0.222961
0.825226 0.482361 0.222443
0.844574 0.481384 0.221893
0.863647 0.480682 0.221375
0.882233 0.479858 0.220856
0.900208 0.479034 0.220367
0.917603 0.478424 0.219910
0.934265 0.477814 0.219421
0.951447 0.476501 0.217224
0.966644 0.475861 0.216736
0.276001 0.522583 0.232727
0.307861 0.522583 0.232727
0.338776 0.522583 0.232727
0.368866 0.522583 0.232727
0.398132 0.522583 0.232727
0.426453 0.522583 0.232727
0.453796 0.522583 0.232727
0.480225 0.522583 0.232727
0.505707 0.522583 0.232727
0.530273 0.522522 0.232605
0.553711 0.522278 0.232239
0.576294 0.522095 0.231903
0.598419 0.521851 0.231537
0.619476 0.520630 0.231232
0.640686 0.519257 0.229980
0.661346 0.517700 0.229614
0.682831 0.516388 0.228210
0.703644 0.514984 0.227783
0.724426 0.513672 0.227325
0.745117 0.512543 0.226898
0.766479 0.511353 0.225189
0.786835 0.510376 0.224762
0.806854 0.509216 0.224274
0.826660 0.508423 0.223785
0.846008 0.507446 0.223297
0.865997 0.506226 0.221313
0.884491 0.505341 0.220795
0.902527 0.504700 0.220337
0.919830 0.503876 0.219818
0.936523 0.503235 0.219391
0.952576 0.502625 0.218933
0.967804 0.502075 0.218506
0.275696 0.546326 0.232361
0.307434 0.546326 0.232361
0.338531 0.546326 0.232361
0.368561 0.546326 0.232361
0.397797 0.546326 0.232361
0.426178 0.546326 0.232361
0.453552 0.546326 0.232361
0.480042 0.546326 0.232361
0.505463 0.546326 0.232361
0.530121 0.546326 0.232361
0.553711 0.546265 0.232239
0.576294 0.546021 0.231903
0.598419 0.545807 0.231537
0.620758 0.545654 0.231201
0.642578 0.544922 0.230865
0.663910 0.543488 0.229584
0.684662 0.541870 0.229156
0.705353 0.540375 0.228821
0.726898 0.539124 0.227295
0.747528 0.537750 0.226868
0.767944 0.536530 0.226440
0.789185 0.535370 0.224701
0.809204 0.534271 0.224213
0.828949 0.533325 0.223724
0.848267 0.532318 0.223236
0.867218 0.531311 0.222809
0.885712 0.530487 0.222321
0.904755 0.529449 0.220245
0.922089 0.528687 0.219757
0.938782 0.527954 0.219330
0.954773 0.527222 0.218872
0.969971 0.526672 0.218475
0.275391 0.569183 0.231995
0.307129 0.569183 0.231995
0.338165 0.569183 0.231995
0.368317 0.569183 0.231995
0.397522 0.569183 0.231995
0.425903 0.569183 0.231995
0.453217 0.569183 0.231995
0.479736 0.569183 0.231995
0.505219 0.569183 0.231995
0.529877 0.569183 0.231995
0.553619 0.569183 0.231995
0.576294 0.569122 0.231903
0.598419 0.568939 0.231537
0.620758 0.568726 0.231201
0.643250 0.568512 0.230835
0.665680 0.568207 0.230499
0.687073 0.566711 0.229126
0.707764 0.565094 0.228790
0.728424 0.563538 0.228394
0.749847 0.562286 0.226807
0.770264 0.560944 0.226379
0.790527 0.559723 0.225952
0.810577 0.558655 0.225525
0.831146 0.557465 0.223663
0.850525 0.556458 0.223206
0.869446 0.555450 0.222717
0.887970 0.554443 0.222290
0.905792 0.553558 0.221863
0.923126 0.552795 0.221405
0.940887 0.551758 0.219269
0.956909 0.551086 0.218811
0.972137 0.550354 0.218414
0.275055 0.591309 0.231659
0.306885 0.591309 0.231659
0.337921 0.591309 0.231659
0.368011 0.591309 0.231659
0.397247 0.591309 0.231659
0.425629 0.591309 0.231659
0.453003 0.591309 0.231659
0.479523 0.591309 0.231659
0.505035 0.591309 0.231659
0.529694 0.591309 0.231659
0.553345 0.591309 0.231659
0.576172 0.591309 0.231659
0.598419 0.591248 0.231537
0.620758 0.591095 0.231201
0.643250 0.590912 0.230835
0.665863 0.590668 0.230499
0.688538 0.590485 0.230133
0.709412 0.588928 0.229828
0.730804 0.587555 0.228363
0.751312 0.586029 0.227936
0.771759 0.584656 0.227600
0.792816 0.583435 0.225922
0.812744 0.582092 0.225494
0.832428 0.580994 0.225067
0.851685 0.579895 0.224670
0.871643 0.578857 0.222687
0.890076 0.577881 0.222229
0.907990 0.576904 0.221802
0.925354 0.576141 0.221375
0.941925 0.575317 0.220978
0.957977 0.574554 0.220581
0.973083 0.573975 0.220215
0.274658 0.613556 0.231323
0.306580 0.613556 0.231323
0.337616 0.613556 0.231323
0.367706 0.613556 0.231323
0.397003 0.613556 0.231323
0.425323 0.613556 0.231323
0.452789 0.613556 0.231323
0.479248 0.613556 0.231323
0.504791 0.613556 0.231323
0.529510 0.613556 0.231323
0.553192 0.613556 0.231323
0.575958 0.613556 0.231323
0.598267 0.613556 0.231323
0.620758 0.613464 0.231201
0.643250 0.613342 0.230835
0.665863 0.613129 0.230499
0.688538 0.613007 0.230133
0.711243 0.612762 0.229797
0.732422 0.611511 0.229462
0.753723 0.610260 0.227905
0.774078 0.608612 0.227570
0.794189 0.607208 0.227203
0.815063 0.606018 0.225433
0.834686 0.604767 0.225006
0.853912 0.603485 0.224609
0.872803 0.602478 0.224182
0.891205 0.601379 0.223816
0.910156 0.600464 0.221771
0.927521 0.599548 0.221313
0.944122 0.598785 0.220917
0.960083 0.597839 0.220490
0.975250 0.597351 0.220184
0.274384 0.636047 0.230957
0.306183 0.636047 0.230957
0.337250 0.636047 0.230957
0.367462 0.636047 0.230957
0.396698 0.636047 0.230957
0.425110 0.636047 0.230957
0.452545 0.636047 0.230957
0.479095 0.636047 0.230957
0.504608 0.636047 0.230957
0.529236 0.636047 0.230957
0.552979 0.636047 0.230957
0.575745 0.636047 0.230957
0.598114 0.636047 0.230957
0.620605 0.636047 0.230957
0.643250 0.635986 0.230835
0.665863 0.635834 0.230499
0.688538 0.635620 0.230133
0.711243 0.635468 0.229797
0.733826 0.635376 0.229431
0.755371 0.634430 0.229095
0.776520 0.633118 0.227509
0.796570 0.631561 0.227142
0.816498 0.630157 0.226746
0.836090 0.628693 0.226410
0.856262 0.627655 0.224579
0.875061 0.626465 0.224152
0.893524 0.625397 0.223785
0.911346 0.624390 0.223389
0.928589 0.623535 0.222992
0.946350 0.622559 0.220856
0.962341 0.621674 0.220459
0.977417 0.620911 0.220123
0.274109 0.658661 0.230621
0.305969 0.658661 0.230621
0.336914 0.658661 0.230621
0.367126 0.658661 0.230621
0.396484 0.658661 0.230621
0.424835 0.658661 0.230621
0.452271 0.658661 0.230621
0.478882 0.658661 0.230621
0.504333 0.658661 0.230621
0.529053 0.658661 0.230621
0.552765 0.658661 0.230621
0.575592 0.658661 0.230621
0.597931 0.658661 0.230621
0.620453 0.658661 0.230621
0.643127 0.658661 0.230621
0.665863 0.658569 0.230499
0.688538 0.658508 0.230133
0.711243 0.658264 0.229797
0.733826 0.658142 0.229431
0.756256 0.658051 0.229095
0.778076 0.657440 0.228760
0.798157 0.655792 0.228455
0.818878 0.654602 0.226715
0.838409 0.653046 0.226379
0.857605 0.651825 0.226013
0.877472 0.650696 0.224091
0.895874 0.649628 0.223694
0.913696 0.648529 0.223328
0.931000 0.647552 0.222961
0.947479 0.646515 0.222595
0.963440 0.645721 0.222229
0.979767 0.644836 0.220062
0.273682 0.681335 0.230255
0.305603 0.681335 0.230255
0.336578 0.681335 0.230255
0.366882 0.681335 0.230255
0.396149 0.681335 0.230255
0.424561 0.681335 0.230255
0.452026 0.681335 0.230255
0.478607 0.681335 0.230255
0.504150 0.681335 0.230255
0.528778 0.681335 0.230255
0.552551 0.681335 0.230255
0.575378 0.681335 0.230255
0.597778 0.681335 0.230255
0.620270 0.681335 0.230255
0.642975 0.681335 0.230255
0.665771 0.681335 0.230255
0.688538 0.681305 0.230133
0.711243 0.681122 0.229797
0.733826 0.681030 0.229431
0.756256 0.680817 0.229095
0.778534 0.680695 0.228760
0.800568 0.680573 0.228424
0.820435 0.678986 0.228088
0.840851 0.677795 0.226318
0.860046 0.676270 0.225983
0.878815 0.674957 0.225616
0.897217 0.673767 0.225281
0.916016 0.672882 0.223267
0.933228 0.671692 0.222900
0.949921 0.670715 0.222565
0.965759 0.669800 0.222198
0.980896 0.668976 0.221863
0.273346 0.703979 0.229919
0.305237 0.703979 0.229919
0.336365 0.703979 0.229919
0.366577 0.703979 0.229919
0.395874 0.703979 0.229919
0.424286 0.703979 0.229919
0.451691 0.703979 0.229919
0.478394 0.703979 0.229919
0.503967 0.703979 0.229919
0.528595 0.703979 0.229919
0.552338 0.703979 0.229919
0.575226 0.703979 0.229919
0.597565 0.703979 0.229919
0.620148 0.703979 0.229919
0.642792 0.703979 0.229919
0.665649 0.703979 0.229919
0.688446 0.703979 0.229919
0.711243 0.703888 0.229797
0.733826 0.703796 0.229431
0.756256 0.703705 0.229095
0.778534 0.703522 0.228760
0.800568 0.703369 0.228424
0.822296 0.703308 0.228088
0.842346 0.702026 0.227753
0.862457 0.701050 0.225952
0.881195 0.699493 0.225555
0.899536 0.698151 0.225250
0.917297 0.696930 0.224915
0.934570 0.695892 0.224609
0.952271 0.695068 0.222473
0.968201 0.694031 0.222168
0.983276 0.693146 0.221802
0.273010 0.726624 0.229553
0.305054 0.726624 0.229553
0.336029 0.726624 0.229553
0.366272 0.726624 0.229553
0.395691 0.726624 0.229553
0.424042 0.726624 0.229553
0.451538 0.726624 0.229553
0.478149 0.726624 0.229553
0.503693 0.726624 0.229553
0.528442 0.726624 0.229553
0.552124 0.726624 0.229553
0.574951 0.726624 0.229553
0.597351 0.726624 0.229553
0.619904 0.726624 0.229553
0.642670 0.726624 0.229553
0.665436 0.726624 0.229553
0.688324 0.726624 0.229553
0.711121 0.726624 0.229553
0.733826 0.726593 0.229431
0.756256 0.726440 0.229095
0.778534 0.726379 0.228760
0.800568 0.726166 0.228424
0.822296 0.726044 0.228088
0.843689 0.725983 0.227753
0.863953 0.725311 0.227417
0.882690 0.723785 0.227142
0.901947 0.722717 0.225220
0.919739 0.721313 0.224884
0.937012 0.720306 0.224579
0.953522 0.719116 0.224243
0.969360 0.718109 0.223969
0.985687 0.717438 0.221771
0.272705 0.749084 0.229218
0.304657 0.749084 0.229218
0.335815 0.749084 0.229218
0.366028 0.749084 0.229218
0.395416 0.749084 0.229218
0.423859 0.749084 0.229218
0.451263 0.749084 0.229218
0.477814 0.749084 0.229218
0.503418 0.749084 0.229218
0.528107 0.749084 0.229218
0.552002 0.749084 0.229218
0.574860 0.749084 0.229218
0.597198 0.749084 0.229218
0.619781 0.749084 0.229218
0.642548 0.749084 0.229218
0.665314 0.749084 0.229218
0.688110 0.749084 0.229218
0.710968 0.749084 0.229218
0.733734 0.749084 0.229218
0.756256 0.749084 0.229095
0.778534 0.748993 0.228760
0.800568 0.748840 0.228424
0.822296 0.748749 0.228088
0.843689 0.748657 0.227753
0.864685 0.748474 0.227417
0.885132 0.748352 0.227112
0.903381 0.746735 0.226837
0.922241 0.745850 0.224854
0.939423 0.744629 0.224518
0.955933 0.743439 0.224182
0.971832 0.742371 0.223907
0.986969 0.741333 0.223663
0.272400 0.771423 0.228851
0.304352 0.771423 0.228851
0.335510 0.771423 0.228851
0.365692 0.771423 0.228851
0.394989 0.771423 0.228851
0.423523 0.771423 0.228851
0.450958 0.771423 0.228851
0.477692 0.771423 0.228851
0.503265 0.771423 0.228851
0.527924 0.771423 0.228851
0.551758 0.771423 0.228851
0.574677 0.771423 0.228851
0.597015 0.771423 0.228851
0.619598 0.771423 0.228851
0.642334 0.771423 0.228851
0.665131 0.771423 0.228851
0.688080 0.771423 0.228851
0.710876 0.771423 0.228851
0.733612 0.771423 0.228851
0.756165 0.771423 0.228851
0.778534 0.771454 0.228760
0.800568 0.771271 0.228424
0.822296 0.771149 0.228088
0.843689 0.771149 0.227753
0.864685 0.770966 0.227417
0.885223 0.770874 0.227112
0.905304 0.770813 0.226807
0.923615 0.769897 0.226501
0.940796 0.768463 0.226257
0.958435 0.767761 0.224152
0.974335 0.766602 0.223877
0.989441 0.765533 0.223602
0.271973 0.793549 0.228516
0.303955 0.793549 0.228516
0.335114 0.793549 0.228516
0.365448 0.793549 0.228516
0.394897 0.793549 0.228516
0.423309 0.793549 0.228516
0.450775 0.793549 0.228516
0.477386 0.793549 0.228516
0.502991 0.793549 0.228516
0.527771 0.793549 0.228516
0.551544 0.793549 0.228516
0.574402 0.793549 0.228516
0.596832 0.793549 0.228516
0.619354 0.793549 0.228516
0.642242 0.793549 0.228516
0.665039 0.793549 0.228516
0.687927 0.793549 0.228516
0.710815 0.793549 0.228516
0.733459 0.793549 0.228516
0.756134 0.793549 0.228516
0.778442 0.793549 0.228516
0.800568 0.793579 0.228424
0.822296 0.793427 0.228088
0.843689 0.793304 0.227753
0.864685 0.793274 0.227417
0.885223 0.793121 0.227112
0.905304 0.793091 0.226807
0.924774 0.792938 0.226501
0.943207 0.792603 0.226227
0.959717 0.791229 0.225952
0.976746 0.790527 0.223816
0.991791 0.789490 0.223572
0.271729 0.815369 0.228180
0.303741 0.815369 0.228180
0.334869 0.815369 0.228180
0.365204 0.815369 0.228180
0.394592 0.815369 0.228180
0.422943 0.815369 0.228180
0.450531 0.815369 0.228180
0.477203 0.815369 0.228180
0.502777 0.815369 0.228180
0.527588 0.815369 0.228180
0.551361 0.815369 0.228180
0.574188 0.815369 0.228180
0.596710 0.815369 0.228180
0.619263 0.815369 0.228180
0.641998 0.815369 0.228180
0.664886 0.815369 0.228180
0.687805 0.815369 0.228180
0.710632 0.815369 0.228180
0.733429 0.815369 0.228180
0.755890 0.815369 0.228180
0.778381 0.815369 0.228180
0.800446 0.815369 0.228180
0.822296 0.815308 0.228088
0.843689 0.815277 0.227753
0.864685 0.815155 0.227417
0.885223 0.815063 0.227112
0.905304 0.815002 0.226807
0.924774 0.814972 0.226501
0.943604 0.814880 0.226196
0.961731 0.814850 0.225922
0.978027 0.813934 0.225677
0.993134 0.812866 0.225433
0.271423 0.836914 0.227844
0.303497 0.836914 0.227844
0.334534 0.836914 0.227844
0.364899 0.836914 0.227844
0.394287 0.836914 0.227844
0.422791 0.836914 0.227844
0.450348 0.836914 0.227844
0.476929 0.836914 0.227844
0.502594 0.836914 0.227844
0.527313 0.836914 0.227844
0.551086 0.836914 0.227844
0.574066 0.836914 0.227844
0.596466 0.836914 0.227844
0.619019 0.836914 0.227844
0.641876 0.836914 0.227844
0.664673 0.836914 0.227844
0.687592 0.836914 0.227844
0.710541 0.836914 0.227844
0.733337 0.836914 0.227844
0.755829 0.836914 0.227844
0.778290 0.836914 0.227844
0.800415 0.836914 0.227844
0.822235 0.836914 0.227844
0.843689 0.836853 0.227753
0.864685 0.836884 0.227417
0.885223 0.836731 0.227112
0.905304 0.836670 0.226807
0.924774 0.836700 0.226501
0.943604 0.836639 0.226196
0.961731 0.836487 0.225922
0.979126 0.836426 0.225647
0.995514 0.836243 0.225403
0.271149 0.858032 0.227509
0.303192 0.858032 0.227509
0.334290 0.858032 0.227509
0.364502 0.858032 0.227509
0.394012 0.858032 0.227509
0.422516 0.858032 0.227509
0.450073 0.858032 0.227509
0.476654 0.858032 0.227509
0.502441 0.858032 0.227509
0.527100 0.858032 0.227509
0.550964 0.858032 0.227509
0.573853 0.858032 0.227509
0.596313 0.858032 0.227509
0.618958 0.858032 0.227509
0.641754 0.858032 0.227509
0.664551 0.858032 0.227509
0.687500 0.858032 0.227509
0.710327 0.858032 0.227509
0.733124 0.858032 0.227509
0.755707 0.858032 0.227509
0.778198 0.858032 0.227509
0.800354 0.858032 0.227509
0.822113 0.858032 0.227509
0.843628 0.858032 0.227509
0.864685 0.857971 0.227417
0.885223 0.857880 0.227112
0.905304 0.857788 0.226807
0.924774 0.857849 0.226501
0.943604 0.857819 0.226196
0.961731 0.857727 0.225922
0.979126 0.857666 0.225647
0.995667 0.857666 0.225403
0.270905 0.878723 0.227203
0.302917 0.878723 0.227203
0.334015 0.878723 0.227203
0.364380 0.878723 0.227203
0.393799 0.878723 0.227203
0.422211 0.878723 0.227203
0.449829 0.878723 0.227203
0.476501 0.878723 0.227203
0.502136 0.878723 0.227203
0.526947 0.878723 0.227203
0.550842 0.878723 0.227203
0.573700 0.878723 0.227203
0.596130 0.878723 0.227203
0.618805 0.878723 0.227203
0.641632 0.878723 0.227203
0.664459 0.878723 0.227203
0.687317 0.878723 0.227203
0.710236 0.878723 0.227203
0.733002 0.878723 0.227203
0.755615 0.878723 0.227203
0.778107 0.878723 0.227203
0.800262 0.878723 0.227203
0.822144 0.878723 0.227203
0.843567 0.878723 0.227203
0.864655 0.878723 0.227203
0.885223 0.878693 0.227112
0.905304 0.878632 0.226807
0.924774 0.878571 0.226501
0.943604 0.878662 0.226196
0.961731 0.878448 0.225922
0.979126 0.878571 0.225647
0.995667 0.878510 0.225403
0.270538 0.898956 0.226898
0.302612 0.898956 0.226898
0.333710 0.898956 0.226898
0.364136 0.898956 0.226898
0.393555 0.898956 0.226898
0.421936 0.898956 0.226898
0.449554 0.898956 0.226898
0.476349 0.898956 0.226898
0.501923 0.898956 0.226898
0.526855 0.898956 0.226898
0.550598 0.898956 0.226898
0.573517 0.898956 0.226898
0.596008 0.898956 0.226898
0.618591 0.898956 0.226898
0.641357 0.898956 0.226898
0.664307 0.898956 0.226898
0.687286 0.898956 0.226898
